/* XPM */
static char *_939cc0c8b08431bfa98c040d63ee4d4gqOkClFWW1t4bPsK[] = {
/* columns rows colors chars-per-pixel */
"53 80 193 2 ",
"   c None",
".  c #160401",
"X  c #1F0200",
"o  c #240303",
"O  c #2C0102",
"+  c #2D0806",
"@  c #2C030B",
"#  c #2F080A",
"$  c #340202",
"%  c #3B0202",
"&  c #330309",
"*  c #3B040A",
"=  c #37090B",
"-  c #3B0B0B",
";  c #330905",
":  c #37160F",
">  c #3E120D",
",  c #350512",
"<  c #3B0410",
"1  c #350B10",
"2  c #3E0B13",
"3  c #3D0E18",
"4  c #2F1C1C",
"5  c #3E1115",
"6  c #3B1118",
"7  c #37241D",
"8  c #3A1E20",
"9  c #382C2E",
"0  c #342222",
"q  c #3A3A3A",
"w  c #430303",
"e  c #4B0303",
"r  c #430A03",
"t  c #4B0800",
"y  c #440309",
"u  c #450B0D",
"i  c #4B0B0B",
"p  c #520202",
"a  c #5C0003",
"s  c #510B06",
"d  c #5C0804",
"f  c #530209",
"g  c #5C040B",
"h  c #530D0C",
"j  c #5B0B0C",
"k  c #44100F",
"l  c #4E110C",
"z  c #420D14",
"x  c #4C0D14",
"c  c #420E19",
"v  c #560D12",
"b  c #5E0D14",
"n  c #520B18",
"m  c #441315",
"M  c #4C1515",
"N  c #4F1917",
"B  c #47131C",
"V  c #4B161B",
"C  c #4B181C",
"Z  c #551413",
"A  c #5D1314",
"S  c #591A16",
"D  c #50111D",
"F  c #5C1419",
"G  c #571C1B",
"H  c #5A1B1E",
"J  c #63060B",
"K  c #65090C",
"L  c #61110F",
"P  c #630D12",
"I  c #6E0F18",
"U  c #700D13",
"Y  c #641414",
"T  c #6A1215",
"R  c #641A15",
"E  c #6A1915",
"W  c #64141A",
"Q  c #6C1519",
"!  c #621B1B",
"~  c #6B1B1B",
"^  c #741517",
"/  c #791517",
"(  c #721B16",
")  c #7B1C16",
"_  c #73151B",
"`  c #7D171B",
"'  c #731B1B",
"]  c #7C1C1C",
"[  c #44231C",
"{  c #6E211F",
"}  c #6A2316",
"|  c #77221E",
" . c #7C221D",
".. c #4E1522",
"X. c #4E1925",
"o. c #511623",
"O. c #541C24",
"+. c #5B1D24",
"@. c #561D2A",
"#. c #591E2C",
"$. c #591E2B",
"%. c #651D21",
"&. c #691722",
"*. c #761720",
"=. c #7F1621",
"-. c #741C22",
";. c #7D1C23",
":. c #751F2A",
">. c #552126",
",. c #532521",
"<. c #5B2125",
"1. c #5D2226",
"2. c #5C2423",
"3. c #562029",
"4. c #57212C",
"5. c #5A212D",
"6. c #5E212E",
"7. c #5E242A",
"8. c #52312A",
"9. c #413731",
"0. c #463A3A",
"q. c #543733",
"w. c #5B3530",
"e. c #5C3A34",
"r. c #5C3D3A",
"t. c #6E2223",
"y. c #652826",
"u. c #6F2129",
"i. c #61292E",
"p. c #692C2B",
"a. c #742322",
"s. c #7B2222",
"d. c #742B24",
"f. c #7B2A27",
"g. c #73252B",
"h. c #7C252C",
"j. c #742B2D",
"k. c #7A2B2C",
"l. c #6A342D",
"z. c #74322B",
"x. c #703B2F",
"c. c #762F35",
"v. c #7C2B34",
"b. c #653333",
"n. c #6F3338",
"m. c #6D3835",
"M. c #753337",
"N. c #7D373F",
"B. c #7F3A3D",
"V. c #46453F",
"C. c #644138",
"Z. c #75443B",
"A. c #4C3E40",
"S. c #7C3640",
"D. c gray28",
"F. c #4A4142",
"G. c #504640",
"H. c #524F49",
"J. c #5A5152",
"K. c #5D5D5D",
"L. c #6E4643",
"P. c #604C46",
"I. c #794748",
"U. c #734B4A",
"Y. c #784D4C",
"T. c #754B52",
"R. c #615859",
"E. c #821D16",
"W. c #841B1C",
"Q. c #89191D",
"!. c #82211E",
"~. c #89241D",
"^. c #821622",
"/. c #841D23",
"(. c #8A1A21",
"). c #842324",
"_. c #832827",
"`. c #83242A",
"'. c #8C272E",
"]. c #87292B",
"[. c #8A2A2D",
"{. c #892522",
"}. c #8A302C",
"|. c #8C2A31",
" X c #912B34",
".X c #82313A",
"XX c #973D39",
"oX c #943231",
"OX c #875248",
"+X c #845157",
"@X c #87535E",
"#X c #8B6265",
"$X c #936866",
/* pixels */
"                                    % w $                                                                 ",
"                                  o r t r     V.                                                          ",
"                            q R.8 O i s l O 7 H.                                                          ",
"                              9   * h h s $                                                               ",
"                                  * f g e $                                                               ",
"                            D.  @ y f g g % + 0 J.                                                        ",
"                            K.A.@ y f J P w # 4 0.                                                        ",
"                                @ * f g f % o                                                             ",
"                                @ * y y y O X .                                                           ",
"                                @ & * * & O X                                                             ",
"                                  & % * & O o                                                             ",
"                                    & * & O                                                               ",
"                                    @ < 5.B                                                               ",
"                                      < @.O.&                                                             ",
"                                      * o.$.*                                                             ",
"                                      & o.6.2                                                             ",
"                                      & O.6.c                                                             ",
"                                      & O.$.c                                                             ",
"                                      O B @.B                                                             ",
"                                      O B @.B                                                             ",
"                                        c 5.X.                                                            ",
"                                        2 5.O.                                                            ",
"                                        * 3.3.#                                                           ",
"                                        & O.>.1                                                           ",
"                                        O C O.5                                                           ",
"                                        O B O.5                                                           ",
"                                        O V O.m                                                           ",
"                                        o C O.m                                                           ",
"                                        o = <.B                                                           ",
"                                          = <.V                                                           ",
"                                          = 1.C                                                           ",
"                                          = 1.V o                                                         ",
"                                          O V O.6                                                         ",
"                                          O V +.6                                                         ",
"                                          O V +.3                                                         ",
"                                          O V +.c                                                         ",
"                                          O u +...                                                        ",
"                                            u +...                                                        ",
"                                            u +...                                                        ",
"                                            u 1.o.&                                                       ",
"                                            ; M 1.$                                                       ",
"                                            + M H u                                                       ",
"                                            + M H m                                                       ",
"                                            + M +.u                                                       ",
"                                            O - 1.V                                                       ",
"                                              = 1.V                                                       ",
"                                              * 7.B                                                       ",
"                                              * 6.B                                                       ",
"                                              < 6...@                                                     ",
"                                              , $.o.,                 &                                   ",
"                                              @ X.@.3               c 7.2                                 ",
"                                              @ B 4.c           & z H +.M O                               ",
"                          * -                 o m >.z       % y H ! W W A i                               ",
"                          Z S i y %           ; > ,.k $ % e W -.~ ~ ' Q Y h %                             ",
"                          A R E T P h r $ $ $ $ > ,.N w j ^ /.'.] ] ] ] K j r O                           ",
"                        l j L Q ` ;.h.k.! ! ! F u 2.G i h.`.(.(.). .W.W.K d t $                           ",
"                        Z A R ( W.(./././././.;.b %.H ! { s.W.W.W.W.W.W./ J t $ $                         ",
"                        Z A R ( W.(.(.(.Q.Q.(.^._ &.%.%.t. .W.W.W.W.W./.] P t % *                         ",
"                      % Z Y R ( W.Q.Q.Q.Q.Q.(.^.*.:.u.t.a.] W.Q.W.W././.`.Q e w % O                       ",
"                      u A Y E ( W.Q.Q.Q.Q.Q.(.^.;.h.g.g.a.] W.Q.!.W./././.' f w % $                       ",
"                      M A T ( ) W.Q.Q.Q.Q.Q.(./.h.v.M.j.a. .~.W.!.!./././.' e y y *                       ",
"                      Z Y T ^ ) W.Q.Q.Q.Q.Q.(./.h.M.n.m.z.f._.!. .!././.;.Q w u u *                       ",
"                      v T ^ ) ] W.W.W.W.Q.Q.(.;.B.I.U.L.m.l.a.|  .)././.;.T w y u * o                     ",
"                      A T ^ ) ] W.W.W.W.W.Q.(.;.y.w.q.q.b.l.j.s.s.] /./.;.P w y u * o                     ",
"                      A T ^ ` ] W.W.W.W.W.W.W.;.p.C.P.P.r.b.k.;.' ] ^.^.;.P w y y * o                     ",
"                      F T ^ ) ] W.W.W.W.W.W.W. .z.Z.U.Y.b.p.a./.s.;.;.=.;.P w y y * o                     ",
"                      F T ^ ) W.W.W.W.W.W.W.W.) ( | k.j.g.a.s.).[.]./.` ;.j w y y % o                     ",
"                      F W _ ) ] W.W.W.W.W.W.W.E.E.{.'.|.`./.]  .XX|./.;.*.g w w y % o                     ",
"                      x W Q ' ] W.Q.Q.W.Q.Q.W.E.~.W.`. X|.;.] ).}.]././.I f w y y $                       ",
"                      x A Y E ' W.Q.Q.Q.Q.Q.W.E.)  .k..Xv.:.`.oX_.s.;.;.J p r w % $                       ",
"                        v Y E ( W.W.Q.Q.Q.Q.Q. .} x.Y.T.@XS.:.] s.' ;.U a p y % % O                       ",
"                        i A Y ' W.W.Q.W.W.Q.Q.] d.OX$X#X+XN.`.[.' ' _ d p e w % $ O                       ",
"                        = v Y ^ ` Q.Q.Q.Q.W.W.W.s.f.~ ~ ~ ] ^ ^ s.a.j e w % % ; O o                       ",
"                          S ~ K ^ ] W.W.`.`./.;.-.~ d.a.~ { s R Z S r $ % % $ ; o                         ",
"                          M ! j Y ' a.s.`.h._ P m [ [ 8.w.:           O $ % % $ O                         ",
"                            i v A ~ t.t.g.&.v         9.G.                  * & o                         ",
"                              v W b b +.i.              F.                                                ",
"                              y W &.n &                                                                   ",
"                                x D                                                                       ",
"                                                                                                          "
};
