/* XPM */
static char *result[] = {
/* columns rows colors chars-per-pixel */
"80 80 55 1 ",
"  c #291B17",
". c #301E19",
"X c #391E18",
"o c #2A201C",
"O c #34221C",
"+ c #3E2019",
"@ c #2F2522",
"# c #362620",
"$ c #3E2720",
"% c #312A27",
"& c #392C28",
"* c #38322F",
"= c #3F3936",
"- c #43221A",
"; c #40241C",
": c #45241C",
"> c #47271D",
", c #4B261D",
"< c #482A1F",
"1 c #4D291F",
"2 c #432D25",
"3 c #4F2D20",
"4 c #4E2D26",
"5 c #522A20",
"6 c #562D22",
"7 c #5A2F24",
"8 c #4C3025",
"9 c #44342F",
"0 c #4C312A",
"q c #4F342D",
"w c #553123",
"e c #5B3426",
"r c #5C3727",
"t c #53352A",
"y c #5B392F",
"u c #453F3C",
"i c #523B33",
"p c #503A34",
"a c #513B34",
"s c #593F38",
"d c #613226",
"f c #623629",
"g c #653528",
"h c #613A2A",
"j c #69382A",
"k c #693B2B",
"l c #6F3B2C",
"z c #693F2D",
"x c #743F2E",
"c c #5F443C",
"v c #70432F",
"b c #794432",
"n c #4E4541",
"m c #844D3A",
"M c None",
/* pixels */
"MMMMMMMMMMMMMMMMMMMMMMMMMMMMMMMMMMMMMMMMMMMMMMMMMMMMMMMMMMMMMMMMMMMMMMMMMMMMMMMM",
"MMMMMMMMMMMMMMMMMMMMMMMMMMMMMMMMMMMMMMMMMMMMMMMMMMMMMMMMMMMMMMMMMMMMMMMMMMMMMMMM",
"MMMMMMMMMMMMMMMMMMMMMMMMMMMMMMMMMMMMMMMMMMMMMMMMMMMMMMMMMMMMMMMMMMMMMMMMMMMMMMMM",
"MMMMMMMMMMMMMMMMMMMMMMMMMMMMMMMMMMMMMMMMMMMMMMMMMMMMMMMMMMMMMMMMMMMMMMMMMMMMMMMM",
"MMMMMMMMMMMMMMMMMMMMMMMMMMMMMMMMMMMMMMMMMMMMMMMMMMMMMMMMMMMMMMMMMMMMMMMMMMMMMMMM",
"MMMMMMMMMMMMMMMMMMMMMMMMMMMMMMMMMMMMMMMMMMMMMMMMMMMMMMMMMMMMMMMMMMMMMMMMMMMMMMMM",
"MMMMMMMMMMMMMMMMMMMMMMMMMMMMMMMMMMMMMMMMMMMMMMMMMMMMMMMMMMMMMMMMMMMMMMMMMMMMMMMM",
"MMMMMMMMMMMMMMMMMMMMMMMMMMMMMMMMMMiq044<844qiMMMMMMMMMMMMMMMMMMMMMMMMMMMMMMMMMMM",
"MMMMMMMMMMMMMMMMMMMMMMMMMMMMMMMMq<.;,,,+:31>;4sMMMMMMMMMMMMMMMMMMMMMMMMMMMMMMMMM",
"MMMMMMMMMMMMMMMMMMMMMMMMMMMMMM0;-:.;1,1+>355>e77qMMMMMMMMMMMMMMMMMMMMMMMMMMMMMMM",
"MMMMMMMMMMMMMMMMMMMMMMMMMMMMs8+--:X:116:>1151gf7,;sMMMMMMMMMMMMMMMMMMMMMMMMMMMMM",
"MMMMMMMMMMMMMMMMMMMMMMMMMMM03<-:,,X:557>,11,,gjd5+:0MMMMMMMMMMMMMMMMMMMMMMMMMMMM",
"MMMMMMMMMMMMMMMMMMMMMMMMMMy31>+:,,X166e>1511:gjj6,1,0MMMMMMMMMMMMMMMMMMMMMMMMMMM",
"MMMMMMMMMMMMMMMMMMMMMMMMM055,,+>11+577g15665>jxxd17510MMMMMMMMMMMMMMMMMMMMMMMMMM",
"MMMMMMMMMMMMMMMMMMMMMMMMq:5511:155:7gdj667d61jxxj6dd7:qMMMMMMMMMMMMMMMMMMMMMMMMM",
"MMMMMMMMMMMMMMMMMMMMMMMp>-6651,567>flgl67dg75jxbl7jjf<1cMMMMMMMMMMMMMMMMMMMMMMMM",
"MMMMMMMMMMMMMMMMMMMMMMM4>;6675,67d1jxjlegjgf7kxmb7jjf36yMMMMMMMMMMMMMMMMMMMMMMMM",
"MMMMMMMMMMMMMMMMMMMMMMs<<;67d757dg5zblxfjljjrvbmmdjjg17gsMMMMMMMMMMMMMMMMMMMMMMM",
"MMMMMMMMMMMMMMMMMMMMMM4<>-7dgf6dgg5jbxbeflkjhbbmmdljg57gyMMMMMMMMMMMMMMMMMMMMMMM",
"MMMMMMMMMMMMMMMMMMMMMp>><>fjjjdkjj6gxxxdkzljhbmmmfljg67g7iMMMMMMMMMMMMMMMMMMMMMM",
"MMMMMMMMMMMMMMMMMMMMMq,><1kxllfkllwjxxxdkkjjfvzmbhljfwef7qMMMMMMMMMMMMMMMMMMMMMM",
"MMMMMMMMMMMMMMMMMMMMM4,51,kxjlfjjjwjxxbdjljjau=tjexk9;eheyMMMMMMMMMMMMMMMMMMMMMM",
"MMMMMMMMMMMMMMMMMMMMM11635llllfkkj6kbbbgjjgj8uutz8kz9#2228MMMMMMMMMMMMMMMMMMMMMM",
"MMMMMMMMMMMMMMMMMMMMM3666wxlllhzjxfxbbbrat8aaa8zn2t9&##&92cMMMMMMMMMMMMMMMMMMMMM",
"MMMMMMMMMMMMMMMMMMMMp56777lxlxhxlxfvbbb8&&89u99n&222&O$9n@iMMMMMMMMMMMMMMMMMMMMM",
"MMMMMMMMMMMMMMMMMMMMi56d66jxxvhvxxrthn9$299$$2a=tn22&989%OsMMMMMMMMMMMMMMMMMMMMM",
"MMMMMMMMMMMMMMMMMMMMi56755glxvhvblw992t989=2<tt9t=u8an9t#1yMMMMMMMMMMMMMMMMMMMMM",
"MMMMMMMMMMMMMMMMMMMMi56655jglzhzjd82#$8#;<$O#*2=u2=2w9=t2<aMMMMMMMMMMMMMMMMMMMMM",
"MMMMMMMMMMMMMMMMMMMMi3671,gdjzhfdt&&2#*&8a9&*&2nnuaannunn=nMMMMMMMMMMMMMMMMMMMMM",
"MMMMMMMMMMMMMMMMMMMMiwwre,77gkwee8%%%%=**=%*=&*=uu==nnunn=uMMMMMMMMMMMMMMMMMMMMM",
"MMMMMMMMMMMMMMMMMMMMiweeewfejf3wrt%@o@@oO..ooo.*=@#$$#&&*@9MMMMMMMMMMMMMMMMMMMMM",
"MMMMMMMMMMMMMMMMMMMMi3www8zhg7,wee#%@O$#O#&oo%O&@#u&8n*2&:aMMMMMMMMMMMMMMMMMMMMM",
"MMMMMMMMMMMMMMMMMMMMi<361>rr76:333$%#*2o##%oO#2#$9%#9=@8&10MMMMMMMMMMMMMMMMMMMMM",
"MMMMMMMMMMMMMMMMMMMMi<11>>w661-1,1;$22oo#@oo&&&@2o O@o$2=#iMMMMMMMMMMMMMMMMMMMMM",
"MMMMMMMMMMMMMMMMMMMMi>>>;;315,-1,,;rhh2#%oO%&oo&& Ooo $2%@iMMMMMMMMMMMMMMMMMMMMM",
"MMMMMMMMMMMMMMMMMMMMi<>>;+,11,-,,,;hvzh$...O.&&$@.O.  o#&OiMMMMMMMMMMMMMMMMMMMMM",
"MMMMMMMMMMMMMMMMMMMMi<<:+X,11,;1,1;hzkh<>>>>#%%$$ -$@ O##<iMMMMMMMMMMMMMMMMMMMMM",
"MMMMMMMMMMMMMMMMMMMMi<>-+X,13>;1,1;efgk3>13<O&@#<+>;O >663iMMMMMMMMMMMMMMMMMMMMM",
"MMMMMMMMMMMMMMMMMMMMi>:-+X,35,-,,6<egdh3133w<8$t8;><;X>6ewiMMMMMMMMMMMMMMMMMMMMM",
"MMMMMMMMMMMMMMMMMMMMi<:-;+1ww1>1,63eggjw67771eere>3<>;3wewiMMMMMMMMMMMMMMMMMMMMM",
"MMMMMMMMMMMMMMMMMMMMi3:-+;3wrw3315<ejjlw7dd71djfh<333>wewtiMMMMMMMMMMMMMMMMMMMMM",
"MMMMMMMMMMMMMMMMMMMMi1:-++33w636578flll6edd73kkkkweww<3wwtcMMMMMMMMMMMMMMMMMMMMM",
"MMMMMMMMMMMMMMMMMMMMi<:-++53w3365fwflll6dddd6lbvzwhrw<we6epMMMMMMMMMMMMMMMMMMMMM",
"MMMMMMMMMMMMMMMMMMMMi>:-+X157w366d3flxl7dddd6lbvvrzhe<efwwpMMMMMMMMMMMMMMMMMMMMM",
"MMMMMMMMMMMMMMMMMMMMi:--+X,156577d3zbbbdgggd7xbbvhzzh3rheecMMMMMMMMMMMMMMMMMMMMM",
"MMMMMMMMMMMMMMMMMMMMi-+-;&&;55,57d3jxxl7jjgdwxbbbhzvzwhkfecMMMMMMMMMMMMMMMMMMMMM",
"MMMMMMMMMMMMMMMMMMMMi-+;%*@@:5,567>djlg57dgfwxvbvevvveklgfcMMMMMMMMMMMMMMMMMMMMM",
"MMMMMMMMMMMMMMMMMMMMi-+%  O##,,157>dgjg57ddkexxbvezbvrkxgfcMMMMMMMMMMMMMMMMMMMMM",
"MMMMMMMMMMMMMMMMMMMMi-;@ +,<#>,,6e>7dgg1677frvxxvhvvxfkxjjcMMMMMMMMMMMMMMMMMMMMM",
"MMMMMMMMMMMMMMMMMMMMi-+#.X,2O::,we>67dd,566ewxvxvhvzxhkblkcMMMMMMMMMMMMMMMMMMMMM",
"MMMMMMMMMMMMMMMMMMMMi--Oo@&#X,:3ww+1566:15561kvvzevkxhzblfcMMMMMMMMMMMMMMMMMMMMM",
"MMMMMMMMMMMMMMMMMMMMi:--XoOX15><33X:555-,,11:dzkf6kjlekvzhcMMMMMMMMMMMMMMMMMMMMM",
"MMMMMMMMMMMMMMMMMMMMi:::-+5575>,>>X-,15-:,>>:7hgd5ddgwfzkhcMMMMMMMMMMMMMMMMMMMMM",
"MMMMMMMMMMMMMMMMMMMMi::,:-7773:,::X-,,1+:::--6ed71777,7kfecMMMMMMMMMMMMMMMMMMMMM",
"MMMMMMMMMMMMMMMMMMMMi::,>-7761:,::X-,,,++--+X17d6:666,6feecMMMMMMMMMMMMMMMMMMMMM",
"MMMMMMMMMMMMMMMMMMMMp,,,>:6e61:1,:X-,:,++--+X5w75-555>57eecMMMMMMMMMMMMMMMMMMMMM",
"MMMMMMMMMMMMMMMMMMMMp113>:7e61-1,:X:1,,++---X5ww3-,11:,56ecMMMMMMMMMMMMMMMMMMMMM",
"MMMMMMMMMMMMMMMMMMMMp3333:7e71-1,:X>133+;->:+wwew-,,:;,56eMMMMMMMMMMMMMMMMMMMMMM",
"MMMMMMMMMMMMMMMMMMMMp<1w8>7ee1-1,,X<133+;><;X28rr>1,,-155ecMMMMMMMMMMMMMMMMMMMMM",
"MMMMMMMMMMMMMMMMMMMMp<1wt<7we3<31,X<133+:>>-O%%8r2<>$.1667cMMMMMMMMMMMMMMMMMMMMM",
"MMMMMMMMMMMMMMMMMMMMM>>3t8rrrw<ww1+13w3+;;;-@%%#8$<<@.$2<6cMMMMMMMMMMMMMMMMMMMMM",
"MMMMMMMMMMMMMMMMMMMMM::<88hhrw33w1+1w33O$#X+.%@29@$#. o@#$cMMMMMMMMMMMMMMMMMMMMM",
"MMMMMMMMMMMMMMMMMMMMM:-><8hhew<331+>w3<Oo  %*#.*@.Ooo..###pMMMMMMMMMMMMMMMMMMMMM",
"MMMMMMMMMMMMMMMMMMMMM--:>8hhe3<331+$;9%  @o oo@%.Oo.oo;$@OpMMMMMMMMMMMMMMMMMMMMM",
"MMMMMMMMMMMMMMMMMMMMM--><<hhrw<331X%#@.o.@%..O#%$*%O%*#$@:qMMMMMMMMMMMMMMMMMMMMM",
"MMMMMMMMMMMMMMMMMMMMM--<>>rhhw<331#@oo;o O@oo@.@@o@.O%%2#1aMMMMMMMMMMMMMMMMMMMMM",
"MMMMMMMMMMMMMMMMMMMMM>::+;wrrw<33>#@oo#.X$# ooo**@O.;O@%&&uMMMMMMMMMMMMMMMMMMMMM",
"MMMMMMMMMMMMMMMMMMMMM>::X+5www>112&%*@**&u*%*%*===**==*uu=uMMMMMMMMMMMMMMMMMMMMM",
"MMMMMMMMMMMMMMMMMMMMM>::++516w>33$o%oo%oO@ o@  %*@  oo@%@o=MMMMMMMMMMMMMMMMMMMMM",
"MMMMMMMMMMMMMMMMMMMMM>:<<;1,53>3<>O@@o.oOXOo @ &% &O;&%O#;aMMMMMMMMMMMMMMMMMMMMM",
"MMMMMMMMMMMMMMMMMMMMM::>>:6653<3<>.%@#$o @%o.OO@.&*o&=@$#3aMMMMMMMMMMMMMMMMMMMMM",
"MMMMMMMMMMMMMMMMMMMMM:-:->eww3<33>X.#&@.#@o #O##;@ .oo.#O<iMMMMMMMMMMMMMMMMMMMMM",
"MMMMMMMMMMMMMMMMMMMMM:---:ww313w11+;1<..@ .@=@o%&  .o $2#&cMMMMMMMMMMMMMMMMMMMMM",
"MMMMMMMMMMMMMMMMMMMMM:+-++66313e33+<ww3$@o.OoOO#% .   O#&#pMMMMMMMMMMMMMMMMMMMMM",
"MMMMMMMMMMMMMMMMMMMMM:--++53511ew3;3rew+;;+;#&%$O XX. .##$cMMMMMMMMMMMMMMMMMMMMM",
"MMMMMMMMMMMMMMMMMMMMM:-+XX>131<3w3;wrre>3><>O%@O-X-+o.<88wcMMMMMMMMMMMMMMMMMMMMM",
"MMMMMMMMMMMMMMMMMMMMM::+XX>13>:>13;weee28>>:X#O::X--+X8rw3cMMMMMMMMMMMMMMMMMMMMM",
"MMMMMMMMMMMMMMMMMMMMM>:-++>33>;<<3;wwww<<><>+116>+:::;3rtwcMMMMMMMMMMMMMMMMMMMMM",
"MMMMMMMMMMMMMMMMMMMMMMMMMMMMcMpcpppccccpppppppcpppppppccMcMMMMMMMMMMMMMMMMMMMMMM",
"MMMMMMMMMMMMMMMMMMMMMMMMMMMMMMMMMMMMMMMMMMMMMMMMMMMMMMMMMMMMMMMMMMMMMMMMMMMMMMMM"
};
