/* XPM */
static char *_20a817c1ff8425d8a7f0cfd1763e33e[] = {
/* columns rows colors chars-per-pixel */
"64 64 123 2 ",
"   c #176300",
".  c #1A6500",
"X  c #1E6902",
"o  c #226D05",
"O  c #246F09",
"+  c #257106",
"@  c #26710A",
"#  c #2A750D",
"$  c #2D790E",
"%  c #307C0F",
"&  c #2C7711",
"*  c #2E7912",
"=  c #327D15",
"-  c #347F18",
";  c #358116",
":  c #388417",
">  c #36811A",
",  c #3A851C",
"<  c #3D891E",
"1  c #3C8720",
"2  c #3E8922",
"3  c #408C1F",
"4  c #408B24",
"5  c #408B26",
"6  c #418C25",
"7  c #428D24",
"8  c #438E25",
"9  c #428F25",
"0  c #418C27",
"q  c #428D26",
"w  c #438E27",
"e  c #448F26",
"r  c #418D24",
"t  c #428D28",
"y  c #428C29",
"u  c #438E29",
"i  c #448F28",
"p  c #448F2A",
"a  c #458F2C",
"s  c #448F29",
"d  c #439124",
"f  c #459125",
"g  c #469225",
"h  c #459027",
"j  c #469226",
"k  c #479327",
"l  c #459126",
"z  c #489427",
"x  c #489427",
"c  c #459029",
"v  c #469128",
"b  c #459228",
"n  c #479229",
"m  c #45902B",
"M  c #46912A",
"N  c #47922B",
"B  c #46912C",
"V  c #46902D",
"C  c #46912A",
"Z  c #48932A",
"A  c #489428",
"S  c #499529",
"D  c #49942B",
"F  c #4A962A",
"G  c #4B972A",
"H  c #4B972B",
"J  c #48932C",
"K  c #48932E",
"L  c #49942D",
"P  c #4A952C",
"I  c #4B962D",
"U  c #4A952E",
"Y  c #4B962F",
"T  c #4A972F",
"R  c #4C972E",
"E  c #4A952C",
"W  c #4C982C",
"Q  c #4D992D",
"!  c #4E9A2D",
"~  c #4D982F",
"^  c #4E9A2E",
"/  c #4F9B2E",
"(  c #4F9B2F",
")  c #4D982E",
"_  c #4A9530",
"`  c #4B9631",
"'  c #4C9730",
"]  c #4C9730",
"[  c #4B9830",
"{  c #4D9831",
"}  c #4F9A31",
"|  c #4E9932",
" . c #4F9A33",
".. c #4F9A35",
"X. c #4E9932",
"o. c #509B32",
"O. c #519D31",
"+. c #519C33",
"@. c #529E32",
"#. c #539F33",
"$. c #509B34",
"%. c #519C35",
"&. c #529D34",
"*. c #539E35",
"=. c #519C37",
"-. c #529D36",
";. c #539E37",
":. c #549F36",
">. c #529D34",
",. c #549F38",
"<. c #549F38",
"1. c #56A235",
"2. c #56A236",
"3. c #55A136",
"4. c #57A239",
"5. c #57A23B",
"6. c #57A23D",
"7. c #56A13A",
"8. c #58A33A",
"9. c #5AA53E",
"0. c #5BA83C",
"q. c #5EA940",
"w. c #5FAA43",
/* pixels */
"= # * = > Y ; = r ; = : < - 2 * w * @ 1 , > * * o , Y > = : : ; < > 2 > = w = @ > 2 , * = o , w 4 & 1 v * > # ' = , * 1 * & 2 2 ",
"o t > = h r $ o < ; < $ > e o $.| , & @ > @ - m , 1 2 w X = < : ; $ v $ w Y r # * # = * 2 2 = Y 2 X > > , 4 * < , = 7...@ & O 1 ",
"p & o %.$ - S S : r # ; @ ; = < = * * O 1 > 2 X Y # = 4 h S h % * @ < # - : @ > # > * w @ 2 = * , h Y w < + > # = * : * # > & > ",
"* * Y $.* @ ; < r = : h ; > Y , 2 %.t 1 t * = t ,.t O < : : = = e Z * Z : w 7.w 2 1 - - , K %.* $ h , = = : ( ; h 3 < h ' , w 2 ",
"# t , , = :.2 e : # S w +.: h ( * = = v w > , 2 1 & S Z < +.o h v h > v v < @ * 2 w v * w 1 * 2 e < +.# % ( 3 z : S S X > w v S ",
"- , 4 , = $ < , $ S : 4 w = : = , w 2 > t , - 2 , - ; : : = : , r ( $ > > < = %.> 4 & , , v # > : < # % ( : ( $ < ; < ; Y , = 2 ",
"w 2 , > = > = < , v Z , = 2 = o %.= , , v w 2 2 * , = : * < r 2.> = 2 = O ( 4 $ 2 p 2 Y , = 1 ; - = h : S < ; < = # = ( > ; | , ",
"Y o , > 2 , # 4 > @ 8.# Y = : 4 , 1 Y & O * - 1 = > e # 2 w + H < 4 2 @ | $ 2 R = @ O 2 = > # K > $ e = ; ( = S + ( = w r , O O ",
"* > Y * # 2 , Y * = # v @ * : = = $ > * > # > p , = > , v > = ; > @ = ; > = o , # = > # 4 w = * 2 , w $ - ; = O > , > # > * & > ",
"# Y = - v * 2 > 2 ; R - : = < = o , - > , * m - 2 w = > > h = ( @ h O 4 : # @ : 2 = w = 2 - > 2 - 2 R # , e > * 2 : # # - 2 & a ",
"Z %.4 2 Y * 2 2 2 * S o ( < S r w h e = - v | v 4 v > * < v $ Y : 2 * ( S , v e , # 2 $.Y | 2 , - , w = p = > v w K 1 _ a m # 1 ",
"; @ 1 , = # & > w * $ v o : h : 4 Z v w * @ > , , 1 * @ < < # = < # = v 4 : r r v > # = * 2 , # X 4 > * , & 4 # 2 v - w w t 1 * ",
"; = - 2 = = > > , 2 > > + + ; < = o o * > > = > - 1 @ = > < 2 > - $ o = ; , @ @ o = , = , # w = & , * w 4 = < o # ; v = O O > > ",
"- v = - * * & 1 , v = 4 + S : h 2 - r $ * , = Y * > # , ; = Y : , $ 2 = , Y > $ , , # & K - , o > * < 4 = ; > $ 2 = | * > , = # ",
"= Z h w p w > _ , %.= > r ( : r - Y , - w > v 1 4 w 1 w w , o.< , $ w., , , v Z - 1 , w w 2 1 w | $ h S h = : 2.r < h > v w - e ",
"= , * > , > , > > v * w h = r ; * v , * 4 = , * w w # 1 = 1 1 > w e > ; r # r r > * , - 1 2 > = 2 $ 2 = h : < 3 $ r # < ( = # w ",
"= @ = %.# = X # # * : 2 2 = < = & & - # 1 & = @ =.1 @ o * # = @ r < r + Z @ # > # > & t X 4 w O * @ * = X d ; h # 2 $ # # > = > ",
"= = , _ o w o.w + Y < Y = > 2 2 p m = o , - 2 & p # 1 6.2 & Y > +.< : : , 4 Y = X = 2 & > > 4 # Y [ , > w < h > > v > K K @ O t ",
"* - * * , > : @ = < R 4 | ' 2 > 6.= = w > & # , = * , - = & = S S < ( r , 4 w > * v & * > - O 4 = * @ : h w ( R ( $ w ' - * , - ",
"1 , ' K = @ r 2 < < = w O p # v * 1 & $.4 > > K p 2 * > 2 4 v O h = ; < , < 2 O | K * , m v $.# * 2 < > * 2 ; # < < > , * 1 ,.- ",
", 2 t m v ,.2 = h 2 ; 4 : @ 2 2 Y , = v o w , 4 Y 1 7.R * 4 w = : S . ; e Z , # =.& 2 = K ..- 7.%.@ 2 7.; $ ( # ; ; Y v * 2 > = ",
"@ & > & v %.w , R ; $ @ , = w > > =   w 4 = # , * K R v , 4 r = = $ < : $ r > o , & p X - @ v | S , h r ; = # ; = < = > # # > $.",
"@ , > # Y = . + : ; < = < w * < ' = * # = $ ; : $ * 4 *   = ; : : $ 2.* 2 | = & = 1 # > 2 > # w @ . * ; : < + 2.< = S ( # = * * ",
"4 - # K # w Y < ; h * * @ - o Z 2 > > X w = 2 * w = , Z : < < : $ # $ @ - < 2 > # - = 2 - > > 1 d , k ; 2 $ $ + # = r < = $ * , ",
"= > > ..> # ; r r < ; z = < e = = w * < : = > $ +.r # ; h < < = < r > 2 > , , = , 1 , > * v Y # * n ; k ; : S ; r ; : ; = < 2 , ",
"& > Y _ o w < S h o r < h , Y +.> , 4 e , : > Y v # : h < 2.+ ; r ( = Y Y 4 , Y 1 1 4 # v K , > w , 0.+ $ < z : r ( ( = | > , v ",
"= - > # > < : : = $ z r S - 4 = 4 2 ; 4 w , * # = ; r < < = + h r ( = : 2 2 > 2 2 Y > > * > o w ; d , * < d +.: : r = ; 2 2 p v ",
"2 , 2 K = * = < = W r r # ; = O w , = Z ( , < Y > = # : = ; r S w , , $ o $.= > , | , v < v 2 # ; ; = $ } r = : $ $ < h , = | 2 ",
"w , , # < Z + ; < = 0.; ( ; < > 4 w K # o = = 2 = - S * > w # 2.> , w = v @ %.w = @ o v ; @ : S > & v > n R = +.* , # v 2 1 # X ",
"> = p * < > r h ; $ ; $ $ ; = < , * * = > & = 4 , < = = v * w $ : ; # = w w # , * @ * - , h * = , 1 w ; $ ; > @ > r , = t & * > ",
"@ w - = , # ; h = : < < : : > * o , = , 1 # w , = , = > ; e # Y @ , - , = # o , 2 * v * w : # < > = Y @ 2 : w @ 2 , @ # - > - y ",
"v K Y = Y 2 : ; v = %.$ r ; 2 < > v w & = 1 ' v v 2 , 2 < h = +.< : * p p = w w > - > Y h | ; 2 > w w * S 2 ; 4 , w , 2 4 2 & 2 ",
"4 2 2 2 > o , > > $ = > * h | 2 p K _ t - , w 2 v = @ = 2 , # - : = > R v < h Y w > , 1 1 v w @ @ v * * = = , = Y v v w m ..> 1 ",
"@ @ = 1 , = = 2 2 , * w @ @ > 4 * > o # * O * > & Y > = , 2 > , > > X = 2 > = o * @ & = # # v , & , , 4 w = , @ # , * = * . = & ",
"p 1 2 , # # & , , p r > . 2 = h 2 & p - & p 1 2 = & . # - , w 2 > . > = : ( o - , , = , w = 1 X > # > w 2 * - + - * 7.* & 4 , * ",
"* t , 2 2 > 2 4 w v o , 4 | 2 2 > 2 > , 1 & > 4 , w 2 1 K & w.# - < 7., = w w : = 2 * = v , 2 , 2 = p Y > $ 4 ( Y : p > 4 1 - , ",
"* _ & , p p , v & ' = 4 2 : 2 , @ 0.2 1 w * | # 2 4 = w > 2 , 2 2 4 : > w @ S Y , 2 > 1 , > > w | = w = S = r 2 @ R @ > 0.> * K ",
"* = = ,.# - . @ = , = 2 w > = : , * = O # & > * 7.= = X @ = = + S 4 h O 4 = @ , @ # = , * p 1 o @ * $ > * < , ( * < > , - = @ & ",
"= @ - %.X 1 w p O w 4 4 , > e - - , , # K 2 # # Y = + ( 4 + S : v : < > v > = 2 @ , , , # 2 p # w , 2 $ w > h < > 2 O - 2 * & $.",
"* , * > = , w & , = S Y 4 e = : 7., * & 2 & = 1 * = > r = > - r ( e r 2 = 4 | * @ 2 & = , * = > 2 : $ , < Y S < h = 4 2.= # > - ",
"# > = p * @ 2 , = 4 > e $ e = w w = # 2 = @ * 4 > - $ > < = r # :.* 2 ; , 2 < o 2 1 o # , , > = # w ; > r h ; ; r < > w # = K @ ",
"2 | Y w v $.* > w w = > ; : : r , , - %.> w w K ( w 2 Y $ h Y $ > : = w r w e # ' 2 w 2 v Y ' w | # < %.+ # ( $ < : ( , , w w > ",
"O > ; w Y ( S 2 v 2 # = = o r < 1 - . w , , # < : Z 0.( - e w = $ = $ = > w = + 1 - 2 X t > w 7.S < 4 w < $ $ $ = ; - w @ * > | ",
"* > = O , : @ # 2 # ; = h h $ : w = = > = * , = + * 4 # @ = : = , > %.= > r * = > , = , * = # v # o = v + : % ( ; : 4 w & = 2 = ",
"* > = > h Y 2 * : Y : = = # $ ( Y = # o e @ ; 2 < : v Z # = < 3 = $ * # e e v # @ , * * w , - w v = < $ S ; $ $ = # ( Y & @ @ w ",
"; > @ o.@ @ Y Z w > = < = : ; = * = , * > - : X | = @ , ( +.3 ; ; = < = # ; * ; > - # , # w v @ $ Y S h ; : < $ = < - * = w = > ",
"# > Z 7.< = $ ( < # ; S < ; 2.r 2 ' 4 4 ; * = Y %.4 = = h r o = 2 7.# Z v , | S = , 2 - w K v = * h h # + r S ; r ( w : +.- w , ",
"= = > * ; r ( - : # S < +.; : S = > # Y h 4 $ = = ; r | = k X h Y ( ; < v w + - 2 | 2 * = , # v v = S $ : ( r h : < e = = , Y m ",
", > p 2 @ > - = $ ( 2 v : > = # Z > < = ' , - v 2 + > > ; $ h h < 4 = > & 1 4 4 = | * 1 2 v - # > = = - :.> h * > $ = 4 4 , 1 2 ",
"w > 4 * 2 , = w r 4 %.@ S , : * r r w : = = w 2 $ ; 4 = : : r +.< 2 2 * > , w 1 , = @ Y , > = w = 2 r > w Y * ( - : , Y 1 > > * ",
"w # , = 2 , > > ; $ < 2 : * , < > > - * = # = , = , < $ : < # : - = , > v > , 1 = # * 4 * - = v , * w ; = , < > # S & , 4 - - & ",
"# w v = , = - Y $ < - - * , = $ $ = , * , # > Y w > = > w h $ < - - # > , @ @ , = = , # 4 ' * # 2 1 v @ r > , # : * > # * 1 & , ",
"= K , = Y w < : e o %.> > # r 4 # 1 - = - = 6.> 2 2 1 < , , = 2.* 2 * w 2 = > 2 * = 4 , 4 p > v , w Y = < 4 = ; : v = = 1 - @ 4 ",
"%.| Y 1 , o < : < ; w + r w R , Y Y ,., = =.m w t p # # w e # > - 2 = v | 2 v K v > 2 7.K Y > = @ w > * 2 > - : R v 2 %.t ..- 1 ",
"X O * - w * $ : , 2 $ v @ $ , , & w = > @ . & > * 4 = * 1 , - , p = # - 2 = - , > # o # o * w , * * = < < # R + = 2 * > > , = @ ",
"w = 2 4 @ & $ < < 2 = > o # = v 2 X - , > , > 2 1 > # * - , h : * o * - 2 w * o > 2 , * w = w @ * & 2 < < * = o = = %.& O - 1 , ",
"& 4 = > , & , < ; S # 2 = R , w > , - > - @ p 1 = 2 @ 4 4 * | = > > v 1 , 2 - 2 = > # = Y * , - > - : v : = > 4 4 > v = 2 = , * ",
"> | , - v | = S > Y ; : Y S > 4 # 7...& m t 2 1 t 2 4 w < < h r 2 , Y , , 1 ' w 1 2 2 2 p 4 * v %.> w < v = , v , v , 1 =.p - t ",
"# 2 # | - * + $ ; < * v , > e ; > - = & - o 2 = _ > # * * ; > # p 4 w > w # > , * = * > = v 4 o = @ > $ > < 2 Y = 2 * * t * & 1 ",
", @ - ,.X - = > # < : , 2 # < ; = @ > # p 1 * # K > # > - = : # p 1 - - 2 * = , @ , , , # = Y o = > : = = 2 , , O | # = - > & 2 ",
"= # = , # Y w , * < Z o.= ( # , Y | & X , * = = , * 4 v > ; : r %., w 1 = p | > X > , > , = * - Y 2 - > w r v < Y # > ,.t . - 1 ",
"o , > 1 - = > # > 2 , | : < Z ; %.= * , * # # , , = = < = $ r ; +., v 1 2 v v # , 1 . o - 2 , > = = @ < , w Y < 4 4 2 v & - 1 # ",
"1 w %.K 1 > > 4 2 > > = = v # Y > 2 # %.2 2 v | R h = 2 ; : ( # > , = > Y 4 - & Y Y , v Y | Y = > 2 > S $ > > # 2 > K w * 2 7., ",
"# 4 > 2 %.| ( > v , = > , @ 2 4 , < + | * > = , w w 7.R ; r h = = w # , , w 1 * Y * 2 @ 1 p 2 0.| > w v > * : = > > 2 v - > > 2 "
};
