/* XPM */
static char *_9d64ecc5afb4691b12ad5a3f037306buNjG3uob4qwruHSd[] = {
/* columns rows colors chars-per-pixel */
"32 32 218 2 ",
"   c #010505",
".  c #0A0600",
"X  c #020D02",
"o  c #000C0B",
"O  c #0E0C0C",
"+  c #090807",
"@  c #10000E",
"#  c #011301",
"$  c #081600",
"%  c #031B03",
"&  c #04120D",
"*  c #05170C",
"=  c #1E1501",
"-  c #151A01",
";  c #1B1705",
":  c #00001B",
">  c #0B031C",
",  c #010C1C",
"<  c #0E0B18",
"1  c #180816",
"2  c #081919",
"3  c #1A1917",
"4  c #211E15",
"5  c #2F141B",
"6  c #022301",
"7  c #0E2505",
"8  c #0B2905",
"9  c #1C3B00",
"0  c #163105",
"q  c #0F3412",
"w  c #173118",
"e  c #202B00",
"r  c #282208",
"t  c #2F3100",
"y  c #243705",
"u  c #3B3E0F",
"i  c #312C18",
"p  c #373111",
"a  c #000D2A",
"s  c #070726",
"d  c #160D2A",
"f  c #05162E",
"g  c #151024",
"h  c #000C37",
"j  c #001235",
"k  c #071832",
"l  c #361224",
"z  c #2C1A26",
"x  c #26232A",
"c  c #273937",
"v  c #194A03",
"b  c #204801",
"n  c #22400C",
"m  c #234C1A",
"M  c #2B4C16",
"N  c #384A17",
"B  c #33541D",
"V  c #315618",
"C  c #324D11",
"Z  c #30680F",
"A  c #2D760C",
"S  c #2B7A0F",
"D  c #217807",
"F  c #32760A",
"G  c #327A0F",
"H  c #276917",
"J  c #3B6819",
"K  c #2C7511",
"L  c #2D7C14",
"P  c #2D7D1A",
"I  c #287518",
"U  c #337615",
"Y  c #337C14",
"T  c #3A7D15",
"R  c #33731B",
"E  c #357D1B",
"W  c #3B7D1B",
"Q  c #3C7417",
"!  c #254B23",
"~  c #3C4D21",
"^  c #2E5B24",
"/  c #365C24",
"(  c #365A32",
")  c #3A5E32",
"_  c #366527",
"`  c #3B6728",
"'  c #347D23",
"]  c #3A7D22",
"[  c #3B742B",
"{  c #377826",
"}  c #3B7733",
"|  c #3B6537",
" . c #444011",
".. c #524813",
"X. c #446A15",
"o. c #596E1F",
"O. c #427B1C",
"+. c #47761E",
"@. c #54701C",
"#. c #4A4120",
"$. c #50452F",
"%. c #4E5428",
"&. c #4A4436",
"*. c #4B6425",
"=. c #426D24",
"-. c #4F6928",
";. c #556629",
":. c #447422",
">. c #427A24",
",. c #447B2A",
"<. c #4A7D2D",
"1. c #497625",
"2. c #547A25",
"3. c #5E7429",
"4. c #5F7022",
"5. c #476E36",
"6. c #427431",
"7. c #447D32",
"8. c #48753A",
"9. c #50763B",
"0. c #6D6F26",
"q. c #706C2F",
"w. c #667226",
"e. c #737029",
"r. c #696D3A",
"t. c #697A39",
"y. c #192148",
"u. c #062A58",
"i. c #1F375B",
"p. c #252B4D",
"a. c #3E284C",
"s. c #22384D",
"d. c #29305C",
"f. c #193D6D",
"g. c #3A4541",
"h. c #284259",
"j. c #18456E",
"k. c #1F4B72",
"l. c #1E5279",
"z. c #344474",
"x. c #504040",
"c. c #584E45",
"v. c #51524C",
"b. c #4D5B5C",
"n. c #725559",
"m. c #6B6D5F",
"M. c #6D7850",
"N. c #727856",
"B. c #6C6749",
"V. c #4D5F75",
"C. c #686E6C",
"Z. c #786F68",
"A. c #6A7367",
"S. c #817E5B",
"D. c #368205",
"F. c #33810E",
"G. c #2C8213",
"H. c #2E821B",
"J. c #2E8B19",
"K. c #348315",
"L. c #398215",
"P. c #338915",
"I. c #3B8B15",
"U. c #35831A",
"Y. c #3B841B",
"T. c #368A1D",
"R. c #3C8A1D",
"E. c #31901C",
"W. c #2E8425",
"Q. c #358522",
"!. c #3C8522",
"~. c #378B24",
"^. c #3C8B22",
"/. c #3D822B",
"(. c #3B8D29",
"). c #3B9422",
"_. c #3C9228",
"`. c #349521",
"'. c #418B16",
"]. c #42851D",
"[. c #428C1E",
"{. c #409017",
"}. c #428523",
"|. c #498222",
" X c #428C22",
".X c #4C8C25",
"XX c #43852B",
"oX c #4A822C",
"OX c #448C2A",
"+X c #498C2C",
"@X c #449225",
"#X c #499224",
"$X c #45922A",
"%X c #4A9229",
"&X c #46992F",
"*X c #4A8433",
"=X c #458A32",
"-X c #4E8B35",
";X c #518731",
":X c #4A9434",
">X c #6B843B",
",X c #648F3D",
"<X c #4A8942",
"1X c #7E894D",
"2X c #6B9646",
"3X c #789255",
"4X c #648848",
"5X c #828556",
"6X c #87915B",
"7X c #95995C",
"8X c #989366",
"9X c #8D8B74",
"0X c #92917C",
"qX c #88A762",
"wX c #0F4E83",
"eX c #1A4E80",
"rX c #1C548D",
"tX c #145994",
/* pixels */
"A K.^.G.T.U.!.W  XL S G.H.$XU ].L.F.I.L.' R W ].G D.K.U.U.OXK Y.",
"L.Y.U.T.U.Y.Y.Y.Y.Y U.T.^.Y }.].T L.[.Y.] XX] T '.{.K.^.U.U.Y.Y.",
"Y.!.U.^.~.OXY. XY.Y.^.U.Y  X.XO.;XoX!.E =XR -XT Y.G.^.^.K.R.R.R.",
"Y Y.U.U.!.^.Y.Y. XK.K.^.K W >.2XqX4X=.<.>.>.Q oX!.U.&X^.K.Y.K.Y.",
"L.Y.Y.K.U.Y.Y.T A Y.Y !.}.>.2X3XM.N.N ;.3.o.3.X.W }.Y.Y ].F Y.Y ",
"^.R.Y Y.Y.Y.T  X X XY +XoX=.t.6X0X&.. ; q.0.4.2.>.!.Y T .X]. XU.",
"Q.H.P Y.] W T [.G Y Y.>.:.>X7X8Xm.C.4 = ..e.w.X.] H.Y.Y ].].P I ",
"~.Q.(.Y.+X].}.Y.].T |.,XqX6X8Xp A.C.3 .  .0.@.+.!._.T.[.Y.W &XW.",
"U .XS G.G.).K.K.O.2.>X1X5XS.r - A.c 2 X y -.+.W Q.G.T.R.W E Q.P ",
"U ].Y P.E.`.T.R.|.X.t.r.#.$.. 4 v.3 o & 7 5.*XE H.P R. X X}.Y ^.",
"E OX$X(.~.S K.R.|.1.3.u B.= c.x.n.5 1 + % 5.7.-XOX:XE Y Y.}.T T ",
"E Q.U.Y Y.K.K.K.O.J -.e 9XZ.1 z l l 1 O # | } /.E W E A U.%XF T ",
"Y R. XR.L.R.R.$X}.<.M # 3 O < d a.a.@ + X m <X' !. X!.$X(.K.Y.[.",
"Y.Y.Y L.L.@XK.L /.7.m 7 & , : y.z.d.> O X / } ~.U.S  XY.U.T.U.@X",
"U.Y.Y.].L.[.K.T./.[ m w & , a u.rXeXV.  $ M /.H.P.I. XY.^.U.U.K ",
"^.Y.].].L.R.K.U.' { } ! o , a j.tXwXh.g.X B =XT.P.K. XU !.E E !.",
"K.K.U ].K.K.Y ^.~.W.{ ! o s j l.u.f.k b.# V ' Q.G.T.S U.(.~.Y W ",
"T.Y.Y.W Y.K.Y.^.P (.' ^ O : j k.h i.f 2 % ` /.U.Y R.K.Y.U.^.Y.Y ",
"U.Y.Y.T Y.^.!.Q.G.J.L 6.+ s h z.j s.2 % m ,.!.U.K.T.Y.^.U.Y.Y.Y ",
"P Y.Y.Y.Y. X!.!.).D !._ & > s p., c * ( _ ,.Y K.L.Y.Y.@X~.Y.Y L.",
"Q.!.!.Y.Y.Y.!.^.T.U.7.!   g < x   w ( 8.-XU %X[.K.T.Y.^. X^.Y ^.",
"Q.U. XK. XG Y.Y.Y.,._ 6 o   ; i - 0 ` [ E U.Y '.K.R.K.Y Y.!.L Y.",
"L U.^.T.R.K.K.W ,.V 8 # # % - t %.y 6.] Y.U.L.L.L.T.U.E Y Y.Y U.",
"E ^.G.R.F. X!.-X=.6 # # q ) N C r.y ,.OXU.L #XL.R.K.^.$X X XY. X",
"].K.G.P.T. XXXR 6 0 n 9.[ 6.N N ;.9 :.OX!.K. XK.Y.Y $X!.E  XU.Y.",
"Y Y.U.K.Y.!.' H v / =.oX}.>./ N %.9 >.E E U.R.Y U.~.!.E !.K Y.S ",
"#X].!.!.E !.!.H { *XXX!.R.U B ~ *.v oX] !.OX$X^.U.!.!.E %X XY.Y.",
"G L.Y ] XXE L U.E E K K.P.U V M ` v R E Y L Y L E U.E Y Y Y.Y Y ",
"Y.T !.OX!.E R.I.R.~.~.~.R.}.J b oXR W +X!.Y.^.R.~.$XU.@XY.Y.@XY.",
"L. XE K !.Y.I.I.K.S E P U.T O.Z !.^.T W U Y U.G.S S Y. XU.Y Y.Y ",
"A K.Y U.^.$X@XK. XE E ] Y.Y T Y._.$X XT T G U.G.R.K.%X XR. XY Y ",
"R.$X@XR.~.U.K.R.Y.+X] XX X#XK.R.J.G.].T .XY.@X@XR. XG K.K. XU. X"
};
