/* XPM */
static char *f152c0fe455b4c3eb8c9e5b198ce5ba9x2HeSzlvR8xYw6Tw[] = {
/* columns rows colors chars-per-pixel */
"200 200 254 2 ",
"   c #010207",
".  c #01020A",
"X  c #010612",
"o  c #020816",
"O  c #070919",
"+  c #040A1B",
"@  c #140B1D",
"#  c #060D22",
"$  c #0A0D24",
"%  c #070E2A",
"&  c #0A0E2C",
"*  c #140F2D",
"=  c #091128",
"-  c #0B112C",
";  c #0C0F33",
":  c #0C1233",
">  c #0D143B",
",  c #0C173A",
"<  c #111335",
"1  c #12143C",
"2  c #18173A",
"3  c #131A3C",
"4  c #221E3A",
"5  c #0D1642",
"6  c #0E1947",
"7  c #131542",
"8  c #131A44",
"9  c #191846",
"0  c #131B4B",
"q  c #1B1A4C",
"w  c #0E1A55",
"e  c #171C57",
"r  c #1B1C53",
"t  c #221B4C",
"y  c #251B57",
"u  c #321A5A",
"i  c #18224A",
"p  c #0E2355",
"a  c #172358",
"s  c #2C2A51",
"d  c #26235B",
"f  c #1A1D63",
"g  c #271D67",
"h  c #321D6D",
"j  c #192567",
"k  c #1A2A76",
"l  c #193070",
"z  c #262469",
"x  c #262677",
"c  c #312873",
"v  c #4C1E6C",
"b  c #472778",
"n  c #522975",
"m  c #6B267A",
"M  c #434369",
"N  c #799F3C",
"B  c #7FA73B",
"V  c #7EA641",
"C  c #80A83B",
"Z  c #83AC3D",
"A  c #89B23E",
"S  c #91BB3F",
"D  c #86AE41",
"F  c #88B242",
"G  c #8BB442",
"H  c #8FB943",
"J  c #92BC45",
"K  c #94BD49",
"L  c #97BD51",
"P  c #A3BB73",
"I  c #96C146",
"U  c #99C447",
"Y  c #9DC947",
"T  c #97C149",
"R  c #9BC54A",
"E  c #9EC94B",
"W  c #9FC851",
"Q  c #A3CF47",
"!  c #A2CD4A",
"~  c #A2CE4A",
"^  c #A2CE4B",
"/  c #A2CD4D",
"(  c #A2CE4C",
")  c #A2CD4E",
"_  c #A4CE52",
"`  c #A8CF5A",
"'  c #A9D15A",
"]  c #AACD64",
"[  c #ADD363",
"{  c #B2D56B",
"}  c #B8D778",
"|  c #18348C",
" . c #282986",
".. c #253788",
"X. c #372B98",
"o. c #303092",
"O. c #183AA7",
"+. c #3234AB",
"@. c #4F2D8F",
"#. c #702D92",
"$. c #4C32B0",
"%. c #6E33AE",
"&. c #2E4598",
"*. c #1B45B0",
"=. c #2E48B3",
"-. c #4A4AB4",
";. c #624EB5",
":. c #3837C6",
">. c #3D3FE1",
",. c #5736C7",
"<. c #4F36D0",
"1. c #7137CF",
"2. c #6637D7",
"3. c #5938E6",
"4. c #713CEE",
"5. c #304FCE",
"6. c #2956CF",
"7. c #3158ED",
"8. c #3965F4",
"9. c #4F4CD3",
"0. c #6E49D2",
"q. c #4F6BD1",
"w. c #524FEB",
"e. c #714AEF",
"r. c #516DF6",
"t. c #6C6DF7",
"y. c #7677FA",
"u. c #8E3592",
"i. c #893496",
"p. c #8F35AD",
"a. c #A73BB6",
"s. c #9A429B",
"d. c #A3449F",
"f. c #9446AF",
"g. c #AE51B0",
"h. c #B965BA",
"j. c #B169B9",
"k. c #C269BD",
"l. c #8A3ACE",
"z. c #A93FCA",
"x. c #8B3CEC",
"c. c #9D57CF",
"v. c #B24FCC",
"b. c #8D4CF1",
"n. c #9748F6",
"m. c #A848F7",
"M. c #B251F5",
"N. c #8F6EF7",
"B. c #AF6FF9",
"V. c #CA53D4",
"C. c #C76AC5",
"Z. c #CA77C6",
"A. c #D272D4",
"S. c #CC57F6",
"D. c #C868FA",
"F. c #D56FF5",
"G. c #E363EC",
"H. c #ED75EF",
"J. c #E86AF9",
"K. c #E876F9",
"L. c #558AF9",
"P. c #6696EA",
"I. c #728CFA",
"U. c #73AAFB",
"Y. c #75D2FB",
"T. c #7CE6FB",
"R. c #B6CA84",
"E. c #BDDA84",
"W. c #C1DB8A",
"Q. c #C6DD95",
"!. c #C8E199",
"~. c #D0DBAB",
"^. c #CFE3A6",
"/. c #D8E7B9",
"(. c #BB80D1",
"). c #8D90FA",
"_. c #AE90FB",
"`. c #90ADFB",
"'. c #AEB0FB",
"]. c #CE85CC",
"[. c #D989D5",
"{. c #DB96D7",
"}. c #E38ADD",
"|. c #E299DD",
" X c #DEA2DB",
".X c #E3A5DE",
"XX c #E3B0DF",
"oX c #D28CF8",
"OX c #E788E8",
"+X c #E89AE7",
"@X c #F492EC",
"#X c #E887F7",
"$X c #F689F8",
"%X c #E897F8",
"&X c #F798F9",
"*X c #D0B3FC",
"=X c #E8A7E5",
"-X c #E6ACE2",
";X c #EAB3E5",
":X c #EAB7E7",
">X c #ECBCEA",
",X c #F2B2EC",
"<X c #E8A7F6",
"1X c #F7A8F9",
"2X c #E7B9F7",
"3X c #F8B8F9",
"4X c #91CEFB",
"5X c #B1D0FB",
"6X c #95E5FB",
"7X c #AFE8FC",
"8X c #E3DECD",
"9X c #DBEAC6",
"0X c #E2EACA",
"qX c #E8EAD8",
"wX c #EAF1DB",
"eX c #C7C9FC",
"rX c #D9C9FC",
"tX c #C9D8FC",
"yX c #D8D8FD",
"uX c #EEC3EB",
"iX c #EFCAED",
"pX c #F2C8ED",
"aX c #F2D3EE",
"sX c #E9C8F7",
"dX c #F2CCF2",
"fX c #F9C7FA",
"gX c #E7D8FC",
"hX c #F4D4F4",
"jX c #F5DAF6",
"kX c #F8D5F9",
"lX c #F5DCFA",
"zX c #FADCFB",
"xX c #C9E5FC",
"cX c #D8E6FD",
"vX c #DCE4FD",
"bX c #CEF5FB",
"nX c #EFEBE6",
"mX c #EBF2E7",
"MX c #F3F3EB",
"NX c #E3E4FE",
"BX c #EAE5FD",
"VX c #E4ECFE",
"CX c #EBECFE",
"ZX c #F5E8F4",
"AX c #F5E3FC",
"SX c #FAE4FC",
"DX c #F4ECFE",
"FX c #FBECFE",
"GX c #E7F3FA",
"HX c #ECF3FE",
"JX c #F5F6F6",
"KX c #F3F3FE",
"LX c #FCF3FE",
"PX c #FCFBFD",
/* pixels */
"/ / / / / / / / / E T R ^ / / / / / / / / / / / / / / / / / / / / / / / / / / / / / / / / ^ ^ / / / / / / / / / / / / / / / / / / / ^ ^ ^ J F J ^ ^ ^ ^ ^ ^ / / / / / / / / / ^ / / T J R / ^ ^ / / / / / / / / / / / / / ^ / A N C / ^ ^ / / / / / / / / / / / / / E I R E / ^ ^ ^ ^ / / / / / / / / / / / / / / / / / / / / / / / / / / / / / / ^ ^ ^ ^ ^ / / / / / / / / / / / / / / ^ / T F J / ^ ^ / / / / ",
"/ / / / / / / / ^ ^ / / ^ / / / / / / / / / / / / / / / / / / / / / / / / / / / / / / / / / / / / / / / / / / / / / / / / / / / / / ^ ^ ^ / / ^ ^ ^ ^ ^ ^ ^ / / / / / / / / / / / / / ^ ^ / / / / / / / / / / / / / / / / ^ ^ Y R E / ^ ^ / / / / / / / / / / / / / / ^ / ^ ^ ^ ^ ^ ^ / / / / / / / / / / / / / / / / / / / / / / / / / / / / / ^ ^ ^ ^ ^ ^ / / / / / / / / / / / / / / ^ ^ ^ ^ / ^ ^ / / / / / ",
"/ / / / / / / / / ^ ^ ^ / / / ^ / / / / / / / / / / / / / / / / / / / / / / / / / / / / _ J Z J / / / / / / / / / / / / / / / / / / ^ ^ ^ / / / / / / ^ ^ / / / / / / / / / / / / ^ ^ ^ ^ ^ / / / / / / / / / / / / / / / / / / / / / / ^ / / / / / / / / / / / / / / ^ ^ ^ ^ ^ ^ / ^ / / / / / / / / / / / / / / / / / / / / / / / / / / / J Z J ^ ^ ^ ^ ^ / / / / / / / / / / / / / ^ / / / ^ / / / / / / / / ",
"^ ^ ^ ^ / / / / / ^ ^ ^ / / / ^ / / ^ ^ ^ / / / / / / / ^ / / / / / / / / / / / / / / / / R I E / / / / / / / / / / / / / / / / / / / / / / / / / / / / / / / / ^ ^ ^ ^ ^ ^ ^ / / / / / / / / / ^ ^ ^ ^ / / / / / / / / / / / / / / / / / / ^ ^ ^ / / / / / / / / / / / / / / ^ / / / / / / / / / / / / ^ ^ ^ ^ / / / / / / / / / / / / / ^ R T R ^ ^ ^ ^ ^ / / / / / / / / / / / / / / / / / / / / / / / / / / ",
"^ ^ ^ ^ / / / / / ^ ^ ^ ^ ^ R K R / ^ ^ ^ / / / / / / / Y H J E ^ ^ / / / / / / / / / / ^ ^ ^ ^ / / / / / / / / / / / / / / / / / / / / / / / / / / / / / / ^ ^ ^ ^ ^ ^ ^ ^ ^ / / / / / / / / / ^ ^ ^ ^ / / / / / / / / / / / / / / / / / / ^ ^ ^ / / / / / / / / / / / / / / R K R / / / / / / / / / / ^ E J J R / / / / / / / / / / / / / / / / ^ ^ ^ ^ ^ / / / / / / / / / / / / / / / / / / / / / / / / / / ",
"T U / ^ / / / / / / / / ^ / J A J / ^ ^ ^ / / / / / / / E G H R ^ ^ / / / / / / / / / / / / / / / / / / / / / / / / / / / / / / / / / / / / / / / / / / / / / / R Z A ^ / / / / / / / / / / / / / / / / T H T / / / / / / / / / / / / / / / ^ ^ / T T / / / / / / / / / / / / J D J ^ / / / / / / / / / / E H H R / / / / / / / / / / / / / ^ ^ ^ / / / / / / / / / / / / / / / / / / / / / / / / / / / / / / / ",
"Z A / ^ / / / / / / / / / ^ ^ ^ ^ ^ ^ ^ ^ / / / / / / ^ ^ / / ^ ^ ^ / / / / / / / / / / / / / / / / / / / ^ ^ ^ / T A A R / ^ ^ ^ / / / / / / / / / / / / / ^ ^ E R R / / / / / / / / / / / / / / / / / J Z H / ^ / / / / / / / / / / / / / ^ / T Z A E / ^ / / / / / / / / / ^ / ^ ^ / / / / / / / / / ^ ^ ^ ^ / / / / / / / / / / / / / / / / / / / / / / / / / / T Z A R / / / / / / / / / / / / / / / / / / ",
"/ / / / / / / / / / / / / ^ ^ ^ ^ ^ ^ ^ ^ / / / / / ^ ^ ^ ^ ^ ^ ^ ^ / / / / / / / / / / / / / / / / / / / ^ ^ ^ ^ E U E ^ ^ ^ ^ ^ / / / / / / / / / / / / / / / / / / / / / / / / / / / / / / / / / / / ^ / ^ ^ / / / / / / / / / / / / / / / ^ ^ ^ / / / ^ / / / / / / / / / ^ ^ ^ ^ / / / / / / / / / ^ ^ ^ ^ / / / / / / / / / / / / / / / / / / / / / / / / / / E T E ^ ^ / / / / / / / / / / / / / / / / / ",
"^ ^ / / / / / ^ / / / / / / / / / / / / / / / / / / / / / / / / / / / / / / / / / / / / / / / / / / / / / / / / / / ^ / / / / / / / / / / / / / / / / / / / / ^ / / / / / / / / / / / / / / / / / / / / ^ / / / / / / / / / / / / / / / / / / / / ^ ^ / / ^ ^ / / / / / / / / / / / / / / / / / / / / / ^ ^ ^ ^ / / / / / / / / / / / / / / / / / / / / / / / / / / / / / / / / / / / / / / / / / / / / / / / / ",
"/ / / / / ^ ^ / / / / / / / / / / / / / / / / / / / / / / / / ^ ^ ^ / ^ ^ ^ ^ / / / / / / / / / / / / / / / / / / / / / / / / / / / / / / / / / / / / / / / / / / / / / / / / / / / / / / / / / / / / / / / / / / / / / / / / / / / / / / / / / / / ^ ^ ^ ^ ^ ^ ^ ^ ^ ^ ^ ^ / / / / / / / / / / / / / / ^ ^ ^ ^ ^ ^ ^ / / / / / / / / / / / / / / / / / / / / / / / / / / / / / / / / / / / / / / / / / / / / / ",
"/ / / / ^ ^ / E E / / / / / / / / / / / / / / / / / / / / / / I F H / ^ ^ ^ ^ / / / / / / / / / / / / / / / / / / / / / / / / / / / / / / / / / / / / / / / / / / / / / / / E E E E / / / / / / / / / / / / / / / / / / / / / / / / / / / / / / / / ^ ^ ^ ^ / / ^ ^ ^ ^ ^ ^ / / / / / / / / / / / / / / ^ ^ ^ / T G H E ^ / / / / / / / / / / / / / / / / / / / / / / / / / / / / / / / / / / / / / / / / / / / ",
"/ / / / ^ ^ E A A Y / / / / / / / / / / / / / / / / / / / / / I H J / / / / / / / / / / / / / ^ ^ / / / / / / / / / / / / / / / / ^ / / / / / / / / / / / / / / / / / ^ ^ / A A G H _ / / / / / / / / / / / / / / / / / / / / / / ^ ^ / / / / / / / ^ ^ ^ / / E A A U ^ ^ ^ / / / / / / / / / / / / / / ^ ^ ^ / T H J / ^ / / / / / / / / / / / ^ / / ^ ^ / / / / / / / / / / / / / / ^ / / / / ^ ^ / / / / / / ",
"/ / / / ^ ^ / E E / / / / / / / / / / / / / / / / / / / / / / / / / / / / / / / / / / / ^ ^ ^ ^ R T E ^ / / / / / / / / / / / / / ^ / ^ ^ K J R ^ ^ / / / / / / / / / / ^ / E E E ^ / / / / / / / / / / / / / / / / / / / / / / / / / ^ ^ / / / / / ^ ^ ^ / / ^ E E ^ ^ ^ ^ / / / / / / / / / / / / / / ^ ^ ^ ^ / / / / / / / / / / / / / / / ^ ^ R T E ^ / / / / / / / / / / / / / / / ^ ^ I H R / ^ / / / / / ",
"/ / / / / / ^ ^ ^ / / / / / / / / / / / / / / / / / / / / / / / / / / / / / / / / / / / ^ ^ ^ E Z Z I / / / / / / / / / / / / / / / ^ ^ R Z F R / ^ / / / / / / / / / ^ / / ^ ^ ^ / / / / / / / / / / / / / / / / / / / / / / / / ^ ^ / T I ^ / / / ^ ^ ^ ^ / / / ^ ^ ^ ^ ^ / / / / / / / / / / / / / / ^ ^ ^ ^ ^ ^ ^ ^ / / / / / / / / / ^ ^ ^ ^ Z Z J / / / / / / / / / / / / / / / / ^ E D F T / ^ / / / / / ",
"/ / / / / / / / / / ^ ^ / / / / / / / / / / ^ ^ ^ ^ ^ / ^ / / / / / / / / / / / / / / / ^ ^ ^ ^ E / ^ ^ / / / / / ^ ^ ^ ^ ^ ^ ^ ^ ^ ^ ^ ^ / / / / / / / / / / / / / / / / / / / / / / / / / / / / / / / / ^ ^ / / / / / / / / / / ^ ^ E F Z I / ^ / / / / / / / / / / / / / / / / / / / / / / / / / / / ^ ^ ^ ^ / / / / / / / / / / / / / / / / / E / / ^ / / / / / / / / / / / ^ ^ / / / / ^ / / / / / / / / / ",
"/ / / / / / / / / ^ ^ ^ ^ / / / / / / / / / / E J H / ^ ^ ^ / / / / / / / / / / / / / / ^ ^ ^ ^ ^ ^ ^ ^ / / / / / ^ ^ ^ ^ ^ ^ ^ ^ ^ ^ ^ ^ ^ ^ ^ ^ ^ / / / / / / / / / / / / / / / / / / / / / / / / / / ^ ^ ^ ^ / / / / / / / / / ^ ^ ^ / / / / / / / / / / / / / / / / / / / / / / / / / / / ^ E J J E ^ ^ ^ ^ / / / / / / / / / / / / / / / / / / ^ ^ ^ ^ / / / / / / / / / ^ ^ ^ ^ / / / / / / / / / / / / / ",
"/ / / / / / / / ^ ^ ^ ^ ^ / / / / / / / / / / E J J ^ ^ ^ ^ / / / / / / / / / / / / / / ^ ^ ^ ^ ^ ^ ^ ^ / / / / / / / ^ ^ ^ ^ ^ ^ ^ ^ ^ ^ ^ ^ ^ ^ / / / / / / / / / / / / / / / / / / / / / / / / / / / / / / ^ / / / / / / / / / / ^ ^ ^ ^ ^ / / ^ / / / / / / / / / / / / / / / / / / / / / / E H J E ^ ^ ^ ^ / / / / / / / / / / / / / / / / / / ^ ^ ^ / / / / / / / / / / ^ ^ ^ ^ / / / / / / / / / / / / / ",
"/ / / / / / / R T R ^ ^ ^ / / / / / / / / / / / / / / / / / / / / / / / ^ ^ / / / / / / / / / / / / / / / / / / / / ^ ^ / / / ^ ^ / / / / / / / / / / / / / ^ ^ / / / ^ ^ ^ / / / / / / / / / / / / R A F H / / / / / / / ^ ^ ^ ^ / E R ^ ^ ^ ^ ^ / / / / / / / E T R / / / / / / / / / / / / / / / / / / / / / / / / / / / ^ ^ / / / / / / / / / / / / / / / / / / / ^ / / ^ ^ ^ ^ ^ / / / / / / / / / / / / / ",
"/ / / / / / / H Z J ^ ^ / / / / / / / / / / / / / / / / / / / / / / / ^ ^ ^ / / / / / / / / / / / / / / / / / / ^ ^ ^ J G U / ^ ^ / / / / / / / / / / / / / ^ U R / ^ ^ ^ ^ ^ / / / / / / / / / ^ ^ / R E E / / / / / / / ^ ^ ^ ^ E Z D R ^ ^ ^ ^ / / / / / ^ / J Z H / / / / / / / / / / / / / / / / / / / / / / / / / / / / ^ ^ / / / / / / / / / / / / / / / / / / ^ I G T / ^ ^ ^ / / / / / / / / / / / / / ",
"/ / / / / / / ^ / / / ^ ^ / / / / / / / / / / / / / / / / / / / / / / / H H J / / / / / / / / / / / / / / / / / / ^ ^ J H R / ^ ^ / / / / / / / / / / / / / R B B R Q ^ ^ ^ ^ / / / / / / / / / / ^ ^ / ^ ^ ^ / / / / / / / / / / / ^ / ^ ^ / / / / / / / / / / / / / / / / / / / / / / / / / / / / / / / / / / / / / / / J H J _ / / / / / / / / / / / / / / / / / / / I H T ^ ^ ^ ^ / / / / / / / / / / / / / ",
"/ / / / / / / / / / / / / / / / / / / / / / / / / / / / / / / / / / / / J J U / / / / / / / / / / / / / / / / / / ^ ^ ^ / ^ ^ ^ ^ / / / / / / / / / ^ ^ ^ ^ ^ / / / ^ ^ ^ ^ ^ / / / / / / / / / / / / / / / / / / / / / / / / / / / / / / / / / / / / / / / / / / / / / / / / / / / / / / / / / / / / / / / / / / ^ ^ ^ / J J R _ / / / / / / / / / / / / / / / / / / ^ ^ / ^ ^ ^ ^ ^ / / / / / / / / / / / / / ",
"/ / / / / / / / / / / / / / / / / / / / / / / / / / / / / / / / / / / ^ ^ ^ / / / / / / / / / / / / / / / / / / / ^ ^ ^ ^ ^ ^ ^ ^ / / / / / / / / / ^ ^ ^ ^ / / ^ / / ^ ^ ^ ^ / / / / / / / / / / / / / / / / / / / / / / / / / / / / / / / / / / / / / / / / / / / / / / / / / / / / / / / / / / / / / / / / / / ^ ^ ^ ^ ^ ^ ^ ^ / / / / / / / / / / / / / / / / / / ^ ^ ^ ^ ^ ^ ^ ^ / / / / / / / / / / / / / ",
"/ / / / / / / / / / / / / / / / / / / / / / / / ^ ^ / / / / / / / / / / / / / / / / / / / / / / / / / / / / / / / / / / / / / / / / / / / / / / / / / / / / / / ^ / / ^ ^ ^ ^ ^ ^ / / / / / / / / / / / / / / / / / / / / / / / / / / / / / / / / / / / / / / / / / / / / / / / / / / / / / / / / / / / / ^ ^ / / / / / / / / / / / / / / / / / / / / / / / / / / / / / / / / / / / / / / / / / / / / / / / / / ",
"/ / / / / / / / / / / / / / / / / / / / / / ^ ^ / R R E ^ / / / / / / / / / / / / / / / / / / / / ^ / ^ / / / / / / / / / / / / / / / / / / / / / / / / / / / / / / / ^ ^ ^ ^ ^ ^ E E / ^ ^ ^ / / / / / / / / / / / / / / / / / / / / / / / / / / / / / / / / / / / / / / / / / / / / / / / / / ^ / E R E ^ ^ ^ / / / / / / / / / / / / / / ^ ^ ^ ^ ^ / / / / / / / / / / / / / / / / / / / / / / / / / / / / / ",
"/ / / / / / / / / / / / / / / / / / / / / / ^ ^ / H Z H / ^ / / / / / / / / / / / / / / / / / / / H Z H / / / / / / / / / / / / / / / / / / / / / / / / / / / / / / / ^ ^ ^ ^ / H B B E ^ ^ ^ / / / / / / / / / / / / / / / / / / / / / / / / / / / / / / / / / / / / / / / / / / / / / / / / ^ ^ _ H Z H / / ^ / / / / / / / / / / / / / / ^ ^ ^ / H A H / / / / / / / / / / / / / / / / / / / / / / / / / / / ",
"/ / / / / / / / / / / / / / / / / / / / / / / ^ / / / ^ / / / / / / / / / / / / / / / / / / / / / R T I / / / / / / / / / / / / / / / / / / / / / / / / / / / / / / / / / / / ^ E R R / / / / / / / / / / / / / / / / / / / / / / / / / / / / / / / / / / / / / / / / / / / / / / / / / / / / / ^ / / / E ^ / / / / / / / / / / / / / / / / / / / / R T I / / / / / / / / / / / / / / / / / / / / / / / / / / / ",
"/ / / / / / / / / / / / / / / / / / / / / / / / / / / / / / / ^ ^ ^ ^ ^ ^ ^ ^ / / / / / / / / / / / / / / / / / / / / / / / / / / / / / / / / / / / / / / / / / / / / / / / / / / / / / / / / / / / / / / / / / / / / / / ^ ^ ^ ^ / / / / / / / / / / / / / / / / / / / / / / / / / / / / / / / / / / / / / / / / ^ ^ ^ ^ ^ ^ ^ ^ / / / / / / / / / / / / / / / / / / / / / / / / / / / / / / / / / / / / / / / ",
"/ / / / / / / / / / / / / / / / / / / / / / / / / / / / / / / ^ ^ ^ ^ ^ ^ ^ ^ / / / / / / / / / / / / / / / / / / / / / / / / / / / / / / / / / / / / / / / / / / / / / / / / / / / / / / / / / / / / / / / / / / / / / / ^ ^ ^ ^ / / / / / / / / / / / / / / / / / / / / / / / / / / / / / / / / / / / / / / / / ^ ^ ^ ^ ^ ^ ^ ^ / / / / / / / / / / / / / / / / / / / / / / / / / / / / / / / / / / / / / / / ",
"/ / / / / / / / / / / / / / / / / / ^ / / ^ / ^ / / / / / / / / E E / ^ ^ ^ ^ / / / / / / / / / / / / / / / / / / / / / / / / / / / / / / / / / / / / / / / / / / / / / / / / / ^ / ^ / / / / / / / / / / / / / / / / / E E ^ ^ ^ / / / / / / / / / / / / / / / / / / / / / / / / / / ^ ^ ^ / / / / / / / / / / / E E ^ ^ ^ ^ ^ ^ / / / / / / / / / / / / / / / / / / / / / / / / / / / / / / / / / / / / / / / ",
"^ ^ ^ ^ ^ ^ ^ ^ / / / / / / / / / / / J J J I / ^ / ^ ^ ^ ^ / T Z Z R / ^ ^ ^ / / / / / / / / / / / / / / / / / / / / / / / / / / / / / / / ^ ^ ^ ^ ^ ^ ^ ^ / / / / / / / / U J J J ^ / / / / / / / / / / / / / / ^ ^ R Z Z R / ^ / / / / / / / / / ^ ^ ^ ^ / / / / / / / / / / / / / / J J K T / / / / ^ ^ ^ / R Z D T / ^ ^ ^ ^ / / / / / / / / / / / / / / / / / / / / / / / / / / ^ ^ ^ ^ / / / / / / / / / ",
"^ ^ / ^ ^ ^ ^ ^ / / / / / / / / / / / H H J I / ^ / / ^ ^ ^ ^ ^ E E / ^ ^ ^ ^ / / / / / / / / / / / / / / / / / / / / / / / / / / / / / / / ^ ^ ^ ^ ^ ^ ^ ^ / / / / / / / / R H J J / / / / / / / / / / / / / / / ^ ^ / E E ^ ^ / / / / / / / / / / / / ^ / / / / / / / / / / / / / / / J H J I / / / / ^ ^ ^ ^ ^ E E ^ ^ ^ ^ ^ ^ / / / / / / / / / / / / / / / / / / / / / / / / / / / ^ ^ / / / / / / / / / / ",
"^ T Z Z R ^ ^ ^ / / / / / / / / / / / / / / / / / / / / / / / / / / / / / / / / / / / / / / / / J F J / / / / / / / / / / / / / / / / / / A Z J / ^ / / / / / / / / / / / / / / / / / / / / / / / / / / / / / / / / / / / ^ ^ / / / / / / / / / / / R Z B R / / / / / / / / / / / / / ^ / / ^ ^ ^ ^ ^ / / / / / / / / ^ ^ ^ ^ ^ ^ / / / / ^ ^ / / J F J / / / / / / / / / / / / / / / / ^ / G Z H / / / / / / / ",
"/ E J R ^ ^ ^ ^ / / / / / / / / / / / / / / / / / / / / / / / / / / / / / / / / / / / / / / / / J H I / / / / / / / / / / / / / / / / / / I T R / ^ / / / / / / / / / / / / / / / / / / / / / / / / / / / / / / / / / / / / / / / / / / / / / / / / E T R E / / / / / / / / / / / / / / ^ ^ ^ ^ ^ ^ ^ ^ / / / / / / / / / ^ ^ ^ ^ / / / / ^ ^ / / J H I / / / / / / / / / / / / / / / / ^ / T T R / ^ ^ / / / / ",
"^ ^ ^ ^ ^ ^ ^ ^ / / / / / / / / / / / / / / / / / / / / / / / / / / / / / / / / / / / / / / / / / / / / / / / / / / / / / / / / / / / / / / / / / / / / / / / / / / / / / / / / / / / / / / / / / / / / / / / / / / / / / / / / / / / / / / / / / / / / / / / / / / / / / / / / / / / / ^ ^ ^ ^ ^ ^ ^ / / / / / / / / / / ^ ^ ^ / / / / / ^ ^ / / / / / / / / / / / / / / / / / / / / / / ^ ^ ^ ^ / ^ ^ / / / / ",
"/ / / / / / / / / ^ ^ ^ ^ ^ ^ ^ ^ / / / / / / / / / / / / / / / / / / / / / / / / / / / / / / / / / / / / / / / / / / / / ^ ^ ^ ^ / / / / / / / / / / / / / / ^ ^ ^ ^ ^ ^ ^ / / / / / / / / / ^ / / ^ / ^ ^ / / / / / / / / / / / / ^ ^ ^ / / / / / / / / / / / / / / ^ ^ ^ ^ ^ ^ ^ ^ / / / / / / / / / / / / / / / / / / / / / / / / / / / / / / / / / / / / / / / / ^ ^ ^ / / / / / / / / / / / / / / / / / / ",
"/ / / / / / / / / ^ ^ ^ ^ ^ ^ ^ ^ / / / / / / / / / / / / / / / / / / / / / / / / / / / / / / / / / / / / / / / / / / / / ^ ^ ^ ^ / / / / / / / / / / / / / / ^ ^ ^ ^ ^ ^ ^ ^ / / / / / / / / / / / ^ T T T E / / / / / / / / / / ^ ^ ^ ^ / / / / / / / / / / / / / / ^ ^ ^ ^ ^ ^ ^ ^ / / / / / / / / / / / / / / / / / / / / / / / / / / / / / / / / / / / / / / / / ^ ^ ^ / / / / / / / / / / / / / / / / / / ",
"/ / / / / / / / / / ^ ^ / / ^ ^ ^ / / / / / / / / / / / / / / / / / / / / / ^ / / / / / / / / / / / / / / / / / / / ^ / E / ^ ^ ^ / / / / / / / / / / / / / / ^ ^ ^ ^ ^ ^ ^ ^ / / / / / / / / / / ^ ^ H H J E / / / / / / / / / / / E ^ ^ / / / / / / / / / / / / / / ^ ^ / ^ ^ ^ / / / / / / / / / / / / / / / / / / / / / / / / / / / / / / / / / / / / / / / / / ^ ^ ^ E E / / / / / / / / / / / / / / / / / ",
"/ / / / / / / / / / / T D A / ^ / / / / / / / / / / / / / / / / / / / / E E E / ^ ^ ^ / / / / / / / / / / / / / / ^ / J Z H / ^ ^ / / / / / / / / / ^ ^ ^ ^ / H D K / ^ ^ ^ ^ / / / / / / / / / ^ ^ ^ / / / ^ ^ / / / / / / / / / F Z R / / / / / / / / / / / / / / / ^ T D F ^ / / / / / / / / / / / / / / / / / / / / / ^ E E / ^ ^ ^ ^ / / / / / / / / / / / / / ^ / T Z G / / / / / / / / / / / / / / / / / ",
"/ / / / / / / / / / / R H H / ^ / / / / / / / / / / / / / / / / / / ^ / H D H ^ ^ ^ ^ / / / / / / / / / / / / / / / ^ ^ E / / ^ ^ / / / / / / / / / ^ ^ ^ ^ ^ J H T ^ ^ ^ ^ ^ / / / / / / / / / ^ ^ ^ ^ ^ ^ ^ ^ / / / / / / / / / E E ^ / ^ / / / / / / / / / / / / / ^ R H J / / / / / / / / / / / / / / / / / / / / / / J Z H E ^ ^ ^ ^ / / / / / / / / / / / / / ^ ^ ^ E E / / / / / / / / / / / / / / / / / ",
"/ / / / / / / / / ^ / / ^ / / / ^ / / / / / / / / / / / / / / / / / / ^ ^ E / / ^ ^ ^ / / / / / / / / / / / / / / / / ^ ^ ^ ^ ^ ^ / / / / / / / / / ^ ^ ^ ^ ^ ^ ^ ^ ^ / / / / / / / / / / / / / ^ ^ ^ ^ / / ^ ^ / / / / / / / / / ^ ^ / / / / / / / / / / / / / / / / ^ ^ / / / / / / / / / / / / / / / / / / / / / / / / ^ E / ^ / / / / / / / / / / / / / / / / / / / / / / / / / / / / / / / / / / / / / / / ",
"^ ^ ^ ^ / / / / / / / / / ^ ^ ^ ^ / / / / / / / / / / / / / / / / / / / / / / / ^ ^ ^ / / / / / / / / / / / / / / / / / / ^ ^ ^ ^ ^ ^ ^ ^ ^ ^ ^ ^ ^ ^ ^ ^ ^ / / / / / / / / / ^ ^ ^ ^ / / / / / ^ ^ ^ ^ ^ / / E H J E ^ ^ / / / / / / / / / ^ ^ ^ ^ ^ ^ ^ ^ / / / / / / / / / / / / / / / / / / ^ ^ ^ ^ / / / / / / / / / / / / / / / / / / / / / / / / / / / / / / / ^ ^ ^ ^ ^ ^ ^ ^ / / / / / / / / / / / / / ",
"^ ^ ^ ^ / / / / / / / / / ^ ^ ^ ^ / / / / / / / / / / / / / / / / / / / / / / / ^ ^ ^ / / / / / / / / / / / / / / / / / / ^ ^ ^ ^ ^ ^ ^ ^ ^ ^ ^ ^ ^ ^ ^ ^ ^ / / / / / / / / / ^ ^ ^ ^ / / / / / ^ ^ ^ ^ ^ ^ / ^ J K / ^ ^ / / / / / / / / / ^ ^ ^ ^ ^ ^ ^ ^ / / / / / / / / / / / / / / / / / / ^ ^ ^ ^ / / / / / / / / / / / / / / / / / / / / / / / / / / / / / / / ^ ^ ^ ^ ^ ^ ^ / / / / / / / / / / / / / / ",
"T / ^ / / / / / / / / / / / / / / / / / / / / / ^ ^ ^ / / / / / / / / / / / / / / / / / / / / / / / / ^ / / / / / / / / / / / / / R R R E / ^ ^ ^ ^ / / / / / / / / / / / / / ^ ^ ^ ^ ^ ^ ^ ^ ^ / / / / / / / ^ / / / / / / / / / / / / / / E I R R / / / / / / / / / / / / / / / / / / / / / / ^ ^ / ^ / / / / / / / / / / / / / / / / / ^ ^ / / / / / / ^ / / / / / / / / / ^ ^ / T R R R / / / / / / / / / / ",
"A / ^ / / / / / / / / / / / / / / / / / / ^ ^ / H Z H / ^ / / / / / / / / / / / / / / / / / / / / / ^ ^ / / / / / / / / / / / / / A G H T _ ^ ^ ^ ^ / / / / / / / / / / / / / ^ ^ ^ ^ R Z D R ^ / / / / / / / / / / / / / / / / / ^ ^ ^ ^ / R Z G H ^ / / / / / / / / / / / / / / / / / / / / / / J Z H / ^ ^ ^ / / / / / / / / / / / / / / / ^ / / / / / ^ / / / / / / / / / ^ ^ / A F F J / / / / / / / / / / ",
"/ / / ^ / / / / / / / / / / / / / / / / / ^ ^ / R K T / ^ / / / / / / / / / / / / / / / / / / R H G E ^ / / / / / / / / / / / / / / / ^ ^ ^ ^ ^ ^ ^ / / / / / / / / / / / / / ^ ^ ^ ^ ^ T K E ^ / / / / / / / / / / / / / / / / / ^ ^ ^ ^ ^ ^ ^ / / / / / / / / / / / / / / / / / / / / / / / / ^ R T T / ^ ^ ^ / / / / / / / / / / / / / / ^ ^ R F A R / ^ / / / / / / / / ^ ^ / ^ / / / ^ ^ / / / / / / / / / ",
"/ / / / / / / / / / / / / / / / / / / / / / / ^ ^ ^ ^ / / / / / / / / / / / / / / / / / / / / U A J E / / / / / / / / / / / / / / / / / / / / / / / / / / / / / / / / / / / / ^ ^ ^ ^ / / / ^ / / / / / / / / / / / / / / / / / / / / / / / / / / / / / / / / / / / / / / / / / / / / / / / / / ^ ^ ^ ^ / / / / / / / / / / / / / / / / / / ^ / R A H E / ^ / / / / / / / / / / / / / / / / / / / / / / / / / / ",
"/ / / / / / / / / / / / / / / / / / / / / / ^ ^ ^ ^ / / / / / / / / / / / / / / / / / / / / / / / / / / / / / / / / / / / / / / / / / / / / / / / / / / / / / / / / / / / / / ^ ^ ^ ^ / / / / / / / / / / / / / / / / / / / / / / / / / / / / / / / / / / / / / / / / / / / / / / / / / / / / / ^ ^ ^ / / / / / / / / / / / / / / / / / / / / / / / ^ ^ ^ ^ / / / / / / / / / / / / / / / / / / / / / / / / / / ",
"/ / / / / / / / / / / / / / / / / / / / / / ^ ^ ^ ^ / / / / / / / / / / / / / / / / / / / / / / ^ ^ ^ ^ / / / / / / / / / / / / / / / / / / / / / / / / / / / / / / / / / / / ^ ^ ^ ^ / / / / / / / / / / / / / / / / / / / / / / / / / / / / / / / / / / / / / / / / / / / / / / / / / / / / / ^ ^ ^ / / / / / / / / / / / / / / / / / / / / / / / ^ ^ ^ / / / / / / / / / / / / / / / / / / / / / / / / / / / ",
"/ / / / / / / / / ^ R E E ^ ^ ^ ^ / / / / / / / / / / / / / / / / / / ^ ^ ^ / ^ / / ^ ^ / / / / / / / / / ^ ^ ^ / / / / / ^ ^ ^ ^ / / / / / / / / / ^ / ^ E R E E ^ ^ / / / / / / / / / / / / / / / / / / / / / / / / / / / ^ ^ ^ / / / / / / / / / / / / / / ^ ^ ^ / R E E ^ / / / / / / / / / / / / / / / / / / / / / / / / ^ ^ ^ / / ^ / / / / / / / / / / ^ ^ ^ / / / / / ^ ^ ^ / / / / / / / / / / / / E E ",
"/ / / / / / / / / E A G H Y ^ ^ ^ / / / / / / / / / / / / / / / / / / ^ ^ ^ / ^ ^ ^ / / / / / / / / / / / ^ ^ ^ ^ / / / ^ ^ ^ ^ ^ / / / / / / / / / / ^ ^ K Z H J / / / / / / / / / / / / / / / / / / / / / / / / / / / / ^ / / / / / / / / / / / / / / / / ^ ^ ^ ^ / A F H U / / / / / / / / / / / / / / / / / / / / / / / / / / / / / / / / / / / / / / / ^ ^ ^ ^ ^ ^ / ^ ^ ^ ^ ^ ^ / / / / / / / / ^ ^ / J F ",
"/ / / / / / / / / ^ E / / ^ ^ ^ ^ / / / / / / / / / / / / / / / / / / / ^ / H A R / / / / / / / / / / / / ^ ^ ^ / R J J / ^ ^ ^ ^ / / / / / / / / / ^ / ^ / / / / ^ ^ / / / / / / / / / / / / / / / / / / / / / / / / / ^ ^ / T J R / / / / / / / / / / / / / ^ ^ ^ / E / / / / / / / / / / / / / / / / / / / / / / / / / / _ G Z U ^ ^ / / / / / / / / / / ^ ^ ^ ^ R J J / / ^ ^ ^ / / / / / / / / / / / / / E ",
"/ / / / / / / / / / / / / / / / / / / / / / / / / / / / / / / / / / / ^ / / T I E / / / / / / / / / / / / ^ ^ ^ / I Z A E ^ ^ ^ ^ / / / / / / / / / / / / / / / / / / / / ^ ^ ^ ^ ^ / / / / / ^ ^ ^ / / / / / / / / / / ^ ^ / H D J ^ / / / / / / / / / / / / / / / / / / / / / / / / / / / / / / / / / / / / / / / / / ^ ^ / I T E ^ ^ ^ / / / / / / / / / ^ ^ ^ / T Z F E ^ / / / / / / / / / / / / / / / / / ",
"/ / / / / / / / / / / / / / / / / / / / / / / / / / / / / / / / / / / ^ ^ / / / / / / / / / / / / / / / / ^ ^ ^ / ^ ^ ^ ^ ^ ^ ^ ^ / / / / / / / / / ^ ^ ^ / / / _ ` ' [ { { } } W.Q.!.^.^.^.!.Q.E.} { ' _ / / ^ / / / / / / ^ ^ ^ ^ ^ ^ ^ ^ ^ ^ ^ ^ ^ ^ ^ ^ ^ / / / / / / / / / / / / / / / / / / / / / / / / / / / / / / / ^ ^ ^ ^ ^ ^ ^ / / / / / / / / / ^ ^ ^ ^ / ^ ^ ^ / / / / / / / / / / / / / / / / / / ",
"/ / / / / / / / / / / / / / / / / / / / / / / / / / / / / ^ / / / / / / ^ ^ ^ / / / / / / / / / / / / / / / / / / / ^ / / ^ ^ / / / / / / / ^ / ` ' { } W.!.^././.0XwXmXMXMXJXJXPXPXPXPXPXPXPXPXJXMXmX0X/.^.Q.} [ ' ` ` ` ' ' { { } E.E.W.E.} } } { { } } } } { ' ` / ^ / / / / / / / / / / / / / / / / / / / / / / / / / / / / / / / / / / / / / / / / / / / / / / / ^ ^ / / / / / / / / / / / / / / / / / / / ",
"^ ^ ^ / / / / / / ^ ^ ^ ^ / / / / / / / / / ^ ^ ^ / / / ^ ^ / / / / / / / / / / / / / / / / / / / / / / / / / / / / / / / / / / / / ^ / ` { W.^.9XwXMXJXPXPXPXPXPXPXPXPXPXPXLXLXLXLXLXLXLXLXLXLXLXLXLXLXLXKXJXMXwX0X9X9X9X0XwXmXMXJXJXJXJXJXJXJXJXMXMXMXJXJXMXmXwX/.W.[ / ^ / / / / / / / / / / ^ / / / / / / / / / / / / / / / / / / / / / / / / / / / / / / / / / / / / / / / / / / / / / / / / / / / / / / / ",
"R R / ^ / / / / / ^ ^ ^ ^ / / / / / / / / / ^ ^ I J T / ^ / / / / / / / / / / / / / / / / / / / / / / / / / / / / / / / / / ^ / _ [ E.^.0XmXJXLXPXPXLXLXLXLXLXLXLXLXLXLXLXLXLXLXLXLXLXLXLXLXLXLXLXKXKXKXKXKXKXKXKXKXKXKXKXKXKXKXKXKXKXKXKXKXKXKXKXKXKXKXKXKXPXPXPXPXJXqX^.} ' / ^ / / / / / / / / R J T E / / / / / / / / / / / / / / / / / / / / / / / / / / / / / / / / / / / / / / / / / / / / / / / / / / / ",
"V Z T ^ ^ / / / / ^ ^ ^ ^ / / / / / / / / / ^ / T G H E ^ ^ / / / / / / / / / / / / / / / / / / / / / / / / / / / / / / ` [ } Q./.wXJXLXLXLXLXLXLXLXLXLXLXLXLXLXLXLXFXFXFXFXFXFXFXFXFXFXFXDXDXDXDXKXKXDXDXDXDXDXDXDXDXDXDXDXKXKXDXKXKXKXKXKXKXKXKXKXKXKXKXKXKXKXKXKXKXKXKXMX0X^.} ' / / / / / ^ / R H G R / / / / / / / / / / / / / / / / / / / / / / / / / / / / / / / / / / / / / / / / / / / / / / / / / / / ",
"E E E ^ / / / / / ^ / / ^ / / / / / / / / / ^ ^ ^ / ^ ^ ^ ^ / / / / / / / / / / / / / / / / / / / / / / / / / / / ` } ^.9XwXMXLXLXLXLXLXLXLXLXLXFXFXFXFXFXFXFXFXFXFXFXFXFXDXDXDXDXDXDXDXDXDXDXDXDXLXKXDXDXDXCXCXCXCXCXCXCXCXCXCXCXCXCXCXCXDXCXDXKXHXHXHXHXHXKXKXKXKXKXKXKXKXKXKXMX0XQ.[ / / / / ^ ^ / / / / / / / / / / / / / / / / / / / / / / / / / / / / / / / / / / / / / / / / / / / ^ / / / ^ ^ / / / / / ",
"^ ^ ^ ^ / / / / / I F Z R / / / / / / / / / ^ ^ ^ ^ ^ ^ ^ ^ / / / / / / / / / / / / / / / / / / / / / / / / / ' } /.MXLXLXLXLXLXLXLXFXFXFXFXFXFXFXFXFXFXFXSXSXSXSXAXAXAXAXAXAXDXKXDXAXAXAXAXAXAXAXAXBXBXDXDXBXBXBXBXNXNXBXBXBXBXBXCXCXCXCXCXCXCXCXCXCXCXCXCXCXCXHXHXKXKXKXKXKXKXKXKXJXwX^.{ _ ^ ^ ^ ^ ^ / / / / / / / / / / / / / / / / / / / / / / / / / / / / / / / / / / / / / / / / ^ ^ T H J ^ ^ / / / / / ",
"/ / / / / / / / / E I T E / / / / / / / / / / / / / / / / / / / / / / / / / / / / / / / / ^ ^ / / / / / _ { Q.0XMXLXLXLXLXLXLXFXFXFXFXFXFXFXFXFXFXSXAXDXAXAXAXAXlXlXlXAXAXAXAXDXFXAXlXlXAXAXgXAXAXgXgXBXBXBXBXBXNXNXNXNXNXNXNXNXNXNXNXNXNXNXNXNXNXNXVXVXVXCXCXCXCXCXCXCXHXHXHXHXHXKXKXKXJXmX/.} _ ^ / / / / / / / / / / / / / / / / / / / / / ^ / / / / / / / / / / / / / / / / / / / / / / I G J / / / / / / / ",
"/ / / / / / / / / ^ ^ ^ ^ / / / / / / / / / / / / / / / / / / / / / / / / / / / / / / / ^ ^ / / / / ` } /.wXLXLXLXLXFXFXFXLXLXFXFXFXSXSXSXSXAXAXFXAXAXAXAXlXlXlXlXlXAXFXlXSXlXlXlXlXlXlXAXlXgXgXgXgXgXgXgXgXgXgXgXgXgXgXgXNXgXgXgXyXyXyXyXyXyXyXNXNXNXNXNXNXNXNXVXVXVXVXVXCXCXHXHXHXKXHXHXKXKXmX/.} _ / / / / / / / / / / / / / / ^ ^ ^ ^ ^ / / / ^ ^ ^ ^ ^ / / / / / / / / / / / / / / / / / / / / / / / / / / ",
"/ / / / / / / / / ^ ^ ^ ^ / / / / / / / / / / / / / / / / / / / / / / / / / / / / / / / / J Z J ` } /.MXLXLXLXFXFXFXFXSXFXFXFXFXSXSXSXlXlXlXlXlXlXlXzXlXzXkXkXlXlXlXlXSXzXkXkXdXkXdXdXhXhXsXsXsXsXsXsXgXgXrXrXrXgXgXgXyXyXyXrXrXyXgXNXyXyXyXyXyXyXyXyXyXyXvXNXVXNXvXvXvXvXVXVXVXVXVXHXHXHXHXHXHXHXmX^.{ _ ^ / / / / / / / / / / / ^ ^ ^ ^ / J Z J / ^ ^ ^ ^ / / / / / / / / / / / / / / / / / / / / / / / / / / ",
"/ / / / / / / / / ^ ^ ^ ^ / / / / / / / / / / / / / / / / / / / ^ / / / / / / / / / / / ^ Y W } /.MXLXLXLXFXFXFXFXSXSXSXSXSXSXlXzXlXlXlXlXlXkXkXkXlXlXzXkXkXkXfXkXkXfXfXfX3X3X3X2X2X<X2X2X2X2X2XsX2X*X*X*X*X*X*X*X*X*X*X*XrXrX*XeXrX*X*X*XrXrXrXrXyXyXyXyXyXvXCXvXyXvXvXvXNXvXvXVXVXVXVXVXVXGXHXHXHXHXwX^.} ' / ^ / / / / / / / / ^ ^ ^ ^ ^ E R E ^ ^ ^ ^ ^ / / / / / / / / / / / / / / / / / / / / / / / / / / ",
"^ ^ ^ ^ / / / / / ^ ^ ^ ^ ^ I J T / ^ ^ ^ / / / / / / / E G H R ^ ^ / / / / / / / / / ^ / { ^.MXLXLXLXFXFXFXSXSXSXSXSXzXzXzXlXjXkXkXlXSXSXhXkXkXkXfXfXfXfX3X3X3X3XfXfXfXfX3X3X3X1X1X<X<X<X<X<X<X<X*X*X*X*X'.*X'._._._._.'.'.'.'.'.'.'.'.'.'.'.eXeXeXeXeXeXtXeXyXyXyXvXcXvXvXvXvXvXVXVXVXVXVXVXVXVXGXHXHXHXmX9XE.` / / / / / / / / ^ ^ ^ ^ ^ ^ ^ ^ ^ ^ ^ ^ ^ / / / / / / / / / / / / / / / / / / / / / / / / / / ",
"J I / ^ ^ / / / / ^ ^ ^ ^ / J G J / ^ ^ ^ / / / / / / / E H J E ^ / / / / / / / / / / ' Q.wXLXLXLXFXFXFXSXSXSXzXzXzXzXzXkXkXkXkXlXkXlXAXzXkXfX3X3X3XfXkXkXfXfXkXkXzXSXFXSXzXfXfXfXfXfXfXfX3X3X1X1X1X2X<X*X*X*X_._._.).).).).).).).'._.'.'.'.'.'.'.'.'.'.'.'.'.eXtXeXyXyXyXvXyXvXNXvXvXvXvXvXVXVXVXVXHXHXHXHXHXGX9X!.{ _ / / / / / ^ ^ ^ ^ ^ ^ ^ ^ ^ ^ ^ ^ / / / / / / / E / / / / / / / / / / / / / / / / / / / ",
"Z G E ^ ^ / / / / / / / / / / / / / / / / / / / / / / / / / / / / / / / / / / / / _ } 0XJXLXLXLXFXFXFXSXSXzXzXzXzXkXkXkXkXkXkXkXlXkXfXfX3X3X3X3XfXkXSXzXkXfX3X3X1X3X1X1X1X1X1X1X3X3XfXkXzXkXfXfXfXfX3X3X3X3X3X3X2X2X*X*X_.).I.y.y.y.y.I.I.I.).).`.'.'.'.'.'.'.'.'.5XeXeXtXtXvXvXVXvXyXcXcXvXvXvXNXVXVXVXVXGXGXHXHXGXqX!.[ / / / / / / / / / / / / / / / / / / ^ ^ / T Z F R / ^ ^ ^ / / / / / / / / / / / / / / ",
"/ / ^ ^ / / / / / / / / / / / / / / / / / / / / / / / / / / / / / / / / / / / ^ ` W.wXLXLXLXFXFXFXSXSXSXSXzXlXkXkXkXfXfXfX3XfXfX3X1X1X&X&X1XfXSXSXfX3X&X$XK.K.K.J.J.J.J.K.K.J.J.J.K.$X$X&X&X1X1X1X1X3X3X3XfXfXfXkXSXFXFXfX<X_.).y.t.r.r.r.r.r.r.t.I.).`.'.5X'.'.'.'.5X5X5XeXtXtXtXyXtXyXvXcXcXvXvXvXvXvXVXVXVXGXHXHXHXGX9XE.' / / / / / / / / / / / / / / / ^ ^ ^ ^ ^ R E ^ ^ ^ ^ ^ ^ / / / / / / / / / / / / / ",
"^ ^ ^ ^ / / / / / / / / / / / / / / / / / / / / / / / / / / / / / / / / / / ^ ' ^.MXLXLXLXFXFXSXSXSXzXzXzXkXfXfXfXfX3X3X3X3X1X&X$X$X$X1X3XfXfX1X%XK.J.J.S.S.S.S.S.S.S.S.S.M.m.m.m.M.M.S.S.D.S.S.S.S.D.F.F.K.#X%X%X1X3XfXkXfX3X<XoX).N.y.r.r.r.r.r.r.r.r.I.).`.5X5X'.'.4X4X`.5X5X5XeXtXtXcXxXxXyXcXcXvXvXvXVXVXGXGXGXHXHXHXGX9XE.' / / / / / / / / / / / / / / ^ ^ ^ / ^ ^ ^ ^ ^ ^ ^ / / / / / / / / / / / / / / ",
"/ / / / / / / ^ ^ ^ ^ ^ / / / / / / / / / / / / / / / / / / / / / / / ^ ^ ^ [ /.JXLXLXFXFXSXSXzXzXSXzXzXdXfXfXfX3X3X1X1X&X&X$X$X&X3XfXfX3X$XJ.J.S.S.M.m.m.m.m.m.m.m.x.x.1.2.2.1.1.2.2.2.2.2.2.2.2.2.0.0.0.e.e.e.N.N.B.oX%X<X1X3X3X<XoX_.N.t.r.r.r.r.r.r.r.r.t.I.`.`.5X5X5X4X4X4X4X4X5XeXtXtXtXyXcXcXcXcXvXvXHXGXVXVXVXGXHXHXHXGX/.} ` / / / / / / / / / / / / / / / / / / / / / / / / / / / / / / / / / / / / / ",
"/ / / / ^ ^ / E E / / ^ ^ / / / / / / / / / / / / / / / / / / J D H / ^ ^ { /.LXLXFXFXFXSXSXzXzXzXzXkXfX3X3X3X1X1X&X$X$XH.&X1XfXSXkX3X$XJ.J.S.M.m.m.m.x.x.x.x.4.2.2.,.,.,.$.$.$.$.$.X.X.o. . . . .x  . . .o.o.+.=.9.e.t.N.N.B.B.oX%X<X<XoX_.y.r.r.r.r.r.r.r.r.r.r.I.`.'.tX5X5X4X4X4X4X4X5XtXtXtXxXcXxXcXcXvXVXVXvXVXVXGXGXGXHXHXHXmX^.[ / / / / / / / / / / / / / / / / / / / / / / / / / / / / / / / / / / / / ",
"/ / / / ^ ^ E A H R / / ^ / / / / / / / / / / / / / / / / / / T J J / / } 0XLXLXFXFXFXFXSXSXlXlXjXfX3X3X3X3X1X&X&X&X$XH.&X3XSXSX3X#XF.S.M.m.n.x.x.x.x.b.x.2.2.,.,.$.$.$.$.X. .x x b g e e r r r e e z c c c  .x  . .-.0.9.9.9.e.e.N.B.B._.oXoXB.).).t.r.r.r.r.r.r.r.r.I.`.5XxXxX7X4X4X4X4X5X5XtXxXcXxXxXcXcXcXcXvXcXVXVXGXHXHXHXHXHXGX9XE._ / / ^ / / / / / / / / / / / / / / / / / / / / / / / / ^ / / / / / / ",
"/ / / / / / / / ^ ^ ^ ^ ^ / / / / / / / / / / / / / / / / / / ^ ^ ^ ` W.qXLXLXFXFXSXSXSXSXlXkXkXfX3X1X1XfX1X1X1XH.H.$X1XkXSXfX%XF.S.m.m.n.b.4.4.2.2.2.2.2.,.,.$.X.X.%.@.x g x z f y e r q 7 7 7 7 7 r r y g g c c x x x x  .o.+.+.9.9.w.w.t.N.B.B._._.y.8.8.8.8.r.r.r.t.I.U.`.5XxXxX7X7X4X4X5X7XxXtXtXxXtXcXcXcXcXcXcXcXVXGXGXHXHXHXHXHXmX^.[ / ^ R K R ^ ^ / / / / / / / / / / / / / / ^ E J A U / ^ / / / / / ",
"/ / / / / / / / / ^ ^ ^ ^ / / / / / / / / / / / / / / / / / / ^ ^ ' ^.MXLXFXFXFXSXSXzXlXlXkXdXdX3X1X1XfX3X$X$XH.H.&XfXzXlX<XF.D.M.m.n.4.2.2.2.2.<.,.,.$.$.$.X. .x  .@.@.z g g g y 7 1 > > ; ; ; & & & & - ; ; ; > 7 6 w e e j j k  .| +.=.5.w.w.t.N.B.N.w.7.6.7.7.r.t.y.N.I.I.`.4X5X7X7X6X4X6X4X7X7XcXvXxXcXcXcXcXcXvXvXvXcXVXVXGXHXHXHXHXGX9X} _ Z Z J / ^ / / / / / / / / / / / / / / ^ E F F T / ^ / / / / / ",
"/ / / / / / / / / ^ ^ ^ ^ / / / / / / / / / / / ^ ^ / / / / / ^ ' ^.JXLXFXFXFXSXFXSXlXjXkXfXpX3X1X&XkXSX1XH.H.$X1XfXkX<XF.S.M.n.b.4.<.<.<.,.$.+.+.X.X.o. .x x x x g g e 0 0 7 7 > ; ; & & & & & < 9 ; & & & & ; : > : : > > 6 0 w a k ......=.9.w.t.t.B.B.t.5.5.6.6.7.r.N._._.`.U.U.`.4X7X6X6X4XY.4XxXxX5XxXxXxXcXcXcXvXvXvXcXVXVXGXHXHXHXHXHXmX!.` / / / / / / / / / / / / / / / / / / / / / / / ^ / / / / / / ",
"/ / / / / ^ ^ ^ ^ ^ ^ ^ ^ / / / / / / / / / ^ E A G / ^ ^ ^ / ` !.MXLXFXFXFXSXSXSXlXjXjXfX3X,X3X1XfXkX3X$XH.$XfXkX3XK.S.S.M.b.4.e.2.<.<.<.$.X. . .x x @.@.g g h z r 7 > 1 1 ; < 1 ; ; ; ; ; > > q q 5 > > : ; ; ; ; ; : : : > > > 5 w a j j k ..+.=.5.9.N.F.B.w.5.=.=.6.r.y._.*X'.`.U.U.4X6X6X6XY.Y.6X7X7X7XxXxXcXxXcXcXcXvXvXcXvXVXGXHXHXHXHXHXmX^.` / / / / / / / / / / / / / / / / / / / / / / / / / / / / / ",
"/ / / / / ^ ^ ^ / ^ ^ ^ ^ / / / / / / / / / / E J I ^ ^ ^ ^ _ W.MXLXFXFXFXSXSXzXkXkXjXdXpX3X3X3XfXkX1X1X$X&XfXfX%XD.M.M.m.n.e.3.<.+.+.+.+.X.x j e f g z g e r q 7 1 t 1 < < < 7 u 7 ; ; ; ; ; ; > > : : : , : ; : ; > 8 , , , > > > > 6 0 0 a a k ..o.=.=.0.c.B.N.-.&.&.=.8.r._.2XrX`.U.U.U.4X4X6XY.Y.7X7X5X5XtXxXxXxXcXcXvXcXvXvXvXVXVXHXHXHXHXHXGX!.` / / / / / / / / / / / / / / / / / / / / / / / / / / / / ",
"/ / / / / ^ ^ U K T ^ ^ / / / / / / / / / / / / / / / / / / } qXFXFXFXFXSXSXzXlXAXjXkXfX3X3XfXzXSX3X1X&X1XzXkX#XS.M.m.n.b.e.<.+.+.o.X.@.x e q e e e e e r 7 1 ; : < 9 t t : - & > : & & - & & & & & & & - ; ; : : : > , > > 5 6 5 5 5 5 > e z r e j k ..o.&.X.0.c.0.-.....&.6.r.).*X*X`.U.U.U.U.4X6X4X6X7X7X4X5XxXxXtXxXVXHXHXGXvXvXVXVXVXHXHXHXHXKXmXQ._ / / / / / / / / / / / / / / / / / / / / / / / / / / / ",
"/ / / / / / / H D J / ^ ^ / / / / / / / / / / / / / / / / { 0XLXFXFXFXSXSXzXkXjXjXfXkXfX3X3XkXSXfX&X&X3XSXfX%XD.M.n.b.4.2.,.$.+.o. .z e 0 0 h @.h r q r 1 ; ; ; ; : ; t u ; : & - - - : : < : : : : : : , , : , > , , , > > > 5 0 d e 6 5 6 e z a 0 a x x ..x x -.c.0.-.....&.=.q.I.'.*X`.I.L.L.U.Y.Y.Y.6X7X4X4X7XxXtXtXcXvXvXcXvXcXvXVXVXVXHXHXHXHXHXmXE._ / / / / / ^ J D T / ^ ^ ^ / / / / / / / / / / / / / ",
"/ / / / / / ^ ^ ^ / ^ ^ / / / / / / / / / / / / / / / / [ 9XLXFXFXFXSXSXlXkXjXjXdX3X3X1X3X3XzXzX3X&X3XzX3XK.S.m.n.b.e.<.:.$.+.X.x f y r 7 y @.@.y 7 1 : ; ; ; : & - * 2 u 1 : : - : : : : 1 > > > > > > 5 5 5 6 6 a a 0 6 6 6 6 6 q 6 6 5 5 6 i a 6 0 a a j x x x @.0.;.o.x l ..&.5.r.).'.'.I.L.L.L.P.U.Y.7X7X4X6X5XtXtXtXxXcXcXcXcXvXvXVXVXVXHXHXHXHXHXwX} / / / / / ^ I J R ^ ^ ^ ^ / / / / / / / / / / / / / ",
"/ / / / / ^ ^ ^ ^ / / / / / / / / / / / / / / / / / ^ ` ^.JXFXFXFXSXSXzXkXjXjXdX,X,X1X3XzXkXSXfX1XfXSX3XK.S.m.n.4.2.<.+.+.+. .f 0 r h y y y y r 7 1 : & & & & & - - < 1 1 9 9 : : : : : : : > , > > 5 6 0 p a j l | ..k l j a p p 6 6 6 6 0 a 7 8 6 8 0 0 0 a z x a c ;.$...z j l ..5.r.y.'.`.r.8.r.L.L.U.Y.7X7XY.4X5X5XtXtXxXxXxXcXvXVXvXVXVXVXHXHXHXHXHX9X' / / / / / / / / / / / / / / / / / / / / / / / / / ",
"/ / / / / ^ ^ ^ / / / / / / / / / / / / / / ^ ^ ^ ^ ^ } wXFXFXFXFXSXlXlXjXdXdX,X,X@X&XfXkXzXzXfXkXSX3XK.S.M.n.4.2.<.+.+.X.x e q 7 7 7 7 r r q 9 1 & $ - & - - : : 1 q r 7 1 8 > : : : : > 8 0 p p j j k | | *.=.*.6.6.6.6.*.*.| l j p 0 0 0 z z 0 6 6 0 8 5 5 8 a e r @.;.o.x z a l ..=.w.t.).).8.8.r.L.P.U.4XbX7X4X4X5XtXtXtXtXyXcXvXvXvXvXVXVXVXHXHXHXHXmXW./ / / / / / / / / / / / / / / / / / / / / / / / / ",
"/ / / / / ^ ^ ^ / / / / / / / / / / / / / / ^ ^ ^ ^ ' /.LXFXFXSXSXlXkXhXpXuX>X,X=X1X1XfXfXSXkXSXFXfX$XJ.S.m.4.2.<.+.+.X.h r 0 q 7 > 7 q r y q < & ; & & < < 1 r z h y 7 > > > 3 0 6 p p j k k | | k | | | O.O.*.*.*.*.=.=.=.*.*.| | | k l j c @.e e e a e r 8 6 8 0 0 d c x z j a i a l &.w.t.N.t.8.8.r.r.L.U.7XbX6X4X5X5X5XtXtXyXyXyXvXvXvXvXVXVXCXHXHXHXHX9X' / / / / / / / / / / / / / / / / / / / / / / / / ",
"/ / / / / / / / / / / / / / / / / / / / / / ^ ^ / R } MXFXFXSXSXlXlXhXdXuX:X;X=X@X1XfXfXzXzXzXPXkX&XJ.S.S.n.2.<.$.+.x e g y 7 7 7 7 r 9 7 q < & < 2 < 1 y g X.@.c r 1 8 9 0 0 a k | O.O.O.O.| | j p p p p p p i i i i p p a p p p j l k | | k j e w a a 0 z j 6 7 8 8 8 8 q r e a 0 i a l +.r.t.t.r.7.8.8.r.L.4XbXxX4X4X4X5XeXtXtXtXyXyXcXvXvXvXVXVXCXHXHXHXmXE./ / / / / / / / / / / / / / / / / / / / / / / / ",
"/ / / / / / / / / / / / / / / / / / / / / / / ^ / H ~.FXFXFXSXlXhXhXdXuX>X;X=X@X@X3XfXfXFXSXLXFXfXK.J.S.M.b.4.,.o.j r q q 1 1 7 q g h 7 < < & ; 2 t r c $.%.@.y 7 1 q a a l | O.*.*.*.O.k j p i > : - - = = = = = = = = = = - : : > > > 6 p a j p p e p p w e z d 7 7 q q 1 0 c @.a 8 8 a x -.t.t.r.8.7.8.8.r.U.5XbXxX4X`.5X5XeXeXtXyXyXyXcXvXvXVXVXVXCXHXHXHX/.' / / / / / / / / / / / / / / / / / / / / / / / ",
"/ / / / / / / / / / / / / / / / / / / / / / ^ ^ ^ } wXFXFXSXSXlXjXdXpX>X;X=X+X@X@XfXzXkXLXLXFXfX&XJ.J.S.n.4.,.o.f e 0 7 > 1 1 9 g h y * $ $ $ * < z %.1.%.h 8 3 8 q j ..O.*.6.6.5.| l a 5 3 : = = # + + + + + + + # # # + + # # = = = = - : : > a i 0 p z ..w e c z 7 z z 6 5 r @.z < 3 0 z x =.r.r.r.7.7.8.8.r.U.5XxX4XU.`.5X5XtXtXtXyXyXyXvXNXvXVXVXCXHXHXHXmX} / / / / / / / / / / / / / / / / / / / / / / / ",
"/ / / / / / / / / / / / / / / / / / / / / / / / _ ^.FXFXFXSXlXjXdXpX>X:X=X+XOX@X@X3XfXSXPXLXfX&XK.J.J.M.b.,.o.x e y q 7 t y 7 y g 7 $ $ $ $ * 9 h %.l.@.q 3 3 i j ..=.6.7.6.6.&.l i > : = # # # + + + + + + + + + + + + + + + + + + # # # = = = : , > 5 0 j w w e x z 0 8 > > > 7 7 > < > q a k 5.r.r.8.7.7.7.8.L.U.7X5XU.`.5X5XtXtXtXyXyXyXvXvXvXNXVXVXCXHXHXHX/.` / / / / / / / / / / / / / / / / / / / / / / ",
"/ / / / / / / / / / / / / / / / / / / / / / / / [ 0XFXFXSXlXlXkXdXuX:X;X=X+XOXH.@X3XfXLXPXFX1XK.J.J.S.n.,.X.x f r y y y b t y u < $ $ $ $ $ 9 c $.@.g 3 2 3 a k =.q.L.8.*.O.l i > - = # + + + + + + o o + + o o o o o o o o o o + + + + + + + # # = - : > > 6 a p z $.z 5 > : > > > > : : 8 i j $.5.I.r.7.7.7.7.8.L.5XxX4X`.`.'.5XeXeXtXyXyXvXvXvXvXVXVXVXCXHXHXmX} / / / / / / / / / / / / / / / / / / / / / / ",
"/ / / / / / / / / / / / / / / / / / / / / / / / W.MXFXDXSXlXkXdXuX>X;X-X|.}.H.H.@X3XfXPXPXkX&XK.J.S.m.1.$.@.c r 7 t u y 9 1 2 < * $ $ $ $ 2 y z y 9 < < 8 a ..5.r.L.6.O.l p > - = # + + + + + o o o X X X X X X X X X X X X X o o o o + + + + + # # # = = : > a a 0 j k e 5 > : > > > > : : 7 z x | q.I.8.7.6.7.8.r.`.5X5XU.U.'.5XeXeXyXyXyXyXvXvXvXNXVXVXCXHXHXHX^._ / / / / / / / / / / / / / / / / / / / / / ",
"/ / / / / ^ ^ ^ / / / / / / / / / ^ ^ H H H I ' /.FXFXAXAXSXhXiXuX:X-X|.}.OX@XH.$X&XfXPXLXfX$XK.J.D.M.$.$.@.c b q q y 1 < < $ $ * $ $ $ * t q 1 : < < 9 j ..5.L.r.5.| a 8 : = # + + + + o o o X X X X X X X . . . . . . . . X X X X X X o o o + + + + # = = - > 5 6 e e z d > > > > > > > : 1 d z l O.r.L.7.6.5.6.r.I.`.5X`.U.`.'.5XeXrXrXyXyXyXyXvXvXVXVXCXCXHXKXqX{ / / / / / / / / ^ ^ ^ ^ ^ ^ / / ^ / / / / ",
"/ / ^ E ^ ^ ^ ^ / / / / / / / / / ^ ^ J J J T } nXFXFXAXjXhXdXpX>X-X.X|.H.H.H.G.$X&XkXPXFX3X$XK.S.M.0.X.x z y t 7 7 1 1 < $ $ $ $ $ $ $ 2 9 : - * < i ..=.7.r.r.=.k 0 3 9 = + + + + $ o o X X X . . . . . . . . . . . . . . . . . . . X X X o o + + + + # # $ = : > d a 0 e 6 0 7 > > > > > > 7 6 a k =.r.7.5.5.5.7.r.I.'.`.I.U.`.'.eXeXyXyXyXyXyXvXvXvXVXCXCXHXKXGXW./ / / / / / / / ^ ^ / / / E ^ ^ / / / / / ",
"/ T C Z R ^ ^ ^ / / / / / / / / / / ^ ^ / / / !.DXFXAXlXkXdXiX>X;X=X|.}.A.G.G.G.$X&XzXPXSX1X$XJ.M.b.$. .z y q 1 1 9 7 9 * $ $ $ $ $ $ * 1 < $ - < 8 x =.r.r.5.O.j 8 : - = + + + o o o X X X . . . . . . . . . . . . . . . . . . . . . . . X X X X o o + + + + # = : > a 5 > 5 > > > > > > > > q 8 8 a k =.5.*.*.=.5.7.L.`.`.I.I.`.'.'.eXrXyXyXyXyXVXNXvXNXCXCXHXKXKX^._ / / / / / / / / / / A B G / / / / / / / ",
"/ E T E ^ ^ ^ ^ / / / / / / / / / / / / / / ` /.FXFXAXlXhXdXuX:X-X=X=X|.A.G.V.H.&X&XSXPXFX3X$XJ.n.<.+. .j r 8 t 9 9 1 & $ $ $ $ $ $ $ * : $ $ < 3 a O.q.r.5.| j 3 - - = + + o o o X X X . . . . . . . . . . . . . . . . . . . . . . . . . . . X X X o # = + + + # $ - > 5 > 5 0 6 > > 6 5 > > q 0 8 0 a l O.+.O.O.*.6.r.).`.).U.`.`.'.eXeXyXyXyXyXNXvXvXNXVXCXHXKXKX/.' / / / / / / / / / / U R E ^ / / / / / / ",
"^ ^ ^ / ^ ^ ^ ^ / / / / / / / / / / / / / / ' 0XFXFXAXlXhXjXuX;X=X=X=X[.A.V.V.H.$X&XFXPXLX3X$XD.b.$.X.o.e t q u t 9 < $ $ $ $ $ $ $ $ * & $ - 3 a ..5.r.5.| z 8 - # # # o o o o X X . . . . . . . . . . . . . . . . . . . . . . . . . . . . . . . X X o + o o + + # $ : 0 5 5 6 > > 6 r a 8 > 7 i 7 7 8 r k =.=.+.=.5.r.I.I.I.I.I.U.'.5XeXyXyXyXyXyXvXNXNXVXCXCXHXKXwX{ / / / / / / / ^ / / ^ Q ^ / ^ ^ / / / / ",
"/ / / / / / / / / / / / / / / / / / / / / / { qXFXAXlXlXhXiX>X;X=X|.{.A.V.V.V.H.$X1XLXPXLXfX&XB.e.$.o.z r q q u 9 < * $ $ $ $ $ $ $ $ $ $ - < 8 k 5.r.6.| j d < # + + o o o + X . . . . . . . .         + @ .   .   . . . . . . . . . . . . . . . . . X X X o + + + # = > > > > > > 5 0 0 6 > 1 7 q q 1 8 e o.9.+.o.=.r.I.I.).I.L.I.`.'.rXyXrXyXyXyXyXNXNXVXCXCXHXKXGXE./ / / ^ / / / / / / / / / / / / / / / / ",
"/ / / / / / / / / ^ ^ ^ ^ ^ ^ ^ ^ / / / / / E.nXFXAXlXhXdXuX:X;X.X|.[.A.V.V.V.K.K.1XLXPXLXfX%XB.N.$. .z r 7 t h 2 $ $ $ $ $ $ $ & $ & $ $ - < e ..r.q.| a 8 : # + + + o X X X . . . . . . . . .       . X @ . .                 . . . . . . . . . . . . X X o o + + + = - : > > 5 6 5 > 6 0 5 > > 7 9 1 1 8 z ;.-.| O.5.r.t.I.).I.I.`.'.rXrXyXyXyXyXyXNXNXVXCXCXHXKXJX^._ / / ^ ^ ^ ^ / / / / / / / / / / / / / ",
"/ / / / / / / / / ^ ^ ^ / / ^ ^ ^ / / / / / Q.ZXFXAXjXhXpX>X;X;X.X{.A.A.V.V.V.F.K.1XLXPXLXfX%XB.N.$.o.b r 9 y y 1 < $ $ $ $ $ & 2 * & $ $ : 3 j O.q.&.a 5 - # + + + o o X . . . . . . . . . .         . . . . .                 . . . . . . . . . . . . . X o o o o + + # : > 5 5 0 6 5 5 6 6 7 > > 8 1 1 7 0 o.-...o.9.8.r.I.y.t.I.).'.*XrXrXyXyXyXyXyXNXNXCXCXHXKXKX9X' U E ^ ^ ^ ^ / / / / / / / / / / / / / ",
"/ / / / / / / / / ^ ^ J Z D E ^ ^ / / / / / ^.ZXSXlXjXhXdX>X;X-X|.{.A.C.V.V.V.F.K.1XLXPXPXfX%XB.e.-. .c r r h u < * * $ $ $ * 2 & < - & $ : 8 j =.q.j 6 : # # + + o o X X . . . . .                   . . . .           . . .   . . . . .   . . . . . . . + + X o o + + # - i 6 5 0 6 6 6 0 a d > > , , , 1 8 e +.....=.7.8.r.y.t.I.).'.*XrXrXrXyXyXyXyXvXNXVXCXHXKXKXwX] C H / / / / / / / / / / / / / / / / / ",
"/ / / / / / / / / ^ ^ R H K / ^ ^ / / / / ` /.FXAXlXhXhXiX>X;X-X+X+XA.v.v.v.v.D.F.<XLXPXPXfX<XB.9.+. .z r y b u ; 2 2 & $ $ & & & - - & - : 8 j =...w : - # + $ + o X X . . . . . .                   . . . . .         . . . . . . . . . . . . . . . . . . X X X o o + + & i 8 6 6 6 0 0 e j j 6 > , , , 1 7 q k  .| O.5.8.r.y.y.I.I._.*XsXrXrXyXyXyXgXgXNXVXCXHXKXKXMX} E / / / / / / / / / / / / / / / / / / ",
"/ / / / / / / / / / ^ ^ ^ ^ ^ / / / / / / ' 0XFXAXjXhXhXiX>X-X-X{.{.Z.g.a.z.v.M.D.oXDXKXKXgXoXN.9.+. .x h z c 1 3 2 * $ $ & * $ $ & & & : : 0 k +.a 5 : & # # * @ X X X . . . . . .                   . . . . .         . . . . . . . . . . . . . . . . . . . . X o o + + = - > a a 0 0 a j k l 0 5 < 8 3 7 1 q z k k o.=.7.t.N.y.t.I._.*XsXrXrXyXyXyXgXgXNXCXCXCXKXKXJX!./ ^ / / / / / / / / / / / / / / / / / ",
"/ / / / / / / / / / / / / / / / / / / / / [ qXFXAXlXhXdXuX:X-X-X{.].C.g.a.v.c.M.F.oXBXGXHXBX*XN.w.+. . .X.z u 1 2 < & * * * & & $ & & 2 < > 0 k k 0 s 2 # + + + o X X . . . . . .                     .   . .           . . . .           . . . . . . . . . . . X o o + # - & > 8 8 0 p l o.&.k a 8 1 1 < 1 1 t b x x  .+.7.y.N.y.t.I._.*XsXrXrXrXgXyXgXgXNXBXCXCXKXKXKX/.` / / / / / / / / / / / / / / / / / / ",
"/ / / / / / / / / / / / / / / / / / / / / } wXFXAXlXhXiXuX:X-X-X{.Z.C.V.v.z.z.m.M.B.gXGXGXCX*X_.t.=.X.@.x g y < < ; & & $ - & & - & & : > i a k w 5 t < # + + o o X X . . .                                                               . . . . . . . . . . . X o o + + # = 3 5 d a a ..=.9...a 0 1 > 8 9 1 1 q a z x +.5.y.B.N.y.N._.2X2X2XrXrXrXgXgXgXgXBXCXDXKXKXKX9X' / / / / / / / / / / / / / / / / / / ",
"I / / / / / / / / / / / / / / / / / / / / } nXSXSXjXjXdXuX:X-X.X{.Z.C.v.a.p.l.l.n.B.*XVXGXHXeX_.y.5.$.$.@.z h 7 < 1 2 & & & < < & & & : : 9 a j 0 > - # + + + o o X X . . .                                                               . . . . . . . . . X . X X o + + # = : 6 a a j ..9.w...a 0 3 < s s 1 1 q r a x +.5.t.B.N.y.N._.sX2X2X2XsXgXgXgXgXgXBXCXDXKXKXKX0X' / / / / J I I R / / / / / / / / / / ",
"A / / ^ / / / / / / / / / / / / / / / / / } MXSXSXlXjXiXuX:X-X X[.Z.h.g.a.p.l.l.b.B._.cXGXHXyX_.y.w.=.$.%.z h y < < < $ & - < & ; < : : > > 6 p 5 : % # # + + o o X X . . . . . . .                   . . .                       . . .   . . . . . . . . . X X X X o + + # = : 8 0 a ..-.r.q...a 0 3 > 1 7 1 t d q a x +.w.t.oX_.N.B.*XfX2X2X2XsXsXsXgXgXgXBXCXDXKXKXKX0X' / / ^ / H F H I / / / / / / / / / / ",
"/ / / / / / / / / / / / / / / / / / / / / W.ZXSXSXlXhXhXuX:X-X X].].h.g.a.p.p.l.b.B._.tXbXGXVX5X).r.9.$.X.z g y 1 < < & $ & & & ; : : : > 8 6 w 8 ; - # # + + o o X X . . . . . . . .                 . . . . .         . . . . . . . . . . . . . . . . . . . X X X + 4 - # = < i a l =.t.I.q.l a 8 3 < < 1 1 y d r a x +.w.t.B.N.N._.*XfX2X2X2XsXsXsXsX<XgXBXCXDXKXKXKX/.` / / ^ ^ / ^ ^ ^ ^ / / / / / / / / / ",
"^ ^ / / / / / / / / / / / / / / / / / / / W.ZXSXSXlXhXdXuX:X;XXX{.].h.g.g.p.p.1.l.b.B.'.bXbXbX5X`.y.w.9.-. .z y 7 1 1 < & & - & & : : : > 0 6 a 8 ; % # # + + o o X . . . . . . . . .                 . . . . .         . . . . . . . . . . . . . . . . . . X X X X + 2 $ # = : i j l =.t.).-.l p 8 3 < 1 1 1 7 q r j  .+.7.N._.N.B.oXsX2X<X2X2X2XsXsXsXgXgXBXCXCXKXKXJX^._ / / / / / / / / / / / / / / / / / / ",
"/ / / / / / / / / ^ ^ ^ ^ / / / / / / / / W.ZXSXSXlXkXdXuX:X-X-X{.].h.g.g.p.p.1.1.b.M._.7XbXbX6X4X`.I.t.9.X.z q 7 7 u 9 & - - : : : : > > 5 6 p > : % = # + + + o X . . . . . . . .                   . . . . .         . . . . . . . . . . . . . . . . . . + X X o + + # $ < 3 i a ..=.).I.=.l a q 3 < q 7 > 1 q e j  .9.w.N.B.B.D.%XfX<X<X2X2X2XsXgXgXgXgXBXCXCXKXKXMXW./ / / / / / / / / / / / / / / ^ ^ ^ ^ ",
"/ / / / / / / / / ^ ^ ^ ^ / / / / / / / / W.ZXSXSXlXjXdXuX:X-X.X{.].h.g.a.p.p.%.1.4.b.N.5XbXbX6X6X5X'.y.9.+.x q q 0 q 2 : & : < : : : > > > > 5 , ; - # # + + + o X X . . . . . .                     . . . . .         . . . . . . . . . . . . . . . . . . X X o o + + + = - 3 i l &.q.'.P.&.a z u < 2 y 9 1 7 r r j X.t.t.B.B.B.F.1XfX%X<X<X2X2XsXsXgXgXgXBXBXjXZXKXMX} / / / / / / / / / / / / / / / ^ ^ ^ ^ ",
"/ / / / / / / / / ^ R R E ^ / / / / / / / Q.ZXSXSXzXjXdXpX:X-X.X{.].C.g.a.p.p.%.1.1.e.N.).7XbX6X6X7X`.I.w.5.o.a y t 9 1 2 < : ; : : > > > > > > i i ; % # # + + + X X X . . . . . .                   . . . .           . . . . . . . . . . . . . . . . . X X o o + + + # = : 8 a l =.I.'.q.l i 8 3 : 9 t 1 < 7 0 r k +.9.e.B.D.F.#X3X1X%X<X<X2X2XsXsXsXgXgXBXBXDXDXKXmX{ ^ / / / / / / / / / / / / / / ^ ^ E R ",
"/ / / / / / / / / E A G J Y ^ ^ ^ / / / / Q.ZXSXSXzXjXhXpX:X:X-X{.].Z.h.a.a.p.%.%.1.4.e.y.4XbX7XT.7X4XI.r.w.$.x r q 8 7 1 9 t < : : > > > > 6 0 s s 3 % # # # + + o X X . . . . . . . .     .         . . .             . . . .         . . . . . . . . . @ @ + o + + + = * 2 i a ..q.`.).&.a i 3 > 2 9 9 1 < 2 8 d X.+.<.e.B.oXF.#X3X%X#X+X<X2X2X2XsXsXgXgXAXDXDXDXKX0X' ^ / / / / / / / / / / / / / / / / I A ",
"/ / / / / / / / / / / / / ^ ^ ^ ^ / / / / W.ZXFXSXzXjXhXpX>X:X-X{.].Z.j.g.a.p.%.%.%.2.e.N.`.7XbXT.6XbX`.r.t.0.$.z r q t t u n 9 : > 1 5 > > 8 0 > 3 i - # # # + + o o X X . . . . . . . .                                                   . . . . . . . X + + o + # # & i s i l =.I.`.q.l i 3 < : 3 9 : < < 1 r c ,.<.9.b.F.K.K.1X1XOX#X%X<X2X2X2XsXsXgXgXDXDXDXDXKX/.L E ^ / / / / / / / / / / / / / / ^ ^ / ",
"/ / / / / / / / / / / / / / / / / / / / / } nXFXSXzXjXhXpX>X:X-X{.[.].j.g.a.p.p.%.%.1.4.t.y.`.bX7X6X7XxXU.y.y.0.x z r y d 7 7 1 : 1 8 5 5 5 8 5 8 > : - % # # + + o + + X X X . . . . . . . . .                                           . . . . . . X X X X + + + - < - 3 i a &.q.`.P...p 3 < < < < < : < < q r  .+.:.w.b.D.J.#X3X1X#XOX+X<X<X2X2XsXsXgXgXBXAXDXDXDXQ.H E / / / / / / / / / / / / / / / / / / ",
"^ ^ ^ ^ / / / / / / / / / / / / / / / / / [ qXFXSXSXzXjXpXuX:X-X X{.].h.h.g.p.p.%.%.%.2.4.e.I.5XbXT.T.bX5X`.t.t.$.x z r r q q 7 1 ; > > 5 5 5 5 > > > : - % # # + + o + o X X X . . . . . . . . .     . . . . . . . . .   . . . .       . . . . . X . X o X $ + + + = = : i i a =.P.P.&.a 8 : < < 2 9 9 3 < 3 r x $.+.<.4.M.F.K.1X3X<X#XOX+X<X<X2X2XsXgXhXgXAXAXDXDXZXW./ ^ ^ ^ ^ ^ ^ / / / / / / / / / / / / / ",
"^ ^ ^ ^ / / / / / / / / / / / / / / / / / _ ^.SXSXSXzXjXdXpX>X;X.X{.].Z.h.j.f.p.#.#.%.1.b.b.t.I.xX7XY.7XVX`.r.t.0.o.z d d d d q 1 1 > 7 7 7 5 8 > > 3 s 3 % = # = = + + o X X X . . . . . . . . . .   . . . . . . . . . . . . . . . . . . . . . X X X + @ + + + + # $ : 8 s a ..q.q.&.a 3 3 < < < 2 1 1 2 < 7 g $.$.:.3.b.D.K.&X3X%X#XOXOX+X<X<X<X2XsXdXhXAXAXAXDXDXwX{ ^ / / ^ ^ ^ ^ / / / / / / / / / / / / / ",
"/ / / ^ / / / / / / / / / / / / / / / / / / } nXFXSXzXjXhXpXuX;X-X{.].].j.g.g.p.#.#.f.l.l.e.e.t.`.bX6X6XxXtX`.t.t.0.@.c @.p.@.y 9 1 1 7 8 7 5 > > 5 > i i i - % # - # + + o o X X . . . . . . . . .   . . . . . . . . . . . . . . . . . . . . . X X X * * + + + - s < > > 6 l q.-.l i < 3 9 q 1 < : ; ; : 7 e  .$.<.<.e.M.J.$X3X1XF.F.OXOX+X<X<X<X2XsXdXlXAXAXAXDXDX/.' / / / / / / / / / / / / / / / / / / / / ",
"T T E ^ / / / / / / / / / / / / / / / / / / _ ^.SXSXAXjXjXdXuX:X;X.X{.].Z.j.g.a.p.#.#.%.1.2.e.t.).5XbX6X4XxXtX).N.B.c.@.#.#.b d y 9 > 1 1 9 i > > 5 8 > 3 i : = = # # + + + o X X X X . . . . . . . . . . . . . . . . . . . . . . . . . . . . . X X o o o 4 s # < s < : 6 ..q.-.j i : : < d d < < : : 1 1 q g X.$.<.e.M.S.K.1X1XK.F.F.OX+X<X<X<X2X2XsXdXgXlXBXAXDXZXQ./ / / / / / / / / / / / / / / / / / / / / ",
"V Z T / / / / / / / / / / / / / / / / / / / ^ { 0XSXAXlXjXdXuX>X;X.X{.].].j.g.f.p.i.#.%.%.1.2.e.t.).5XbX7X4XtX`.)._.B.l.@.b h d y t 7 1 1 1 8 > > > 8 0 > > i 3 4 = # = + + + o o o X X X . . . . . . . . . . . . . . @ + . . . . . . X X X X X X o + + + * s & : : : 0 k o...a 3 2 3 : 9 r q < ; : < 7 r x $.,.<.4.b.M.J.1X3X$XF.F.OXOX+X<X<X<X2XsXsXhXlXlXAXAXDX0X[ / / / / / / / / / / / / / / / / / / / / / ",
"^ ^ ^ ^ / / / / ^ ^ ^ ^ ^ / / / / / / / / / ^ / E.nXSXzXlXkXuX>X:X-X X{.].Z.j.j.f.i.#.#.%.%.%.2.w.t.I.5X7X6X5XeX`._.D.M.%.@.b c u h h 9 1 1 > 1 8 > 5 w w 5 1 : : - & = # + + + + + o o X X X X . . . . . . . . . . . . . . . . . . X X o o o o o + + + # # 2 < 9 q a z f 6 > : - 3 s 0 h h 1 - - < 1 e x $.2.2.N.m.m.S.&X3X3XK.F.F.OX1X%X+X<X<X2XsXsXlXAXlXAXDXDX^._ / / / / / / / / / ^ ^ / / / ^ / / / / / / ",
"^ ^ ^ ^ / / / / / J F Z U / / / / / / / / / ^ ^ _ ~.SXSXlXjXdXuX>X;X;X-X{.].Z.Z.g.a.a.i.#.#.%.%.2.e.t.I.7X7X7X5XeX'._.oXv.#.@.c b b b d 1 1 1 1 7 1 > > 8 0 6 > : - < 3 # # # # + + + + o o + @ X . . . . . . . . . X . . X X X X X X X o $ + + + + * 2 $ # 2 i 6 e e 5 : - - - = < 3 y h q - : < < e x X.$.<.2.b.m.S.K.3X3X$XJ.F.OX,X,X<X<X<X2X2XsXdXkXlXlXAXDXZXW./ / / / / / / / / ^ ^ / I F H / / / / / / / ",
"^ ^ ^ / / / / / / E T R ^ / / / / / / / / / / ^ ^ { qXSXzXjXkXdXuX:X;X.X{.].Z.j.j.g.p.i.#.#.#.%.%.2.e.t.`.7X7X7XtX*X_._.oXc.#.n b b b h t 9 1 9 M 9 > > 3 8 0 w 0 > 2 i & - # # # + + + + + o o o o X X X X X o X X X o X X X X o o o o $ u * + + # < 9 ; - > 8 a c 0 : : - = - < < < 9 1 - - 2 1 e  .X.+.<.<.4.n.m.J.1X3X$XJ.G.K.<XhX,X+X<X<X:X2XsXkXhXlXAXAXDXqX{ / / / / / / / / / ^ ^ / T H J / / / / / / / ",
"/ / / / / / / / / / / / / / / / / / ^ ^ ^ / / / / / W.ZXSXjXjXhXpXuX:XXX X{.].Z.j.g.s.u.#.#.%.#.%.%.2.e.y.'.xXbXxXrX*X*X*X%Xv.%.@.b n b y t q 1 9 1 i 9 : 3 < 8 w 0 > : : < & # $ # + + + + + + + + + o o o o + o o o o o o o o + + + o + * + + + # % & & - : 5 d d : < 2 - 9 9 < : < 3 : : 1 q g o.+.+.:.<.3.4.m.S.&XfX&XJ.G.G.#X3X3X+X+X<X:X2XsXdXkXhXlXAXAXDX^.` / / / / / / / / / ^ ^ ^ ^ / / ^ ^ / / / / / ",
"/ / / / / / / / / / / / / / / / / / ^ ^ ^ / / / / / ` ~.SXzXjXhXiXuX>X;XXX X{.].j.j.d.u.i.i.p.#.%.%.%.2.e.y.`.5XbXbXyXrXsXfX%Xv.%.@.@.#.n u d 9 1 1 2 < : : : : > 0 e a 7 < - % # $ # # + + + + # + + + + + + + + + + + = + + + + + # + + # - 9 : % : : : 9 : : : & & 1 1 1 7 < - - : < < 8 e  .X.+.+.$.<.3.4.m.S.&XzX3XH.G.G.H.1X3X+X+X+X=X2X>XsXkXhXlXlXAXDXqX} / / / / / / / / / / ^ ^ ^ ^ ^ ^ ^ ^ / / / / / ",
"/ / / / / / / / / / / / / / / / / / ^ ^ ^ / / / / / / { 8XSXlXjXaXiXuX:X;X.X{.].].Z.j.d.u.i.i.#.#.%.%.%.2.w.t.).4XxXxXyXsXdXkX1XA.f.#.#.#.h d y t 1 2 t 3 : : : : < 8 6 0 0 0 > - = & $ # # # # # # + + + + + + + + + + 2 - + + + + # & - & ; 7 : % & : < : & & - 9 s y 1 : - - = - : 1 q z X.$.+.+.<.e.4.n.M.D.1XzXfX&XH.G.H.1X3X+X+X+X<X<X2XuXiXdXkXlXAXAXZXQ._ / / / ^ ^ / / / / / / / / / / / / / / / / / / ",
"/ / / ^ / / / / / ^ ^ ^ ^ / I A T / ^ ^ ^ / / / / / ^ / W.aXSXjXhXhXpX>X:X-X X{.].].Z.h.g.d.u.#.#.#.#.%.$.,.w.w.I.`.xXxXNXkXzXzXfXoXg.i.#.@.b b n y 9 s i t < : : - - : : 5 e j j 0 > : < ; & = = # # # # # # # # # # # $ $ & & # # # % & % % & & & & & & % & 2 y y 9 : - - : : : : 7 y @.X.+.+.+.:.3.e.n.M.F.<XSXkX1X$XH.#X3X3X@XOX+X=X<X2X>XdXhXhXlXlXAXAX/.' / / / ^ ^ / / / / / / / / / / / / / / / / / / / ",
"J J / ^ ^ / / / / ^ ^ ^ ^ / J H I / ^ ^ ^ / / / / / / ^ ` ~.SXzXjXdXpXuX>X;X-X X{.].Z.C.h.g.u.u.i.i.#.#.%.$.,.w.w.I.`.5XxXNXzXSXSXfXOXv.f.#.@.b v u t t s b 2 : : < s 2 & - : 5 w k k k j 6 > > < ; & & & & $ $ $ = $ $ $ & - : : & % & - & % & - & : & & 1 9 9 1 : & & - : 8 t q q r x o.o.+.+.<.e.e.M.D.K.1XSXSX3X&XH.&XfX3X@XOXOX+X<X>XuXdXdXdXkXlXAXSXnX} / / / / E E / / / / / / / / / / / / / / / / / / / ",
"A H / ^ ^ / / / / / / / / / / / / / ^ / / / / / / / ^ ^ / [ 8XSXzXjXdXpXuX>X;X-X X{.].Z.Z.h.g.d.u.u.#.#.#.%.$.,.3.e.y.`.4X5XvXzXSXSXfXOXv.f.#.@.b n n d n u 2 < < < i < & & - - : > 0 e k k f w w w 6 > > : : : : : 3 i : & & & : & < 3 : & - : - - - & & < : & & & & < > > 8 z x j j @.$.$.9.<.e.b.m.D.#X3XFXFXkX1X$X1XkX1X@XOXOX+X=X<X,X>XdXdXkXlXlXAXAX~.` / / / T Z A R / / / / / / / / / / / / / / / / / / ",
"^ ^ ^ / / / / / / / / / / / / / / / / / / / / / / / / / / / E.nXSXjXjXhXiXuX>X;X-X X{.{.{.Z.h.g.g.p.i.f.%.#.@.$.,.2.w.t.I.`.5XtXgXzXSXfX#XA.c.%.#.#.n u d t 9 3 2 3 2 t < & = & & & & - : 5 w e w f z 6 6 6 6 5 > s i 1 : & & & & & : < & % : < - : - & & & & & : > 7 r r 0 0 e f j  .+.<.:.3.e.n.M.D.&XfXLXLXzXfX1XfXkX1XOXOXOX+X=X=X>XiXuXsXkXlXlXSXSXqX{ ^ / ^ ^ / E / ^ ^ / / / / / / / / / / / / / / / / / ",
"^ ^ ^ / / / / / / / / / / / / / / / / / / / / / / / / / / / ` ~.ZXSXjXjXaXiXuX>X;X.X=X|.[.Z.C.h.h.g.p.i.i.#.%.%.$.$.<.w.w.t.`.4X4XeXsXfX3X&XH.A.c.%.@.b h u u d 9 3 3 t < - - & - & & & & - : : : : : < 1 q 5 > > i s 3 & & - s i % % % % % % % % & & & & - : 7 7 0 0 0 q 0 w j o.X.+.+.:.w.e.n.S.J.&XSXPXPXFXkXfXzXfX@XH.OXOX+X=X=X,X>XsXsXdXkXlXlXSXZXQ./ / ^ ^ ^ ^ / / / / / / / / / / / / / / / / / / / / / ",
"/ / / ^ / ^ ^ / / / / / / / / / / / / / / / / / / / / / / / ^ ] 8XSXAXjXhXaXiXuX>X;X-X-X-X{.Z.C.h.h.C.a.i.i.f.%.#.%.$.,.3.w.r.I.`.`.'.*X2X3X1X$XG.v.%.#.@.b n v t 9 3 < < < : - i i & & 2 < : & & - : s 2 : ; & : : : : : - & < : % % & & % & % % = - : > 1 > > > 7 0 e f j  .o.+.+.<.0.e.b.M.F.K.3XFXPXPXLXSXSXSX3X$XH.OX+X+X=X;X,X,X>XdXdXkXlXlXSXSX/.` / / / / / / / / / / / / / / / / / / / / / / / / / / / ",
"/ / / / / ^ ^ R R ^ / / / / / / / / / / / / / / / / / / / / / J P nXSXzXjXhXaXpXuX>X;X.X.X|.[.A.C.k.h.g.u.u.i.#.#.%.%.$.,.,.w.e.).`.I.).'.*X<X1X$XF.V.v.f.#.#.b u u d u t 3 < < 2 3 ; : t < & & & & $ * & % % & - : % & & & & % % & & & - - = - 1 7 r e e 5 > 7 e f k  .o.o.o.+.:.<.3.e.n.S.F.&XfXLXPXPXPXLXLXSX3X$XH.H.OX+X=X,X>X>XdXdXdXkXlXlXSXSXnX} / / / / / / / / / / / / / / / ^ ^ ^ ^ ^ ^ ^ ^ / / / / / ",
"/ / / / / / E A H Y / / / / / / / / / / / / / / / / / / / / / U R ~.ZXSXzXjXhXaXiXuX>X;X.X.X|.[.A.Z.h.h.g.d.d.i.#.#.#.@.%.$.,.9.e.N._.y.t.).'.oX%X$XK.J.M.l.%.@.b b @.@.b y q 8 7 7 1 1 1 : & & - & & & & & - % % % & & : : & & = = - : : 1 > q y f e z e 0 e f k  . .o.o.+.+.:.3.e.b.m.D.K.1XSXPXPXPXPXPXLXzX3X@XH.OX+X+X=X=X,X>XdXdXdXkXlXlXSXSXnXW./ / / / / / / / / / / / / / / / ^ ^ ^ / / / ^ ^ / / / / / ",
"/ / / / / / / / / / / / / / / / / / / / / / / ^ ^ / / / / / / / ^ ` ~.ZXSXSXjXhXaXiXuX>X;X.X.X+X{.].Z.C.k.C.h.p.i.#.#.@.@.@.$.$.,.0.b.B.B.t.N._._.oX#X#XJ.S.c.%.%.@.@.b c z d r q q 7 1 < 1 : < 1 1 : : & < 2 & - - - : : : : : : : : 1 7 q 5 7 q 0 e f f j j k  .X.$.+.+.:.<.w.e.n.M.F.$X3XFXPXPXPXPXPXSXfX1X#XOXOX+X=X=X=X:X>XdXhXhXkXlXlXSXSXnXR.J R / / / / / / / / / / / / / / / ^ ^ E H F T / / / / / / / ",
"/ / / / / / / / / / / / / / / / / / / / / / ^ ^ ^ ^ / / / / / / / / ` ~.ZXSXSXjXhXhXpXuX>X:X;X.X|.|.|.Z.Z.k.g.g.p.u.#.#.#.@.@.%.%.1.c.b.M.M.n.e.N.B.oXoXoX#XJ.S.n.c.;.$.@.@.c z d y r r r q 7 1 7 7 1 7 1 1 1 : : : : : : : > > > > > > 5 7 0 e j j j k  . .o.o.+.+.:.:.<.w.e.b.n.D.#X1XzXPXPXPXPXPXFXfX1X$XH.H.OX+X+X=X-X:XuXiXdXkXkXlXlXSXSXqX} F D K / ^ / / / / / / / / / / / / / / ^ E H H R / ^ / / / / / ",
"/ / / / / / / / / / / / / / / / / / / / / / / / / / / / / / / / / / / ` ~.ZXSXSXjXhXhXdXuXiXuX;X-X.X|.[.Z.Z.k.h.g.s.u.#.#.#.#.#.@.@.%.$.,.b.M.M.n.b.B.oX_._.B.D.S.S.m.0.,.$.$.X.X.c c c x x h h h g r r 0 q 9 7 > > 1 7 8 8 8 8 0 0 0 e e a j j k  . .o.+.+.+.+.:.:.>.w.e.b.m.D.#X3XzXLXPXPXPXPXLXzX1XH.H.H.H.OX+X=X=X;X>XdXdXiXdXkXlXlXAXSX8X} ^ / ^ ^ ^ / / / / / / / / / / / / / / / / ^ / / / ^ ^ / / / / / ",
"/ / / / / / / / / / / / / / / / / / / / / / / E A A E ^ ^ ^ / / / / / / ' /.SXSXSXjXjXhXdXpXuX>X-X-X=X|.{.].Z.k.h.g.d.u.i.s.i.#.n @.@.@.@.$.1.n.S.m.e.e.b.B.B.b.b.n.m.m.n.b.2.2.,.$.$.$.$.$.$.$.$.@.X. . .X. .x f f f f f j j j j j j j k k  ...o.o.=.9.5.5.9.w.w.w.e.b.B.F.%X3XSXPXPXLXLXSXzXkX3X%XH.G.H.OX+X+X=X=X-X,X3XdXdXhXkXlXlXSXSXqX} / / / / / / / / / / / / / / / / / / / / / / / / / / / / / / / / / ",
"/ / / / / / / / / / / / / / / / / / / / / / / E I U ^ ^ ^ ^ / / / / / / ^ { qXFXSXSXjXjXhXdXpXuX>X;X-X=X=X+X[.Z.Z.k.h.g.s.u.i.#.m m #.@.@.@.@.$.1.l.x.4.4.4.4.4.4.4.e.e.n.M.m.m.n.x.4.2.4.n.b.b.x.1.$.$.$.$.$.$.X.X.o.o.o.o.o.o.o.o.+.+.+.+.+.:.:.5.5.w.w.w.e.b.b.B.oX2XkXSXLXPXLXzXfX3XfX3X&XH.G.G.H.}.{.=X-X=X=X-X,X,X3XdXhXjXlXAXSXSXqX} / / / / / / / / / / / / / / / / / / / / / / / / / / / / / / / / / / ",
"/ / / / / / / I J I / ^ / / / / / / / / / / ^ ^ / / / ^ ^ / / / / / / ^ / / } nXFXSXSXjXjXhXhXiXuX>XuXhXuX,X,X|.].Z.C.k.h.g.s.u.#.m n n n b b @.@.$.$.,.2.2.3.3.3.4.e.4.4.4.4.x.m.M.M.M.m.M.m.m.m.n.e.e.e.e.e.b.b.m.m.b.b.e.e.e.w.w.w.w.w.w.w.e.e.b.N.B.B._.oX*XsXzXSXFXFXSXkX3X1X&X&X1X#XG.G.G.A.A.|.+X+X=X=X;X:X>XuXdXdXjXjXlXSXSXSXqX} / / / / / / / / / / / / / / / / / / / / / / / / / / / / / / / / / / / ",
"/ / / / / ^ / J F J ^ ^ / / / / / / / / / / ^ ^ ^ ^ / / / / / / / / / ^ ^ ^ _ Q.nXFXSXSXSXjXjXhXdXpXpXuX>X,X;X=X|.[.[.A.Z.k.h.g.u.i.m m n n n n @.@.@.X.@.$.$.$.<.2.e.3.4.4.4.4.n.M.m.m.S.S.S.J.J.K.K.K.F.oXoXoX%X<X1X1X<X<X2X*X*X*X*X*X*X*X2X2XsXsXfXkXzXzXzXfX3X3X3X<X%X#XK.K.1X1X#XG.S.V.A.A.}.|.+X=X=X-X;X:XuXiXdXjXjXlXlXSXSXSXqX} / / / / / / / / / / / / / / / ^ J Z J / ^ ^ ^ / / / / / / / / / / / / / ",
"/ / / / ^ ^ / ^ ^ / ^ ^ / / / / / / / / / / ^ ^ ^ ^ / / / / / / / / / _ F F J ` ~.ZXFXFXSXSXjXjXhXhXdXpX>X:X;X=X>X;X|..X].Z.Z.k.g.d.u.i.m m n n n @.@.@.@.@.@.$.$.$.$.<.,.e.3.3.4.4.4.n.B.M.M.M.M.D.F.K.#X$X1X3X3XfXkXzXzXSXSXFXFXLXLXLXLXFXFXzXkXfX3X3X1X&X$X%XK.D.D.M.D.K.J.#X#XF.V.A.A.A.[.+X+X+X=X=X;X:X>XuXiXhXlXjXlXAXSXSXSX8X} / ^ / / / / / / / / / / / / / ^ ^ U T R ^ ^ ^ ^ / / / / / / / / / / / / / ",
"/ / / / ^ / / ^ ^ / / / ^ / / / / / / / / / ^ ^ ^ ^ / / / / / / / / / / T R E / ' /.FXFXFXSXSXjXjXjXhXhXpXuX>X:X:X;X.X|.{.[.[.].Z.C.h.d.s.u.#.m #.#.@.n #.#.@.@.@.@.X.X.$.$.$.$.<.<.<.3.e.4.e.b.m.B.B.B.D.F.K.%X%X#X#X#X%X%X1X3X3X3X3X3X3X3X1X%X#XF.F.F.D.D.M.B.M.D.S.D.F.F.S.S.G.G.A.A.[.}.+X+X=X=X-X>XiXuXuXiXhXkXlXSXSXSXSXSX/.[ ^ / / / / / / / / / / / / / / / / ^ / / / / / / / / / / / / / / / / / / / / ",
"/ / / / / / / / / / / / / / / / / / / / / / ^ ^ ^ ^ ^ ^ ^ ^ / / / / / / / / / / / { qXLXFXFXFXSXSXjXjXhXhXpXpXuX>XuX;X.X.X.X{.[.[.|.[.C.k.g.s.u.u.u.m m #.#.#.#.#.@. . . .X.@.@.$.$.$.<.<.<.<.3.e.e.4.b.n.m.B.B.D.D.D.B.D.D.F.F.D.D.D.F.oXF.D.D.M.n.m.m.m.m.m.M.M.S.V.S.V.V.V.V.A.A.[.{.+X+X=X=X;X:X:X>XuXiXlXhXlXlXSXSXFXFXZX~.' / / / / / ^ ^ ^ ^ ^ ^ ^ ^ / / / / / / / / / / / / / / / / / / / / / / / / / / ",
"/ / / / / / / / / / / / / / / / / / / / / / ^ ^ ^ ^ / ^ ^ ^ / / / / / / / / / / / / E.nXLXFXFXFXSXSXAXjXjXhXhXpXpXiX>X:X;X;X.X.X|.{.[.Z.Z.k.h.g.g.s.u.m m #.#.m n n n v v b b c  .X.@.$.$.$.$.$.2.2.3.b.b.b.e.x.b.b.b.b.n.m.n.n.n.n.b.n.m.m.m.x.x.x.x.m.M.v.v.v.v.V.V.V.V.A.[.[.[.|.|.|.=X-X=X;X>XuXuXiXiXhXjXlXAXSXSXFXFXnX!.` / / / / / / ^ ^ ^ ^ ^ ^ ^ ^ / / / / / / / / / / / / / / / / / / / / / / / / / / ",
"/ / / / / / / / / / / / / / / / / / / / / / / ^ / R K R / ^ ^ / / / / / / / / / / / _ W.MXLXLXFXFXFXSXSXjXjXhXhXhXdXpX>X:X:X;X>X;X.X=X{.[.].Z.Z.k.k.g.d.s.u.u.#.m m m n v v v v b b b @.@.@.@.@.@.@.$.$.%.%.,.,.,.1.1.1.1.4.4.1.x.x.l.l.l.l.l.l.l.l.z.v.v.v.v.V.A.A.A.}.}.=X|.{.|.|..X-X-X;X:X>XuXuXdXhXjXlXAXSXSXFXFXFXqXE._ / / / / / / / ^ ^ ^ / E E E ^ / / / / / / / / / / / / / / / / / / / / / / / / / / ",
"/ / / / / / / / / / / / / / / / / / / / / / ^ ^ / J Z J / ^ / / / / / / / / / / / / / _ W.wXLXLXLXFXFXFXSXSXjXjXjXhXdXpX,X>X>X>X:X>X>X=X|.{.[.].Z.Z.C.k.h.g.d.s.u.u.u.#.m m m m m n v v n n n n @.@.#.%.#.@.@.@.@.%.%.%.1.l.1.1.p.l.p.p.p.p.v.v.v.v.v.v.v.C.C.C.A.A.[.{.=X-X=X=X=X-X;X;X:X>XuXuXdXhXhXjXlXSXSXFXFXFXFXqXE./ / / / / / / / / ^ ^ ^ / G Z A / / / / / / / / / / / / / / / / / / / / / / / / / / / ",
"/ / / / / / / / / / / / / / / / / / / / / / ^ ^ ^ / / / ^ / / / / / / / / / / / / / / / / } /.MXLXLXFXFXFXFXSXSXzXjXhXdXdXpXpXuX>X>X>X;X;X.X.X|.{.[.].Z.Z.Z.k.h.h.g.g.d.d.u.u.u.i.m m m m m m m m #.#.#.#.#.#.#.%.p.f.(.f.f.p.p.p.v.g.a.a.v.C.v.v.v.C.C.C.A.A.].[.{.{.|.=X-X-X;X>X:X>XuXuXuXdXhXjXjXlXAXSXFXFXFXFXMX/.} _ / / / / / / / / / ^ ^ ^ ^ E E E ^ / / / / / / / / / / / / / / / / / / / / / / / / / / ",
"/ / / / / / / / / / / / / / / / / / / / / / ^ ^ ^ ^ / / / / / / / / / / / / / / / / / / / / ` } /.MXLXLXFXFXFXSXSXzXpXhXjXhXhXdXpXuXuX>X>X;X;X:X.X{.|.|.}.[.].Z.Z.Z.Z.Z.C.h.g.d.d.u.u.u.u.u.u.u.i.i.u.i.i.u.i.u.u.p.s.g.d.p.d.g.g.g.g.g.h.C.C.C.C.A.A.].{.{.{.{.{.|..X=X-X;X;X>XpXuXiXhXhXhXhXjXlXAXAXFXFXFXLXLXqXW.` / / / / / / / / / / / ^ ^ ^ ^ / / / / / / / / / / / / / / / / / / / / / / / / / / / / / / ",
"/ / / / / / / / / / / / / / / / / / / / / / ^ ^ ^ ^ / / / / / ^ / / / ^ ^ ^ ^ / / / / / / / / ^ _ } /.MXLXLXFXFXFXSXzXSXzXjXjXhXhXiXiXiXuXuXuX:X;X;X-X=X+X+X|.|.{.[.{.|.[.Z.Z.Z.Z.k.k.h.g.g.g.g.g.g.d.g.g.g.g.g.h.g.g.g.h.h.C.Z.C.C.C.Z.Z.{.[.[.[.|.|.|.+X+X|.|..X=X;X;X:X>XuXuXiXiXhXhXjXlXAXAXSXFXFXFXLXLXMX^.[ ^ ^ ^ / / / / / / / / / / ^ ^ ^ / / / / / / / / / / / / / / / / / / / / / / / / / / / / / / / ",
"/ / / / / / / / / / / / / / / / / / / / / / / ^ ^ ^ / / / / / / I I / ^ ^ ^ ^ / / / / / / / / / ^ ^ _ E.0XJXLXLXFXFXFXFXSXSXSXjXjXjXhXhXaXaXhXuXuX:X:X;X-X,X;X=X.X.X|.|.|.|.|.{.{.[.[.[.[.[.].Z.Z.k.k.Z.Z.Z.k.Z.}.A.Z.Z.Z.Z.].].{.[.[.{.{.{.|.|.|.+X=X=X=X=X-X:XuX:X>XuXuXiXiXhXhXhXjXlXAXSXFXFXFXLXLXLXMX/.} _ ^ T T E ^ / / / / / / / / / ^ ^ ^ / / / / / / / / / / / / / / / / / / / / / / / / / / / / / / / ",
"/ / / ^ ^ ^ ^ ^ / / / / / / / / / ^ / H H H I / ^ / / ^ ^ ^ / R Z Z R / ^ ^ ^ / / / / / / / / / / ^ / ^ ' W.0XJXLXLXLXFXFXFXFXSXSXSXjXjXjXhXhXaXiXpXuXuX>XuX>X;X;X:X;X-X-X=X-X.X|..X=X-X,X+X|.-X{.[.[.[.[.].[.[.[.[.[.[.[.{.{.{..X.X|..X|.|.|.+X=X,X:X:X,X>X>XuXuXuXiXiXhXhXhXjXlXAXAXSXFXFXLXLXLXLXLXqXE.` ^ / R Z Z T / / / / / / / / / / / / / / / ^ ^ ^ / / / / / / / / / / / / / / / / ^ / / / / / / / / / ",
"^ / E R / ^ ^ ^ / / / / / / / / / ^ / I T I R ^ ^ / / ^ ^ ^ ^ ^ ^ / / ^ ^ ^ ^ / / / / / / / / / ^ ^ ^ / / / ` E./.MXLXLXLXLXFXFXFXFXSXSXSXjXjXjXhXhXaXaXiXpXuXuXuX>X>X:X:X:X>X>X-X;X:X>X>X=X=X:X.X|..XXX|.{.|..X.X|.|..X.X-X-X=X=X-X-X-X-X;X;X=X,X>X>XuXpXuXdXdXhXhXhXjXlXlXAXAXSXFXFXFXLXLXLXLXJXqX^.{ / / / / ^ / / ^ ^ / / / / / / / / / / / / / / ^ ^ ^ / / / / / / / / / / / / / / ^ ^ / R E / / / / / / / ",
"/ K B Z R ^ ^ ^ / / / / / / / / / / / / / ^ ^ / / / / ^ ^ ^ ^ ^ / / / ^ ^ ^ ^ / / / / / / / / / H Z H / / / / / ` { !.0XMXLXLXLXLXFXFXFXFXSXSXSXAXjXjXjXjXhXaXaXiXiXpXuXuXuXuXuX>X>X>X>X:X;X>X:X;X;X;X;X;X.X.XuX>X-X-X;X>X>X>X:X:X:X>X>X>XuXuXuXdXdXdXdXhXhXhXjXjXlXlXAXSXAXFXFXFXLXLXLXLXLXmX/.E.' _ / / / / / ^ ^ / / / / / / / / / / / / / / / H Z H / ^ / / / / / / / / / / / / / / ^ / F B H / ^ / / / / / ",
"^ ^ R E / / / / / / / / / / / / / / / / / / / / / / / / / / / / / / / / / / / / / / / / / / / / I I R / / / / / / / / ' } ^.qXMXLXLXLXLXLXFXFXFXFXSXSXSXSXAXjXjXjXjXhXhXaXiXiXiXpXiXiXuXuXuXuXuXuXuXuXuXuX;X;XuXuX>XuXuXuXuXdXdXpXuXdXdXdXdXhXhXhXjXhXlXlXlXAXSXSXSXFXFXFXFXLXLXLXLXLXJXqX^.} ` / / / / / / / / / / / / / / / / / / / / / / / / / I K R / ^ / / / / / / / / / / / / / / / / R E / / / / / / / / ",
"^ ^ ^ ^ / / / / / / / / / / / / / / / / / / / / / / / / / / / / / / / / / / / / / / / / / / / / / / ^ ^ / / / / / / / / ^ / ' } ^.qXJXLXLXLXLXLXLXFXFXFXFXFXSXSXSXSXSXlXjXjXjXjXjXhXhXhXhXhXhXhXhXaXhXhXiXdXdXdXdXhXZXjXhXhXhXjXhXkXjXjXjXjXlXlXlXAXAXSXSXFXFXFXFXFXLXLXLXLXLXLXJXwX/.E.' / / / / / / / / / / / / / / / / / / / / / / / / / / / / / ^ ^ ^ / / / / / / / / / / / / / / / / / / / / / / / / / / / ",
"/ / / / / / / / / / / / / / / / / / / / / / / / / / / / / / / / / / / / / / / / / / / / / / / / / / / / / / / / / / / / / / / ^ / ' E./.qXMXLXLXLXLXLXLXLXLXFXFXFXFXFXFXSXSXSXAXAXZXAXlXlXjXjXlXjXjXjXjXjXjXjXjXjXlXlXlXlXlXlXlXlXlXAXAXAXAXSXSXFXFXFXFXFXLXLXLXLXLXLXLXLXmX0X^.E.[ _ ^ / / / / / / / / / / / / / / / / / / / / / / / / / / / / / / / / / / / / / / / / / / / / / / / / / / / / / / / / / / / / ",
"/ / / / / / / / / ^ ^ ^ / ^ ^ / / / / / / / / / / / / / / / / / / / / ^ ^ ^ ^ ^ ^ ^ ^ / / / / / / / / / / / / / / / / ^ / / / ^ ^ ^ ^ _ ' } Q./.0XwXMXLXLXLXLXLXLXLXLXFXFXFXFXFXFXFXFXFXFXSXSXSXSXSXSXSXSXSXSXSXSXSXSXSXSXSXFXFXFXFXFXFXFXFXFXFXLXLXLXLXLXLXLXLXLXJXmX0X!.} ' / ^ / / / / / / / / / / / / / / / / / / / / ^ ^ ^ ^ / / / / / / / / / / / / / / / / / / / ^ ^ ^ / / / / / / / / / / / / / / / / / ",
"/ / / / / / / / / / ^ ^ / / / / / / / / / / / / / / / / / / / / / / / ^ ^ ^ ^ ^ ^ ^ ^ / / / / / / / / / / / / / / ^ ^ E T R / ^ / / / / / ^ / / ` [ } Q.^.0XwXJXJXLXLXLXLXLXLXLXLXLXLXFXFXFXFXFXFXFXFXFXFXFXFXFXFXFXFXFXFXFXFXFXLXLXLXLXLXLXLXLXLXLXLXMXwX0X9X^.!.E.{ ' / ^ ^ / / / / / / / / / / / / / / / / / / / / / / ^ ^ ^ ^ / / / / / / / / / / / / / / / / / / / E I R / / / / / / / / / / / / / / / / / ",
"/ / / / / / / / / ^ / K B Z E / ^ ^ / / / / / / / / / / / / / / / / ^ ^ R T I ^ ^ ^ ^ / / / / / / / / / / / / / / ^ / I Z J / ^ ^ / / / / / / / / / ^ ^ / ` [ P P Q./.wXMXJXLXLXLXLXLXLXLXLXLXLXLXLXLXLXLXLXLXLXLXLXLXLXLXLXLXLXLXLXJXMXmXwXwXqX/.^.W.{ [ ' _ / / ^ ^ / T B Z E ^ / / / / / / / / / / / / / / / / / / / / R T I ^ / / / / / / / / / / / / / / / / / ^ / T Z H ^ / / / / / / / / / / / / / / / / ",
"/ / / / / / / / / ^ ^ E T T / / / / / / / / / / / / / / / / / / / / / / J F H / ^ ^ ^ / / / / / / / / / / / / / / ^ ^ ^ ^ ^ ^ ^ ^ / / / / / / / / / ^ ^ ^ ^ ^ U I E _ [ { E.!.^./.9X0XwXmXnXmXwXmXmXmXmXnXmXwXwXwXwXwXqX0X9X/.^.!.W.} } { [ ' ' _ / / ^ / / / / / / / / E T T / / / / / / / / / / / / / / / / / / / / / / J F H E ^ ^ ^ ^ / / / / / / / / / / / / / / / / / / ^ ^ ^ ^ / / / / / / / / / / / / / ",
"/ / / / / / / / / ^ / / / ^ / / ^ / / / / / / / / / / / / / / / / / / ^ / / / ^ ^ ^ ^ / / / / / / / / / / / / / / ^ ^ ^ ^ ^ ^ ^ ^ / / / / / / / / / ^ ^ ^ ^ ^ ^ ^ ^ ^ ^ ^ ^ ^ / / _ ' ' [ [ [ [ [ [ [ [ [ [ ' ' ' ' ' ' ` _ _ / / ^ ^ ^ ^ ^ / / / / / / / / / / / / / / / / / / / / / / / / / / / / / / / / / / / / / / / / / / / ^ ^ ^ ^ / / / / / / / / / / / / / / / / / / ^ ^ ^ ^ / / / / / / / / / / / / / ",
"/ / / / / / / / / / / / ^ ^ / / / / / / / / ^ ^ / / / / / / / / / / / / / ^ ^ / / / / / / / / / / / / / / / / / / / / / / / / / / / / / ^ ^ / / / / / / / / / / / / / / / / / / ^ ^ ^ ^ ^ ^ ^ ^ / / / ^ ^ ^ / E A H E ^ ^ / / / / ^ ^ ^ ^ ^ ^ / / / / / / / / / / / / / / ^ ^ / / / / / / / / / / / / / / / / / / / / / / / ^ ^ / / / / / / / / / / / / / / / / / / / / / / / ^ ^ ^ ^ / / / / / / / / / / / / / ",
"^ ^ ^ / / / / / / / / / / / / / / / / / / / ^ / / / / / / / / / / / / / / / / / / / / / / / / / / / / / / / / / / / / / / / / / / / / / ^ ^ ^ ^ ^ ^ / / / / / / / / / / / / / ^ ^ ^ ^ / / / / / / / / / ^ ^ / / R R / ^ ^ / / / / ^ ^ ^ ^ ^ ^ / / / / / ^ ^ / / / / / / / / / / / / / / / / / / ^ / / / ^ ^ ^ ^ / / / / / / / / / / / / / / / / / / / / / / / / / / / / / / / / ^ ^ ^ ^ ^ ^ ^ / / / / / / / / / ",
"J ^ ^ / / / / / / / / / / / / / / / / / / / ^ ^ E E ^ / / / / / / / / / / / / / / / / / / / / / / / / / / / / / / / / / / / / / / J K J R / ^ ^ ^ ^ / / / / / / / / / / / / / ^ ^ ^ ^ ^ E E / / / / / / ^ ^ ^ ^ ^ ^ ^ / / / / / / ^ ^ ^ ^ ^ R H K J E / ^ ^ / / / / / / / / / / / / / / / / / ^ ^ ^ E / ^ ^ ^ ^ / / / / / / / / / / / / / / / / / / / / / / / / / / / / / / / / ^ / J J J U ^ / / / / / / / / / ",
"S / ^ ^ / / / / / / / / / / / / / / / / / / / _ H B H / ^ ^ / / / / / / / / / / / / / / ^ ^ ^ / / / / / / / / / / / / / / / / ^ / H H J T _ ^ ^ ^ ^ / / / / / / / / / / / / / ^ ^ ^ ^ R Z Z R / / / / / / / / / / / / / / / / / / / / / / / R A J J ^ ^ ^ ^ / / / / / / / / / / / / / / / / / / / J Z F / / / / / / / / / / / / / / / / / / / / / / ^ ^ / / / / / / / / / / / / / / J H J I / / / / / / / / / / ",
"^ ^ ^ ^ / / / / / / / / / / / / / / / / / / / ^ ^ Y E / ^ / / / / / / / / / / / / / / / ^ ^ / I Z Z E / / / / / / / / / / ^ ^ ^ ^ ^ ^ / ^ ^ ^ ^ ^ ^ / / / / / / / / / / / / / ^ ^ ^ ^ / E R ^ ^ / / / / / / / / / / / / / / / / / / / / / ^ ^ ^ ^ ^ ^ ^ ^ ^ / / / / / / / / / / / / / / / / / / ^ ^ E E / / / / / / / / / / / / / / / / / / ^ ^ T Z Z R / ^ / / / / / / / / / / / / / / / / / / / / / / / / / / ",
"^ ^ ^ ^ / / / / / / / / / / / / / / / / / / ^ / / ^ ^ ^ ^ / / / / / / / / / / / / / / / ^ ^ / R I R / / / / / / / / / / / ^ ^ ^ ^ ^ ^ ^ ^ ^ ^ ^ ^ / / / / / / / / / / / / / / ^ ^ ^ ^ / ^ ^ / / / / / / / / / / / / / / / / / / / / / / / / ^ ^ ^ ^ ^ ^ ^ ^ / / / / / / / / / / / / / / / / / / / ^ ^ ^ / / / / / / / / / / / / / / / / / / ^ / E J R / / ^ / / / / / / / / / / / / / ^ ^ ^ ^ / / / / / / / / / ",
"/ / / / / / / / / / / / / / ^ ^ ^ / / / / / / / / / / / / / / / / / / / / / / / / / / / / / / / / / / / / / / / / / / / / / / / / / / / / / / / / / / / / / / ^ ^ ^ / / / / / / / / / / / / / / / / / / / / / / / / / / / / / / / / / / / / / / / / / / / / / ^ ^ ^ / / / / / / / / / / / / / / / / / / / / / / / / / / / / / / / / / / / / / / / / / / / / / / / / / / / / / / / / / / / / / / / / / / / / / / ",
"/ / / / / / / / / ^ / ^ ^ / ^ ^ ^ / / / / / / / / / / / / / / / / / / / / / / / / / / / / / / / / / / / / / / / / / / / / / / / / / / / / / / / / / / / / / / / / / / / / / / / / / / / / / / / / / / / / / / / / / / / / / / / / / / / / / / / / / / / / / ^ ^ ^ ^ ^ ^ / ^ / / / / / / / / / / / / / / / / / / / / / / / / / / / / / / / / / / / / / / / / / / / / / / / / / / / / / / / / / / / / / / / / / / ",
"/ / / / / / / / / / J I U E ^ ^ ^ / / / / / / / / / / / / / / / / / / / / / / / / / / / / / / / / / / / / / / / / / / / / / / / / / / / / / / / / / / / / U J I R / / / / / / / / / / / / / / / / / / / / / / / / / / / / / / / / / / / / / / / / / / / / / ^ ^ ^ ^ / I I T E / / / / / / / / / / / / / / / / / / / / / / / / / / / / / / / / / / / / / / / / / / / / / / / / / / / / / / / / / / / / / / / R I ",
"/ / / / / / / / / E A H J Y ^ ^ ^ / / / / / / / / / / / / / / / / / / / ^ ^ / E ^ / / / / / / / / / / / / ^ ^ ^ ^ ^ / / ^ ^ ^ ^ ^ / / / / / / / / / / ^ / T A J I / / / / / / / / / / / / / / / / / / / / / / / / / / / / ^ ^ ^ / / ^ / / ^ / / / / / / / / ^ ^ ^ ^ / A H J R / / / / / / / / / / / / / / / / / / / / / ^ ^ / E E / ^ ^ / / / / / / / / / / ^ ^ ^ ^ ^ / / ^ ^ ^ ^ ^ ^ / / / / / / / / / / _ T H ",
"/ / / / / / / / / ^ ^ ^ / ^ ^ ^ ^ / / / / / / / / / / / / / / / / / / ^ ^ / F Z R ^ ^ ^ / / / / / / / / / ^ ^ ^ / I A A ^ ^ ^ ^ ^ / / / / / / / / / / / ^ / / / ^ ^ ^ / / / / / / / / / / / / / / / / / / / / / / / / / ^ ^ / H D T ^ ^ / / / / / / / / / / ^ ^ ^ ^ ^ ^ ^ ^ / / / / / / / / / / / / / / / / / / / / / / ^ ^ / F D R ^ ^ ^ / / / / / / / / / ^ ^ ^ / R F F E / ^ ^ ^ ^ / / / / / / / / / ^ ^ / / ",
"/ / / / / / / / / / / / ^ ^ / / / / / / / / / / / / / / / / / / / / / / / ^ E E ^ / / / / / / / / / / / / / / / / R H J / / / / / / / / / / / / / / / / / / ^ / / / / / / / / / / / / / / / / / / / / / / / / / / / / / / ^ / J H T ^ ^ / / / / / / / / / / / / / / / / ^ / / / / / / / / / / / / / / / / / / / / / / / / / / E E ^ ^ ^ / / / / / / / / / / / / / / R H H E ^ / / / / / / / / / / / / / ^ / / / ",
"^ ^ ^ ^ / / / / / / / / / / / / / / / / / / ^ ^ ^ ^ ^ ^ ^ ^ / / / / / / / / / / / / / / / / / / / / / / / / / / / / / / / / / / / / / / / / / / / / / / / / / / / / / / / / / / / / / / / / / / / / / / / / / / / / / / / / / / / / ^ ^ ^ ^ ^ ^ ^ ^ ^ ^ ^ ^ / / / / / / / / / / / / / / / / / / / / / / / / / / / / / / / / / / / / / / / / / / / / / / / / / / / / / / / ^ / / / / / / / / / / / / / / / / / / ",
"^ ^ ^ ^ / / / / / / / / / / / / / / / / / / ^ ^ ^ ^ ^ ^ ^ ^ / / / / / / / / / / / / / / / / / / / / / / / / / / / / / / / / / / / / / / / / / / / / / / / / / / / / / / / / / / / / / / / / / / / / / / / / / / / / / / / / / / / ^ ^ ^ ^ ^ ^ ^ ^ ^ ^ ^ ^ ^ / / / / / / / / / / / / / / / / / / / / / / / / / / / / / / / / / / / / / / / / / / / / / / / / / / / / / ^ ^ ^ / / / / / / / / / / / / / / / / / / ",
"/ / ^ ^ / / / / / / / / / / / / / / / / / / ^ ^ ^ / / ^ ^ ^ / / / / / / / / / / / / / / / / / / / / / / / / / / / / / / / / / / / / / / / / / / / / / / / / / / / / / / / / / / / / / / / / / / / / / / / / / / / / / / / / / / / / / / / / ^ ^ ^ / / / ^ ^ / / / / / / / / / / / / / / / / / / / / ^ / / / / / / / / / / / / / / / / / / / / / / / / / / / / / / / / / / / / / / / / / / / / / / / / / / / / / ",
"H J R ^ ^ / / / / / / / / / / / / / / / / / ^ / J A H E ^ ^ / / / / / / / / / / / / / / / / / / / / / / / / / / / / / / / / / / / / / / / / / / / / / / / / / / / / / / / / / / / / / / / / / / / / / / / / / / / / / / / / / / / / / / / / / ^ E J H R / ^ / / / / / / / / / / / / / / / / / ^ / R A H E / / / / / / / / / / / / / / / / / / / / / / / / / / / / / / / / / / / / / / / / / / / / / / / / / / / ",
"D Z T / / / / / / / / / / / / / / / / / / / / / R K K / ^ ^ / / / / / / / / / / / / / / / / / / / / / / / / / / / / / / / / / / / / / / / / / / / / / / / / / / / / / / / / / / / / / / / / / / / / / / / / / / / / / / / / / / / / / / / / / ^ R A D J / ^ / / / / / / / / / / / / / / / / / ^ / E I J E / / / / / / / / / / / / / / / / / / / / / / / / / / / / / / / / / / / / / / / / / / / / / / / / / / / ",
"^ ^ ^ ^ / / / / / ^ E E ^ / / / / / / / / / / ^ ^ ^ / / ^ / / / / / / / / / / / / / / / / / / / / / / / / / / / / / / / / / / / / / / / / / / / / / / / / / / / / / / / / / / / / / / E E / / / / / / / / / / / / / / / / / ^ / _ / ^ ^ / / ^ ^ ^ ^ ^ ^ ^ / / / / / / ^ E / / / / / / / / / / / ^ / / / / / / / / / / / / / / / / / / / / / / / / / / / / / / / / / / / / / / / / / / / / / / / / / / / / / / / ",
"^ ^ ^ ^ / / / / / J D Z R / / / / / / / / / ^ ^ ^ ^ / / / / / / / / / / / / / / / / / / / / / / / / / / / / / / / / / / / / / / / / ^ ^ ^ J Z A / ^ ^ ^ ^ ^ / / / / / / / / / / ^ / H B Z / ^ ^ / / / / / / / / / / / / / / ^ R K J / ^ ^ / ^ ^ ^ ^ ^ ^ ^ ^ / / / / T D Z K / ^ ^ ^ ^ / / / / / ^ ^ ^ ^ ^ ^ ^ ^ / / / / / / / / / / / / / / ^ ^ ^ ^ ^ ^ ^ ^ / / / / / / / / / / / / / / ^ / J D A ^ / / / / / / ",
"^ ^ ^ ^ / / / / ^ ^ R E ^ / / / / / / / / / ^ ^ ^ ^ / / / / / / / / / / / / / / / / / / / / / / / / / / / / / / / / / / / / / / / / ^ ^ ^ R J T / ^ ^ ^ ^ ^ / / / / / / / / / ^ ^ ^ E R E ^ / / / / / / / / / / / / / / / / _ G C F _ ^ ^ ^ ^ ^ ^ ^ ^ ^ ^ ^ / / / / / R E ^ ^ ^ ^ ^ ^ / / / / / ^ ^ ^ ^ ^ ^ ^ ^ / / / / / / / / / / / / / ^ ^ ^ ^ ^ ^ ^ ^ ^ / / / / / / / / / / / / / / ^ / R K T ^ ^ / / / / / ",
"/ / / / / / / / / / / / / / / / / / / / / / / / / / / / / / / / / / / / / / / / / / / / ^ E Y E / / / / / / / / / / / / / / / / / / / / / / / / / / / / / / / / / / / / / / / / / / / / / / / / / / / / / / / / / / / / / / / / / / / ^ / / / / / / / / / / / / / / / / / / / ^ ^ ^ ^ / / / / / / / / / ^ ^ ^ ^ / / / / / / / / / / / / / ^ E R E / / / / / / / / / / / / / / / / / / / / / / / / / / / / / / / ",
"/ / / / / / / / / / / / / ^ ^ ^ ^ ^ ^ ^ ^ / / / / / ^ ^ ^ ^ ^ ^ ^ ^ / / / / / / / / / / / J Z K / / / / / / / / / / / / / / / / / / / / / / / / / / / / / / / / / / / / / / / / / / / / / / / / / / / / / / / / / / / / / / / / / / / / / / / / / / / / / / / / / / / / / / / ^ ^ ^ ^ / / / / / / / / / ^ ^ ^ ^ / / / / / / / / / / / / / / J Z J / / / / / / / / / / / / / / / / / / / / / / / / / / / / / / / ",
"/ / / / / / / / / / / / / / / / / ^ ^ ^ ^ / / / / / / ^ ^ / / / ^ ^ / / / / / / / / / / ^ ^ / / / / / / / / / / / / / / / / / / / / / / / / / / / / / / / / / / / / / / / / / / / / / / / / / / / / / / / / / / / / / / / / / / / / / / / / / / / / / / / / / / / / / / / / / / / / ^ / / / / / / / / / ^ ^ / / / / / / / / / / / / / / / ^ / / / ^ / / / / / / / / / / / / / / / / / / / / / / / / / / / / / / ",
"/ ^ ^ / / / / / / / / / / _ K A J / ^ ^ ^ / / / / / / / R Z F R / ^ / / / / / / / / / / / / / / / / / / / ^ ^ ^ ^ ^ ^ / / / ^ ^ ^ / / / / / / / / / / / / / / / ^ R R / / / / / / / / / / / / / ^ ^ ^ ^ / / / ^ / / / / / / / / / / / / / / / / ^ / / ^ ^ / / / / / / ^ ^ ^ / K A J ^ ^ / / / / / / / / ^ Y A Z U / / / / / / / / / / / / / / / / / / / / / / ^ ^ ^ ^ ^ ^ ^ ^ ^ ^ ^ / / / / / / / / / / / / / / ",
"G H / ^ / / / / / / / / / / I J R / ^ ^ ^ / / / / / / / ^ T R / / / / / / / / / / / / / / / / / / / / / / ^ ^ ^ ^ E R R ^ ^ ^ ^ ^ / / / / / / / / / / / / / / / R Z A ^ / / / / / / / / / / / / ^ ^ ^ / H Z H / ^ / / / / / / / / / / / / ^ ^ ^ R H H / ^ ^ / / / / / ^ ^ ^ / I J R ^ ^ / / / / / / / / ^ ^ T R / / / / / / / / / / / / / / / / / / / / / / ^ ^ ^ ^ E R R ^ ^ ^ ^ ^ ^ / / / / / / / / / / / / / ",
"G J ^ ^ ^ / / / / / / / / ^ ^ / / / ^ ^ ^ / / / / / / / / / ^ ^ / / ^ / / / / / / / / / / / / / / / / / / ^ ^ ^ / T D F R / ^ ^ ^ / / / / / / / / / / / / / / ^ ^ / / / / / / / / / / / / / / / ^ ^ ^ / U J U / / / / / / / / / / / / / / / / ^ U G J / / / / / / / / ^ ^ ^ ^ / / / ^ / / / / / / / / / / / / / / / / / / / / / / / / / / / / / / / / / / / / ^ ^ / T Z G R / ^ ^ ^ / / / / / / / / / / / / / / ",
"/ / ^ ^ / / / / / / / / / / / / / / / / / / / / / / / / / / / ^ ^ ^ / / / / / / / / / / / / / / / / / / / ^ ^ ^ ^ ^ ^ / / / / / / / / / / / / / / / / / / / / ^ ^ / / ^ ^ ^ ^ ^ ^ ^ ^ / / / / / / / / / / / / / / / / / / / / / / / / / / / / / / / / ^ ^ / ^ ^ ^ ^ / / / / / / / / / / / / / / / / / / / / / / / / / / / / / / / / / / / / / / / / / / / / / / / / / ^ / / / / / / / / / / / / / / / / / / / / ",
"^ ^ ^ ^ / / / / / / / / / / / / / / / / / / / / / / / / / / / ^ ^ ^ / / / / / / / / / / / / / / / / / / / ^ ^ ^ ^ ^ ^ ^ ^ / / / / / / / / / / / / / / / / / / ^ ^ ^ ^ ^ ^ ^ ^ ^ ^ ^ ^ / / / / / / / / / / / / / / / / / / / / / / / / / / / / / / / ^ ^ ^ ^ ^ ^ ^ ^ / / / / / / / / / / / / / / / / / / / / / / ^ ^ ^ ^ / / / / / / / / / / / / / / / / / / / / / / / ^ ^ ^ / / / / / / / / / / / / / / / / / / ",
"/ / / / / / ^ / / / / / / / / / / / / / / / / / / / / / / / ^ / / / ^ / / / / / / / / / / / / / / / / / / / / / / / / / / / / / / / / / / / / / / / / / / / / / / / ^ ^ ^ ^ ^ ^ ^ ^ ^ / / / / / / / / / / / / / / / / / / / / / / / / / / / / / / / / / / / ^ ^ ^ / / / / / / / / / / / / / / / / / / / / / / / ^ ^ ^ ^ ^ / / / / / / / / / / / / / / / / / / / / / / / / / / / / / / / / / / / / / / / / / / / ",
"/ / / / / / ^ I T ^ / / / / / / / / / / / / / / / / / / ^ ^ / J Z A / ^ ^ ^ ^ / / / / / ^ ^ ^ ^ ^ ^ ^ ^ / / / / / / / / / / / / / / / / / / ^ ^ / / / / / / / / / / / / ^ / I J I I / / / / / / / / / / / / / / / / / / / / / / / / / / / / / / / / / / / / ^ ^ I T E / / / / / / / / / / / / / / / / / ^ ^ ^ ^ J Z A _ / / / / / / / / / / ^ ^ ^ / / / / / / / / / / / / / / / / / / / / / / / / / / / / / / / ",
"/ / / / / / E G H E / / / / / / / / / / / / / / / / / / ^ ^ ^ E R R ^ ^ ^ ^ ^ / / / / / ^ ^ ^ ^ ^ ^ ^ ^ / / / / / / / / / / / / / / / / / / / ^ ^ ^ / / / / / / / / / / ^ / J G J J / / / / / / / / / / / / / / / / / / / / / / / / / / / / / / / / / / / / ^ ^ H H R / / / / / / / / / / / / / / / / / ^ ^ ^ ^ E R R ^ ^ / / / / / / / / / ^ ^ ^ / / / / / / / / / / / / / / / / / / / / / / / / / / / / / / / ",
"/ / / / / / ^ / / / / / / / / / / / / / / / / / / / / / ^ ^ ^ / / / / / / / / / / / / / ^ ^ ^ / J A R / / / / / / / / / / / / / / / / / E F D R / ^ ^ / / / / / / / / / / / ^ ^ ^ ^ ^ / / / / / / / / / / / / / / / / / / / / / / / / / / / / / / / / / / / ^ ^ / / / / / / / / / / / / / / / / / / / / ^ ^ ^ ^ / / / ^ ^ / / / / / / / / / ^ ^ / J H T / / / / / / / / / / / / / / / / ^ E F Z I / / / / / / / ",
"/ / / / / / / / / / / / / / / / / / / / / / ^ ^ ^ ^ ^ ^ ^ ^ / / / / / / / / / / / / / / ^ ^ ^ E F H R ^ / / / / / / / / / / / / / / ^ ^ E J K E / ^ ^ ^ ^ ^ / / / / / / / / / ^ ^ ^ ^ / / / / / / / / / / / / / / / / / / / / / / / ^ / H F R ^ ^ / / / / / / / / / / / / / / / / / / / / / / / / / / / ^ ^ ^ ^ / / / / / / / / / / / / / / ^ ^ / F G T / ^ / / / / / / / / / / / / / / / E J K E / ^ / / / / / ",
"/ / / / / / / / / / / / / / / / / / / / / / / / / ^ ^ ^ ^ ^ / / / / / / / / / / / / / / ^ ^ ^ / / / / ^ / / / / / / / / / / / / / / / ^ ^ ^ ^ ^ / / ^ ^ ^ ^ / / / / / / / / / ^ ^ ^ ^ / / / / / / / / / / / / / / / / / / / / / / / ^ / J H R ^ ^ / / / / / / / / / / / / / / / / / / / / / / / / / / / ^ ^ ^ ^ / / / / / / / / / / / / / / / ^ / / / / ^ ^ / / / / / / / / / / / / / ^ ^ / / ^ ^ / ^ ^ / / / / ",
"/ / / / / / / ^ ^ / / / / / / / / / / / / / / R D Z E ^ ^ ^ / / / / / / / / / / / / / / / / / / / / / / / / / / / / / / / / / / / / / / / / / / / / ^ ^ ^ ^ / / / / / / / / / / / / / / / / / / / ^ ^ / / / / / / / / / / / / / / ^ / / / / ^ ^ ^ ^ / / / / / / / / / / / / / / / / / / / / / / R A A E / ^ ^ ^ / / / / / / / / / / / / / / / / / / / / / / / / / / / / / / / / / / / / ^ / / / / / / ^ / / / / ",
"/ / / / / ^ ^ / / ^ ^ / ^ / / / / / / / / / ^ ^ R R ^ ^ ^ ^ / / / / / / / / / / / / / / / / / / / / / / / / / / / / / / / / / / / / / / / / / / / / ^ ^ ^ ^ ^ ^ ^ ^ / / / / / / / / / / / / / / / / E T R R / / / / / / / ^ ^ ^ ^ / ^ ^ ^ ^ ^ ^ ^ / / / / / / ^ ^ ^ / / / / / / / / / / / / / ^ E U E / ^ ^ ^ ^ / / / / / ^ ^ ^ ^ / / / / / / / / / / / / / / / / / / / / / / ^ ^ ^ ^ / / / / / / / / / / / / / ",
"/ / / / / ^ ^ J H K / ^ / / / / / / / / / / / ^ ^ ^ ^ ^ ^ ^ / / / / / / / / / / / / / / / / / / / / / / / / / / / / / / / / / / / / / / / / / / / / ^ ^ ^ ^ ^ / / ^ ^ / / / / / / / / / / / / / ^ ^ R A H H / ^ / / / / / ^ ^ ^ / / J J E ^ ^ ^ ^ / / / / / ^ ^ J H J / / / / / / / / / / / / / / / / ^ ^ ^ ^ ^ / / / / / ^ ^ ^ ^ / / / / / / / / / / / / / / / / / / / / / / ^ ^ ^ ^ / / / / / / / / / / / / / ",
"/ / / / / / / J H T / ^ / / / / / / / / / / / / / / / / / / / / / / / / / / ^ / / / / / / / / / / / / / / / / / / ^ / H Z I / / / / / / / / / / / / ^ ^ ^ ^ E H H E ^ / / / / / / / / / / / / / / / / / / / / / / / / / / ^ ^ ^ / E A H R / / / / / / / / / ^ / J H T / / / / / / / / / / / / / / / / / / / / / / / ^ ^ ^ ^ ^ ^ ^ ^ / / / / / / / / / / / / / / / / / / H Z J / / / / / / / / / / / / / / / / / ",
"/ / / / / / / / / / / / / / / / / / / / / / / / / / / / / / / / / / ^ / D D J / / / / / / / / / / / / / / / / / / ^ / R R ^ / / / / / / / / / / / / ^ ^ ^ ^ E A F R ^ / / / / / / / / / / / / / / / / / / / / / / / / / / ^ ^ ^ ^ ^ ^ ^ ^ / / / / / / / / / ^ / / / / / / / / / / / / / / / / / / / / / / / / / / ^ ^ ^ / F D H / ^ ^ ^ ^ / / / / / / / / / / / / / / ^ E R E / / / / / / / / / / / / / / / / / ",
"/ / / / / / / / / / / / / / / / / / / / / / / / / / / / / / / / / / ^ ^ R E ^ / / / / / / / / / / / / / / / / / ^ ^ / / ^ / / / / / / / / / / / / / ^ ^ ^ ^ / / / ^ / / / / / / / / / / / / / / / / / / / / / / / / / / / ^ ^ ^ ^ / / / / / / / / / / / / / / / ^ ^ / / / / / / / / / / / / / / / / / / / / / / / ^ ^ ^ ^ R E E / ^ ^ ^ ^ / / / / / / / / / / / / / / ^ ^ ^ / / / / / / / / / / / / / / / / / / ",
"/ / / / / / / / / / / / / / / / / / / / / / / / / / / / / / / / / / / ^ ^ ^ ^ / / / / / / / / / / / / / / / / / / / / / / / / / / / / / / / / / / / / / / / / / / / / / / / / / / / / / / / / / / / / / / / / / / / / / / / / / / / / / / / / / / / / / / / / / / / / / / / / / / / / / / / / / / / / / / / / / / ^ ^ ^ ^ ^ ^ ^ / / / / / / / / / / / / / / / / / / / / / / / / / / / / / / / / / / / / / / / / ",
"/ / / / / / / / / / / / / / / / / / / / / / / / / / / / / / / / / / / ^ ^ ^ ^ / / / / / / / / / / / / / / / / / / / / / / / / / / / / / / / / / / / / / / / / / / / / / / / / / / / / / / / / / / / / / / / / / / / / / / / / / / / / / / / / / / / / / / / / / / / / / / / / / / / / / / / / / / / / / / / / / / ^ ^ ^ ^ ^ ^ ^ ^ / / / / / / / / / / / / / / / / / / / / / / / / / / / / / / / / / / / / / / / "
};
