/* XPM */
static char *df9de86805794a8b95829669ce344616[] = {
/* columns rows colors chars-per-pixel */
"108 80 218 2 ",
"   c #031500",
".  c #061901",
"X  c #0A1C02",
"o  c #0C1D09",
"O  c #0E2103",
"+  c #0F2109",
"@  c #122504",
"#  c #152A05",
"$  c #182D06",
"%  c #13250A",
"&  c #16290B",
"*  c #1A2D0C",
"=  c #1B3206",
"-  c #1D320C",
";  c #152611",
":  c #162911",
">  c #1B2D12",
",  c #1C2E19",
"<  c #1A2713",
"1  c #1E3112",
"2  c #1F311A",
"3  c #202F0E",
"4  c #21350E",
"5  c #243A0E",
"6  c #293D0E",
"7  c #223514",
"8  c #253A14",
"9  c #293D15",
"0  c #23351A",
"q  c #26391A",
"w  c #2A3D1B",
"e  c #28361D",
"r  c #2C3D22",
"t  c #293925",
"y  c #303F21",
"u  c #2A400F",
"i  c #2C4215",
"p  c #2F4A15",
"a  c #2D421C",
"s  c #2F481E",
"d  c #304614",
"f  c #344D15",
"g  c #31441D",
"h  c #344C1B",
"j  c #394E1C",
"k  c #394918",
"l  c #365117",
"z  c #36511C",
"x  c #3B541D",
"c  c #3F581E",
"v  c #395117",
"b  c #2E4122",
"n  c #2F4129",
"m  c #334523",
"M  c #354A23",
"N  c #3A4D24",
"B  c #35452A",
"V  c #384728",
"C  c #36492A",
"Z  c #3B4C2C",
"A  c #365122",
"S  c #3C5423",
"D  c #3E5923",
"F  c #3D532B",
"G  c #3E5A2A",
"H  c #355822",
"J  c #3D4C32",
"K  c #374933",
"L  c #3F5131",
"P  c #42561D",
"I  c #435A1D",
"U  c #4A5A1E",
"Y  c #445716",
"T  c #4A611E",
"R  c #425524",
"E  c #435B24",
"W  c #495D25",
"Q  c #42552B",
"!  c #445C2B",
"~  c #4A5E2B",
"^  c #515F24",
"/  c #435433",
"(  c #465B32",
")  c #4A5D33",
"_  c #45553A",
"`  c #4B5D3B",
"'  c #485633",
"]  c #505F38",
"[  c #466025",
"{  c #4A6226",
"}  c #46612B",
"|  c #4B632C",
" . c #4E692D",
".. c #516325",
"X. c #52652D",
"o. c #526A2E",
"O. c #596B2D",
"+. c #5B722E",
"@. c #466031",
"#. c #4C6433",
"$. c #466934",
"%. c #4E6933",
"&. c #4E643B",
"*. c #4F6A39",
"=. c #516533",
"-. c #536B34",
";. c #5A6D34",
":. c #52653B",
">. c #546C3A",
",. c #5A6E3B",
"<. c #596638",
"1. c #4D7038",
"2. c #567136",
"3. c #5B7236",
"4. c #56713A",
"5. c #5B733B",
"6. c #5E783D",
"7. c #5F7836",
"8. c #606F34",
"9. c #617334",
"0. c #62753C",
"q. c #68773B",
"w. c #647A3D",
"e. c #6A7A3E",
"r. c #4D5D42",
"t. c #465540",
"y. c #505F41",
"u. c #4F6240",
"i. c #526442",
"p. c #556B43",
"a. c #5A6D43",
"s. c #55664A",
"d. c #5B6C4B",
"f. c #57684A",
"g. c #567040",
"h. c #5D7443",
"j. c #5E7942",
"k. c #5E714D",
"l. c #5F794A",
"z. c #5D6D52",
"x. c #5E7250",
"c. c #627543",
"v. c #657D45",
"b. c #637B43",
"n. c #697E46",
"m. c #6A7D44",
"M. c #62744A",
"N. c #657C4B",
"B. c #697E4B",
"V. c #606E55",
"C. c #637453",
"Z. c #667B53",
"A. c #6A7C54",
"S. c #637458",
"D. c #6B7B5B",
"F. c #687857",
"G. c #707F5E",
"H. c #6D7D62",
"J. c #668045",
"K. c #6A8145",
"L. c #668249",
"P. c #6C834B",
"I. c #6E8A4F",
"U. c #738146",
"Y. c #72854B",
"T. c #728A4E",
"R. c #7A8C4E",
"E. c #6C8453",
"W. c #6E815B",
"Q. c #6A8752",
"!. c #718553",
"~. c #738B53",
"^. c #7B8B56",
"/. c #72845C",
"(. c #758B5A",
"). c #7A8D58",
"_. c #7C935B",
"`. c #7A9154",
"'. c #6F8262",
"]. c #738464",
"[. c #798765",
"{. c #778A65",
"}. c #7A8B64",
"|. c #7B8C6C",
" X c #768568",
".X c #7D9366",
"XX c #7D8C72",
"oX c #7F9070",
"OX c #82965D",
"+X c #80995F",
"@X c #808F66",
"#X c #82946E",
"$X c #859D69",
"%X c #869966",
"&X c #818F74",
"*X c #849473",
"=X c #899C74",
"-X c #8C9D7C",
";X c #869777",
":X c #8FA27E",
">X c #8FA577",
",X c #91A37D",
"<X c #8CA168",
"1X c #8D9D80",
"2X c #919F85",
"3X c #93A485",
"4X c #9BAD87",
"5X c #95A58A",
"6X c #9AAB8C",
"7X c #96A880",
"8X c #9DAD92",
"9X c #A6B78E",
"0X c #A5B693",
"qX c #ACBE9C",
"wX c #A7BA96",
"eX c #AEC199",
"rX c #ADC0A0",
"tX c #B6C7A7",
/* pixels */
"} 6.b.v.-.{ E -.v.-.2.b.5.o.E x b.L.-.{  .4.E -.6.b. . .R ! >.G >.>.5.,.E  .E 4.L.{ 4.-.;.v.-.o.K.+.o.2.o. .E 4.E E  .L..X(.:.S ! { D 4.;.3.w.T +.Y ..9.;.m.W >.j R B.! #.) Q Z N Q M.) h #.c.c.b.;.0.E T.3.w.E | P.| [ ",
"I.2.| [ 6.| c | { b.2. .-.P.0.-. .E { [ E  .-.E E [ W E E S Q S ~ v.b.5. .| -.{ 6.E 3.0.3.W 6. .w.O.3. .[ { -.2.E | E -.b.-.| E h.~.v.W W v.9.{ O.9.O.U.0.X.R <.R W ! N #.N Z N Q h.a.~ >.R ~ ,.3.| -.9.n.9.n.{ I o.{ E ",
"-.-.6. .K.6.o.{ -. .{ 4.-.E W o.c E 4.%.v.%.| [ 5.-.-.-.h %.G d d j R c.c.{ n.L.E W -.E { E ~.-. .b.E { ! | %.-.2.[ | 3.x 0.P.[ 2.P.P.o.-.0.o.W O.O.X.;.X.W W n.~ 5.~ R N Q M.Q ) a.a.R ~ ! ,.n.~ o.3.E 3.o.3.2.E [ ;.{ ",
"c |  .E E b._.2.E | { -.-. .-.E x  .v.-.-.} %.E -.;.E  .| N.Q j j | E =.z 6.5. .v -.4.E | -.L.0.-.b.{ | -.! |  .2.J.7.O.7.T w.O.-.2.E -.E E W o.;.W X...m.m.;.o.,.B.c.=.( ! ) Q ( Q Q Q ~ ! =.=.-.j o.-.P.n.W { P.v.v.| ",
"v -.f [ 2. .6.-.[ 6.{ E D c D }  .E -.j.5.%. .E -.{ %.| R R >.h.! ! ! ! E >. .v E l c 2.5.| [ 5.6.[ 5.4. .-. .b.| 2.3.o.2.2.3.o.| {  .{ E x c.R R X.X...;.X.Y.-.=.E c.~ ) ) M ) Q ( #.a.>.R c.R ~ E n.3.3.;.E E -.-.E f ",
"{ [ E ).P.E -.E E -.4.%.4.E ! { 4.c 6.$XN.>.h.5.R o.| E E h ! #.! A ! z #.E | c v E -.0.6.b.K. .[ l 4.I.6.6.z  .| 5.3.c 3.2.2.x { x E P.| #.~ x R ;.X.O.;.W w.W E -.>.#.Q N #.) Q F &.! Q N N.R E E 0.v.0.P v E 6.T.6.2.",
"5.E I v.b.-.2.-.6.E ! E 4.D } } { } D ! >.-.| D ~  .R E ! :.:.S ! ! ! ! G A ! N.4.-.2.v.-. .L.P.| } ! } >.! z D E [ 2.O. .2.I 3. .{ W ;.E =.W j E o.0.W W P W W x %.,.#.>.:.Q M.a.#.! S a.=.#.| ~ #.| ,.W { -.-. .5.-.-.",
"o.[ -.K.6.b.[ E ! %.D D E } z } | %.| ! %.h A D z  .>.| ! A N a h ! N.@.>.S @.E.-.| { P.J.6.%.2.E ! A S G #.( #.%.D 6.K.[ -.{ 6.-.E W ,.n.X.X.-.X.;.n.W w.w.w.m.E ,.! -.#.) ( ) ! #.A ! Q Q ! j | ,.-.E v.{ ~ 6.v.2. .o.",
"6.E E v.v.| E E x %.S ! *.S %.%.} 4.B.| ! h j ! ! ! E ! #.! :.M Q ! &.! ( >.#.E.h.-.G 5.>.5.x h >.>.#.S Z &.A.eX,Xa.-.h.>.E E } E =.| | =.E W W U O.w.0.{ ;.b.3.5.| E >.h.=.>.) :.Q N #.>.>.-.! >.-.E c | ,.E | | v.x E ",
"{ | h.-.4.4. .E f D D | D #.D x v -.| %.S j ! E d ! -.z ! ! #.Q #.S Q @.G &.#.N.#.N ! #.-.4.D p S S ! ! G 3XtX=X=XeXW.h.:.) S :.Q ! c.B.! ~ | X.e.+...I W o.,.o.{ E | #.! S >.@.#.h G ! :.| ! %.%.E >.5.{ -.{ -.{ -.E ;.",
"%.%.| %.| %.! E z ! *.} ! 4.%.D { -.E ~ ~ ,.,.c.| ! >.| h G N.h G G A ( :.p.,XW.7Xp.) A A Q h h z %.! S ( Z d.-XC.|.|.].wXx.d.` a./.c.c.,.E W 3.I w.3.o.;.| x S E R R | @.! Q @.>.G R ! =.=.| -.>.~ | -.x E =.B.b.| D 5.",
"D D p D h | h.h.! #.z ! ! @.} %.6.-. .j R ~ j R %.>.-.! | G #.A h S A :.&.:Xk.Z C.` ) ` Q p.&.! >.@.#.G x./ i.S._ _ _ C s.S.x.b / :.:.:.=X=.c.=.b.n.W o.| | o.~ | E | E ! >.>.Q ! ! ! c.%.| %.-.%.E E  .-.c { %.E E -. .",
"S S >.#.#.z z } ! %.A z D ! -. .W E ~ x D ! >.G D D 5.-.! A ! ! A Q.&.M ( oXp.w ` ,X].` ` C.:.( ( &.'.s.r.B r.B 0 0 B w m M M m 7 8 N :.D./.:.c.~ ;.E n.b.R E >.,.E 5.>._.-.5.E.! | ! 5.! j.v. .h.>.E N. .-.E } -.E ! D ",
"z 4.h.! } S z ! #.S #.>.| d | j.E -.5.c | h.A h | E D z ! | @.! M F p.Z.) ` / w _ d./ 8 r f.].k.i.F L s.J < r < % % * a ( M 4 9 # # 7 Z Z Z F.M.=.k ! B.c.R | { -.-.-.E.>.b.! %.G ! ,.-.c b.L.-.6.>.-.4.5. .h E E ! =.! ",
"G #.S @.@.G D #.%.>.N.L.! ! | 5.;.;.~ ~ D -.N.! %.>.E D z G ! @.G G ! &.&.F 8 B Z y r 7 B / J m M a w L r ; < % % % * m M - $ 7 @ * 0 r 0 m r / |.:.:.! | E { 4.D %.{ E >.N.>.%.! z ! b.-.6. .{ -.-.E c  .D z E h.E E -.",
">.A D ! S D ! ! h #.%.E D -.%.E 4.-.N.-.%.-.S | =.| |  .D #.G N S s G ` u.` Z m 7 r J > 0 B @ * w = w Z > % % ; % o % 0 7 q # O @ @ % r r _ J J -X` p.Q N @.~ B.G h E E b.%.4.j.~ -.! b. .2.{ [ -.-.z x { D 4.! >.D D  .",
"E } } D E S D #.z ! 5.E [ { -.[ 6.6.6.b.-.>.R z !  . .b.-.h h Q F Q ' ` i._ J r 0 0 J w 1 - M F a - 7 m w % O % @ % @ O & @ @ * & % X > w r B C.1XC.5X` C.d.p.4X:XF Q h. .6.o.{  .%.! b.[ 5.v.3.o.c x c >.! ! E ! -.-.4.",
"c -.%.} ! z ! h.-.4.h.E E -.-.{ 2.E { -.-.D | -. .E c 4.! z ! Q ) /.` 8 Z _ Z / w % > * 7 8 N g 8 8 w 7 # * 1 * & O O X O & @ 7 r O X * % 7 r Z _ 8X5Xi.f. X|.y.Z i.( ! -.T.5.E { >.%.~.[ I w.K.4.c -.-.| z G ! D ! P.v.",
">.E z 5.! ! %.} ! E h.E { -.4.-.o.;.E ! >.f E ! %.c E -.B.E.#.p.C.i.B B B ` s.i.C 1 & & 7 q b & 7 1 1 * $ 4 q q > % % % % 1 # * e O . % @ 7 w b Z |.z.` _ _ Z 8 r i.k.:.| 3. .o.E { -.-.-.c | ~.b.[ -.c } E | | z D  .{ ",
"-.4.D E S >.>.>.h @.-.D E b.-.o.P o.E -.h.R E | 4. .| %.>.:.a.:.d.s.B V ` ' Z ` m w - 1 q > 7 % O & * $ 4 m M b 0 0 > : % 1 $ @ O . . O O > 1 7 J S.F.J 7 0 * y d.D.&.Q @.v.4.f E { v.2.v.I | -.-.c  .c E E E.h.%.D D x ",
"! -.! z @.-.! 4.z ~ %.E !.v.W P P ;.n.b.~ E | D -.-.h.E.M.Q :.[.C.d./ m F g 8 w a g 7 8 q O O > . O @ # - 4 7 8 % + , : > 7 @ X X . O & O > > & B J _ B 0 > r ` oXs.a.p.! #.E c 6.0.~.[ -.[ o.2.-.| { E  .v { 4.j.>.%.E ",
"P.E #.! | A | >.! ! ~  .,.,.=.=.c.X.;.0.5.=.#.j z #.! h.a.F m d.s.J m 8 w 4 # 9 a F w - * X   o % . . $ 8 # X # X   t t n B * 1 > & O X . % O % > 7 r J / Z m r / d.p.) ) ! ! v.P.| v.[ f 2.6.| -.E E  . .2. .h.-.5.-.D ",
"0.-.L.4. .! -.E D ! n.| X.;.c.X.0.3.0.;.5.~ ~ R ! E ! N &.k./ / w 0 B w 4 7 $ a w m 8 & @ O X O > > @ @ 8 8 # O X X > % > 0 * 0 n r * O % % X & q q w e 7 8 > 7 w :.C.&.( ! @.b.L.5.E E E { ,.E E E c E E -.[ 6.[ E >.! ",
"P E  . .c { | f ~  .0.| n.n.;.0.m.;.;.;.;.~ -.E =.>.Q a.=X' w 7 * @ w m m Z - a 8 $ * 7 & . X 1 B m > @ > $ O X . 7 O X . O > & 7 % & 1 % > % @ 1 > > > * @ X 7 w ' i.p.:.) %.! { o.{ o.6.x c E  .E E | -.{ -.b.4.E E  .",
"-.6.6.E W o.v c W P.| -.U.3.W Y.U.w.| W 0.=.,.=.W ~ S a.&.w % % @ # 8 w Z Z > % @ 1 w w @ & w M ` 7 O > > % @ X 1 Z 7 @ X O > > % % & , 0 e 0 * > * 7 0 * @ @ % w i.( p.#Xp.! @.-.[ [ 0.c f -.%.%.v E -.D 4.I.P.E -.E 2.",
"4.{ { [ -.E { P.n.P.3.3.m.X...Y U W W P ,.).!.>.R N.! :.9 * > 7 w * m C m Z C > O > w 0 & - M / Z * * n > % o & Z M 8 @ @ X % 2 7 7 7 > % . O > > @ * q q & * > * Z Z ) oX:.>.! 2.L. .I  .-.%.| ! z E j.{ -.| E E -.{ { ",
"-.c  .-.2.-.K.L.;.X.;.w.9.^ 8.^ ^ O.;.X.=.$X@X~ R =.>.}.` w 7 8 g N m - q b J 0 . . @ & w m M m a 7 7 n > o . 0 ` M m $ 7 & % 0 r 7 & % %   . * * X X O * @ % > * 8 F i.,X#.h ! E -.E |  .-.P.E -.>.-.} E E [  .l c | 4.",
" .-.-. . .E -.v.;.-.3.w.O.^ q.R.m.W W ;.X.c.5.~ >.=.R h.N 4 B q @ - 7 w w @ 1 1 % O % 1 m b 9 w 8 N q > , + . 0 Z m M - q 1 % % 0 * X . % % o % e 7 # X @ O % , r ` p.&.&.#.z b.| c | c c -.6.-.| E D %.E | z D z x  .} ",
"| } } 4.%.E E E 3.0.-.;.8.O.q.U.;.^ X.X.~ =.~ ~ R =.a.) M m w 7 # 4 $ $ & @ 1 % & % @ & 1 7 * 7 # m - O > .   X > 7 8 $ * * * O @ * % . X X o % 7 8 $ X O X o % J 3Xd.F >.c.c -.-. .%.E 4.0.| { 2.} j.j.| } %.S D z ! x ",
"G %.z x } -.{ -.0.0.o.0.Y.q.R.m.W X.c.~ c.c.P n.| W >.>X:.m m b & - 7 w - @ - 8 w * @ & & 0 % X # 4 - % & . o   . % * $ # @ * @ # 0 0 %     + > & $ @ @ 1 0 % % J 8X( F =.D c  .%.b.6.N.b.[ -.2.[  .2.4.%.N.h.! >.! #.*.",
"h S A ! G ! %.5.0.-.o.;.;.;.m.q.^ ^.,.~ ;.R W R E 5.N.B.h.a w w > 7 ` F # - ( ` M - 1 * X X X X $ # * @ @ O O   . o % * # @ - $ w 8 > % X   o > * 7 # @ * e > < J 3X&.&.| -.{ 6. .4.4.h.L.4.[ o.| | -.| %.D A ! p.#.@.G ",
"h S ! #.4.>.! E x E ;.o.Y 9.;.0.0.=.;.W R ~ R =.j =.Q =X&.7 - w r 1 b & @ @ 8 F ) - 8 1 X X 0 J a 9 a - 7 a > & . . @ $ 4 9 S Q Z * . X X     @ w F a $ X 1 2 0 t.z.-XZ.>.{ [ [ c -.| E E 4.0.7. .x | 4.E z M M S M A ( ",
"c.@.@.G | 5.E | W ;.0.| U e.e.U.;.0.^.X.~ N.Q a.:.:.' /.F = 8 w 1 $ 7 1 7 w 8 7 7 * * X O % n / ! E d 6 i G F m $ O # @ 9 R ) ( m .   X +   X @ - / M & X o , t r _ 5XC.#.! c o.[ c | E E E ~ >.%. .%.D z A ! ! A A A A ",
"5.%.>.E D b.E %.W ;.| E ....9.Y.n.;.0.X.R M.@XD.=X[.C.C.N 7 8 4 @ $ m M Z C $ @ & * @ . . @ * $ 5 A G h 6 i 9 9 w a Q i 6 9 h ! Z % . . % X X & * M m # @ % 2 K / z.5X-XA.| -.P. .E v.[ b.-.Q ! ! z 5.! ! h G S A ! @.#.",
" .} %.c  .-.c  .c | ;.3.R.9...e.q.X.~ P R ,.9X}.[.F.` Z M w - @ # # 7 $ 8 w O & * * X X O 0 & . X 9 F F m m 8 & 1 b / a 8 8 8 8 7 . X   % X   % @ 7 7 @ # 1 * w _ D.D.C.=X-.~.).6.4.6.E |  .h S ~ f E -.A 5.>.#.! >.g.4.",
"| >.-.| D -.%. .E 3.o.w.;.9.U O.X.X.OXX.O.<./.{.C.C.y.y.w # $ 9 # # $ O # $ . O & * * 1 e r > .   7 C m 7 7 > @ O 0 r w * @ @ % @   o   . o o + % * * O @ - - 4 m s.` / =X#.).P.-.-.E 2.I W D | E c -.E | | ! G ! %.! h ",
"z j.4.>.>.b.-.b.{ | P.w.3.9.X.W X.q.c.X.~ ~ R D.C.F.r./ 8 # @ 4 - - # O X @ * * 7 n C r 0 > % X O 1 0 >   o % % . % % > @ . 2 y b - q & . . o . X X % $ @ $ 4 - w _ Z m Z.>.~.-.{ K.v.5.O.0.0.-.T.0.-.-.f E %.~ G E D h ",
"E E -.-.-.-.v E | 0.b.<XY.Y.n.U P X.P k R W k ] #Xd./ B 8 * @ 4 M a $ @ @ $ q * % 0 e % X + , 2 + % % % . o o . % * o .     < > - - M Z %   .       X 7 7 - 7 = * V r.` {.>.b.-.-.4.2.2.K.K.0.T.5.| [ -.I E -.~ D D z z ",
"c  .{  .| L.D -.v.6.;.v.0.q.w.;.;.w.;.X.n.R c.,.0X` w Z 7 @ - 8 &.( 7 O O $ 7 @ X % % .     . . . % > 0 O .   . X & 0 & .   % @ 4 N &.d.e % X   o X . % e w 7 - 4 w _ F.eXE.=. .%.-.{ o.0.o.P { I 3.O.| o.W { b.~ E | >.",
"c  .-.b.5.-.x %.W | ;.-.q.-.;.w.;.O.{ _.P.c.R ( p.G./ B 1 * 8 / C F 8 O O # & & . X X o       X % & 0 r % X % 7 q 7 / V 7 . . X - A S Q - > % .   % o   0 n > * w m w Z W.h.-.E E E c 3.w.{ { [ 7.w.m.O.[ 2.K.~.0. . .-.",
"E { l 4.| 4.! -.4.E -.v E 2.3.n.w.9.3.-.W X.:.#.M.6Xx.B 8 4 7 w F a 8 # @ 7 b C @ O % % .   o 2 % % % X X @ 8 B w Z / Z 7 > % X @ h F 9 8 M q O   o O . % & & . @ w w w ` ! h. .-.E W 0.{ U 3.o.w.{ 9.R.Y.m.T.0.2.o. .-.",
"c  .x z E | E E -.E  .E x ;.| | 2.o.OXX.m.X.Q a.-X*XD./ F 8 8 # m a 7 $ # # b 1 O O % % . X ; 2 % + . . . X X X & 7 r ` B w > . @ 4 a g a a g @ O . % r C 0 & X @ w r.d.a.! { 4.E E o.2.{ 9.0.o.w.o...3.3.7.0.0.| -.3.4.",
"4.{ | D z E #.| | f E b.4._.4.| [ o.3.5.%X%XR ! *X[.z.` &.Z 7 4 1 a a # O # m #   X > > X X % % o X X . .       > r r Z 7 * o + . > * 1 F N Z 9 # O * B L w 1 @ 3 w S.*X:.=.{ E E E E 3.w.R.9.7.X.P.{ I -.| o.| 5.2.-.-.",
"2.-.4.j.D -.z %.x z  .-. .-. .v 5.| E 3.n.).=.c.D.F.i.[.d.Z m 4 1 8 q O O 9 a 7 w * @ & O % % X . . X X       . > m r @ X * . % > % % O 8 Z ( N $ @ $ w m a w $ 4 Z V.` N ~ -.-.{ E E 0.3.3.3.m.v.P.`.o.I I | o.-.[ E o.",
"D E j.D D | 4.%.%.| E b.v.4. .[ E L.E o.b.c.>.A.{.W.|.[.C.( w 4 $ # - = = 8 $ M &.M 1 0 & % % % % X X o o X . X X , 2 + r J w > r , & @ # 8 a i a $ $ w a 9 - # g d.3Xd.F N ~ -.| { [ 0.o.0.%X~.v.[ o.| | E E E x E E E ",
">.[ #.5.} D j.5.5.4.D I.).5.| | [  .| 5.~ 5.=.c.M.}.W.C.d.a 8 - O # # w w 7 $ M F Z b C 1 X o > % O + : : + X . X % * 0 Z B Z q > b 1 $ - - - $ 9 1 $ w 8 - - $ 8 D.tX` N ~ 0.o.{ P.b.5.[ o._.).-.2.I 5.v.-.4.5.[ o.-. .",
"S } ! z z ! l.N.| [ c E J.-.2.[ x b.J.{ d ! >.! Q ' ` d.` m g 9 8 = O 9 m a 8 - a a - q * @ O & @ @ & 1 > o   . % % * 7 7 @ g 8 # 8 8 4 4 a N $ @ * > 7 * - 8 w _ d.&X|.( h.v.3.E 0.3.W { { ;.B.3.| E -.| 2.-.| 4. .[ [ ",
"D D 4.%.x | >.4.S E } J.4.| [ J.b.6.E x h E @.#.! ( ( N &.A.p.( / 9 = a a 7 7 = $ 8 @ * % % % & 7 7 7 0 > o . X O % & * * * 9 4 @ $ 8 8 Q ( N 7 # 7 1 q > $ $ 8 y.d.F.[.#X#.c.-. . .K.-.{ | o.0.4.o.-.0.-.-.o.| v.-.| -.",
"D D | 5.x D h z } j.4.%.D 2.| L.E E x E #.! >.G ! A %.5.E h.9Xi./ a i - 6 = = $ @ n : . > O X % > e w 7 > o . o O @ 7 O O $ 4 A m - = 6 >.G 9 M 8 @ 7 1 7 - @ 8 ' D.[.}.=XM.c.| -.{ B.E -.E E | K.T.-.-.{ -.%.| -.D -.D ",
"%.j.%.-.[ } E E ! %.%.E } 5. .w.o.{ c -.%.>.! h S D [ E  .~ p.` N - - 4 = $ $ $ & 0 : % 1 % * * X > a a 0 o . + & * * O O @ g :.a F i h ! h &.a.a @ O @ 8 8 $ 8 V p.F.) :.M.c.5.-.b.).o.E E E -.6.T.{ -.4.5.>.-.4.D ! h ",
"S | 4.%.E 4.-.E #.#.D } -.4.b.| -. . .-.E -.@.#.D  .J.o.=.>.d.f.F i $ = = 5 $ $ - 8 e 1 % @ m b & & w w 0 + X + * & * & . . m G w F ( F i 4 8 a 9 a 7 O - a m g V ` d.:.) >.>.~ 5.4.2.E { -.j | [ 5.6.5.-.-.5.| } E %.%.",
"D } } D  .4.| } %.S ! $X~.%.4.%.0.-.-.| E %.D h } -.[ c R :.|.z.( F 7 4 8 a - 9 a a a w 1 $ a q 0 O * & & X X + O @ @ * & O a M $ @ a a $ 7 @ - 7 a w $ $ 7 M Z m ' A.Z ,.=XB. .W c { | P E ~ -.| E -.o.{ c 4.} z z #.j.",
"h ! h %.j.E } %.%.A D -.#.| | } -.{  .[ %.| | D %.[ [ v | h.M.3Xk.b O # 7 8 4 a 8 i 8 a a @ @ @ 7 % * O @ + < 2 % % B C % O F i.a @ & w 7 * @ - 7 4 8 8 7 7 Z Q ' p.=X,.>.$X.X%.-.x v.2. .b.{ 6.0.-.E E  .-.b.| p z } j.",
"%.%.! %. .z D E D ! ! h E E } } -.E v v | E ! E 6. .P x ~ @.p.].'.b O X O # 7 - # i 5 = 4 # * * w 0 1 % % % 0 r @ @ 0 & @ 7 Z F Z - % C r % % 1 $ $ a m a 9 F &.M M.@X,.c.#.c  .4.v v 2.[ b.+XP.-.x | 2.{ 6.E p z ! >.h.",
">.>.| E 6.b.D } E b.! h -.v.L.%.| %.-.[ -.E  .b.6.{ [ | R #.-X|.S._ m 1 @ @ - 4 $ 6 5 = - 8 m 1 0 7 % O % o : : . X 0 & o 0 C 7 q @ % 0 > % O > & @ a N F N Q Z.a.B.c.,.v.x c E 2. .o.v.-.o.T.K.K.x  .4.l  .D #.! #.>.>.",
"b.-.} | -.4.-.h.-.-.h h z %. .{ ! %.4.x o.[ -.b.2.{ x -.5.) 3XH.S.r.r & > * - g 4 u j D i - w & . %   o +   X . X O 0 0 % o % X X .   % ; % : * * 4 M M p.W.C.}.A.! ,.,.-.=.E b.v.{ -.[ E o.v.| -.5.-.-. .-.h.E } %.4.} ",
"! h E  .b.{ 4. .E %.G b.R h.E v z 6.2.-.o.[ [ -.v.| | ! R :.,X].z.` r > 7 > m g i S %.G a - 7 % . + + o X . . + % > > 0 > X . X   . . . < : , % > M g 9 :.#X[.4X,.~ >.~ 4. .E E 6.E -.2.b.b.o.-.5.4.2.{ b.b.} ! D D >.>.",
"D p | %.6.v.| E z E ~ N.D %.! E E P.2.[ [ 6.4.-.|  .v.x R ) 0X3XH.C.r B _ 0 m M d G #.i 4 # % % . % : ; + + O X % o > r %   .   o   O % > 0 0 * w m m w :.a.a.(.,.=.E c { E E 2.| c -.-.P.T.I | P.E %.>.%.%.S D %.#.! >.",
"A z | %.x %.| %.| %.! A D z D -.z 4.b.o.[ -.4.| | E 4.| 5.) ` ` d.;XV.s.z.r._ M 9 Q F M 7 # *     + , , % % > > o % % @ X O . X X % o   > B q q m Z i.d.M.Q ( ) -.4.P -.-.v x %.>.-.E  .b.4.E E L.{ -.| >.#.S z A ! h.#.",
"! >.>.%.{ -.| b.| h E D ! z { E %.6.-.[ E [ x h G #.D R #.) N :.qXXXXX2X|.3X:X' m m M M w Z q O X % < : % @ & 1 > * X . 1 w . . X > %   & a * 8 Z / C.rXC.! =.>.h.-.{ -. .-.E -.}  .-.-. .E -.{ E E h ! >.#.D #.#.( M d ",
"G >.! | E c b.b.! h E | >.! } E %.-. .7.I b.%.G h ! | h ~ h.M ' 3X&X3X:Xs.' d.W.' m M a b F 7 @ @ O . O * $ # $ w @ 7 Z Q ( 8 * X % O O O # # 8 w m Z [.F.#.=.~ { 6.4.6.-.4.4.} b.>.! | ! -.!.h.h D >.-.4.@.&.G #.G a A ",
"A #.B.>.D D -.-.| E ! h.L.6.E c D E c I x -.E ! h.) A R =.>.( N _ *X/.' Z g ` 4Xd.` d./ b 8 N 9 @ O O * q 8 - 4 M 1 m ) @.>./ w % 1 7 8 a d 9 M 8 8 ` C.D.:.~.o.-.4.4. .E D } } %.%.z 5.-.E h.b.h ! N.5.#.N.>.S ! ( &.h ",
"( M.>.! %.! D | ! %.E ! L.5.[ -.v.-.6.6.3.4.! G Q h ! >.,.-.) ) Q ' N Q ( ) a.` Z d.*Xd.F m g 5 - - 0 e 4 4 6 5 F m 9 8 h #.h @ O w m i ! ! 9 8 7 w / [.}.c.;.[ L.v. .| 4.| %.%.#.A @.>.h.>.! h.>.! >.A G @.G S A @.M ( ",
"A N h -.>.b.4.%.c z -.| 6.E  .E | { 5.2.|  .! &.N.! S >.!.R R ) :.Q M Q ! N Q N Q 0X;X` ` / g 8 7 $ q q # = i 5 4 M h 8 5 d 4 * % > B 4 d N 9 9 m r.S.].=X(.5.I 6.6.4.D %.-.G #.%.} N.G #.@.~ E >.| #.S S #.@.G ! G ( &.",
"A ! h.! %.%.%.E l f b.[ 0.5.| 4.[ [ x  .E >.>.! ! h ! Q ! R Q Q R F d ) M.#.g ( a.|.D.C.d.i.B w 7 - $ - - 9 9 5 5 5 a 8 9 N m 7 < , e 8 w Q ' ` i.C.;XXX3X-X! %.5.-.{ E D ! D G ! h.E.h.E >.N.D h G *.*.*.B.l.A ! :.>.! ",
"h #.>.>.#.4.E 4.| c I 5.~.o.c E |  .-.-.z z h A #.S Q ) Q :.Q M Q ! Q N :.! Q ) :.p.D.*X` y./ V 8 # 1 M 4 9 - 7 w 8 g m Q _ m 0 0 t K _ Q a.}.F.D.D.XX6XD.*X&.#.>.-.>.E #.! ! #.>.h.B.5.@.>.-.| S G #.#.S S >.! >.! ! G ",
"E %.j.z  .4.4.v 2.-.[ T.K.[ |  .c 6.6.-.| E =.>.Z.G Q ! S B.) a.R h.Q ! R ) :.R ) c.#XM.:.f.C.` w * 1 / 8 7 w Z ` Z J u.` J B B m B _ m ` p.C.D.C.].*XrXd./ #.@.>.>.#.@.@.#.! &.#.! @.! -.#.D 5.! ! Q.#.G ! E | !.%.! ! ",
"-.4.h.| 5.| -.c c -.5.~.| E v.v. .c E | | D >.Q #.G M Q ~ :.:.:.:.A.! j N h.Q h.R N =.) ) :X0XwX` r B / m w Z &.i.d.|.S.5XS.Z _ r.C.` w :.:.a.a.:.` u./ i.:.@.>.>.@.%.! #.@.#.@.G h #.>.E E ! b.h.! @.#.| E %. .>.-.b.b.",
"E -.} %.L.4.c 2.E J.~.P.E E 5.o.E E  .c -.| S ! h ! ) Q :.Q ! R N.h.>.! ! | ~ ,.! #.) >.a.! N.a.F.d.` p.` Q :.` N i.#XtXH.6Xi.H.D.p.Q a.) =.:.:.) ! ) M F @.! ! D h A M ( @.:.p.! h ! ! ! ! | =.-.z #.N.! x | E { -.-. .",
"%.{ D -._.+X5._. .3.{ -.| f  .-.c 5.v.| | R j h Q S :.Q ) Q N >.!.E.#.! | ! N.c.j v.R R R R !.a.:.) R Q Q :.) S g ( Q F.d._ s.3Xd.W.a.>.>.v.~ -.>.Q G :.! ! 4.D @.#.A Q #.>.Q #.! ! ! @.! -.h.b.! ! @.-.E c -.b.x -.4.-.",
"c { v E | P.5.v.3.v.| E E E 4.E E 6. .;.h.R ! ! G G h ! ! h ! #.>.S S @.E =.5.,.P W W ~ E P.B.=.:.R c.~ E !.>.,.-.c.!.,.:./.N.h.p.h.:.>.=.{ 5.! A Q ( G p.g.@.S ! A M G &.&.! G ( a A ! ! >.N.h.N.! | E | [ E 6.4.v.2.o.",
"-.6.c -.4.[ [ 3.K. .{ 4.| E  .f -.2.-.v. .D >.| ! ) A Q G ! >.Q #.h h ,.>.D R 5.E b.E E E | o.-.W X.e.o.P W ;.E b.-.5.| E ! #.! h.#.! ! E { >.%.G @.&.A S h #.>.! N Q h.( >.#.S ( ! A A >.-.! h.-.%.%.b. .c L.-.5.v.3.2.",
"c L.P.-.J.-.[ [ | -.4.6.{ b.c v c E E -.-.E D ! ! #.#.~ G ~ #.A ) ) h ! =.| j  .E 3.-.E -.P.o.-.q.Y Y W I w.;.3.;.E X.P { | E %.! | 5.! 5.%.#.! *.G ! ! A h ! #.A >.#.&.G ( Q ! N.Z.@.! G %.>.E E ~.c.%.[ E K.2.[ -.{ w.",
"D z { -.J.6.w. .2.[ |  . .6.h { E -.-.-. .! R >.%.E ,.h.=.! >.! N.>.S >.,.@.R L.;.E -.o.[ 3.| 5.U U U e.3.X.9.Y.w.K.X.E I  .b.E ! @.%.! -.-.>.@.#.G >.>.#.( h #.) ) ( ! #.&.G &.>.h.#.! %.-.{ ! 4.-.,.{ -.| | o.{  .o.6.",
"z D 4.x 2.E 6.J. .E I ~.-.h E  .E -.{ E  .=.v v.c.| f D 5.| B.N.#.B.B.! ! ! %.=. .E X.W -.;.9.0...K.w.w.m.Y.9.Y.-.2.o.| 5.E E ! >.>.%.>.*.@.g.( ( ! >.N.M.N ! h.h.>.! ) Q ( d h.h.p.B.| >.%.%.4.-.E { v v 6.-.| [ -.I.-.",
"} $.-.D x 6.-.[ I { v 5.-.%.%.E  .%. .4.-.{ ~ 4.-.| E c.| %.W ~ #.-.#.>.-.| | b.| v.0.W o.x I { o.Y.3.3.;.m.;.3.E | P.| | -.-.c 5.-.-.L.>.h.>.! h ! l.G S ! #.) A @.! A ( ( ) #.h.h.%.%.h.E 4.{ E !  .v E | 4. .E 2.[ 2.",
"G D H z [ I.%. .[ E c %.4.-.! z z v v -.4. .| {  . .W c.,.-.4. .| R %.%.b.c { 2.~.v.o.o.W 9.{ X.Y.9.o.5.| W P P I P ,. .%.{ b.! ! E b.%.G G #.>.G S G @.@.>.! h.>.! ! #.N.@.#.#.#.(.b.5.-.-.-.-.E -.x E 6.b.%.D } -.5.D ",
"} z } [ [ [ D 2.o. .4.| 4.-.>.f D 4.v x -.[ { o.-.[ 3.3.n.b.| o.-.{ E E { E o.6.-.| v.T.m.I P { 5.X.{ { -.| W | ;.0.0.L.o.{ |  .{ -.E z %.A E.! #.@.h @.#.G h :.h.5.5.>.#.! ! A ! E.-.| 4.E c E E D  .{ 2. .-.%.6.%.[ } ",
"H G H $.4.1.D 2. .2.6.D -.E ! N.} x j.D f -.I J.5.-.P.OXo.Y.3.b.5.2.3.E 5.0.b.E E v.| 5.7.R.O.I o.e.3.;.3.| 3.5.-.c T.2.-.x -.6.I ~ x ! D #.@.@.#.D #.! | #.) c.,.5.h.%.>.D @.E G B.(.| 5.-.{ E  .f E  . .| D 2.6.%. .z ",
"G $.$.1.*.2.L. .[ 6.l D | z -.-.D | -.5.{ | E [ v.E X.P P Y.X.o.| o.2.| o.2.K.K.3.-.| I ..7.O.R.7.Y X.w.o.;.I o.E o.v.7.| -.E 5.5.0. .| G d ! g.g.%.>.-.D >.h.#.N.E.z z ! ! >.! @.! ! 5.-.[ E | l c } D J.b.z [ L.J.H } "
};
