/* XPM */
static char *_941170f4fde4df393e8578fc9749671UHb4nDXcBLpWpWfI[] = {
/* columns rows colors chars-per-pixel */
"32 32 222 2 ",
"   c #221E13",
".  c #0D3606",
"X  c #153301",
"o  c #183607",
"O  c #0D2C13",
"+  c #132C12",
"@  c #142917",
"#  c #113411",
"$  c #153910",
"%  c #1B3A11",
"&  c #133319",
"*  c #1B3A1B",
"=  c #1C3717",
"-  c #28360D",
";  c #2A2617",
":  c #342F1B",
">  c #283A16",
",  c #3A3A19",
"<  c #1C3823",
"1  c #232F23",
"2  c #3F2C23",
"3  c #382828",
"4  c #263B24",
"5  c #353729",
"6  c #443816",
"7  c #443826",
"8  c #1B4303",
"9  c #154A04",
"0  c #1A4D00",
"q  c #16420A",
"w  c #1D450C",
"e  c #194607",
"r  c #1B5200",
"t  c #1D4316",
"y  c #164116",
"u  c #224603",
"i  c #244C0D",
"p  c #24420C",
"a  c #255306",
"s  c #284312",
"d  c #274819",
"f  c #3C4713",
"g  c #35451A",
"h  c #2B5415",
"j  c #2A5C12",
"k  c #245419",
"l  c #3A521D",
"z  c #36551C",
"x  c #336809",
"c  c #2B7B06",
"v  c #2C750E",
"b  c #2D7A0E",
"n  c #327B0D",
"m  c #3A7C0B",
"M  c #33760A",
"N  c #356719",
"B  c #2C7612",
"V  c #2D7C12",
"C  c #267E1B",
"Z  c #2D7C1D",
"A  c #227911",
"S  c #3C7416",
"D  c #337C13",
"F  c #3A7D15",
"G  c #33751A",
"H  c #3C741D",
"J  c #337C1A",
"K  c #3B7D1C",
"L  c #337714",
"P  c #26442B",
"I  c #234024",
"U  c #344726",
"Y  c #2F5E2A",
"T  c #3C5723",
"R  c #355827",
"E  c #2D4B33",
"W  c #3C5836",
"Q  c #3C6825",
"!  c #277E20",
"~  c #367422",
"^  c #3B7222",
"/  c #347C22",
"(  c #3B7D23",
")  c #487519",
"_  c #477A03",
"`  c #495421",
"'  c #415F23",
"]  c #434722",
"[  c #47682D",
"{  c #437A25",
"}  c #447B2C",
"|  c #497A2A",
" . c #43722A",
".. c #457B30",
"X. c #4C7933",
"o. c #4C7537",
"O. c #517739",
"+. c #4F6939",
"@. c #3D5545",
"#. c #585E52",
"$. c #587C47",
"%. c #5B7755",
"&. c #2D810C",
"*. c #33810D",
"=. c #3C8009",
"-. c #2D8413",
";. c #2E8A1D",
":. c #348315",
">. c #3A8315",
",. c #348A14",
"<. c #3D8914",
"1. c #35831B",
"2. c #3B841C",
"3. c #348B1B",
"4. c #3C8A1D",
"5. c #3B921D",
"6. c #338223",
"7. c #3C8422",
"8. c #3D8B23",
"9. c #3C842A",
"0. c #3C8B2B",
"q. c #378C25",
"w. c #3C902A",
"e. c #3D9224",
"r. c #3D8D30",
"t. c #428305",
"y. c #438512",
"u. c #4D8F14",
"i. c #41841B",
"p. c #438A1C",
"a. c #498C1D",
"s. c #488615",
"d. c #5B8C1F",
"f. c #42921D",
"g. c #4A901C",
"h. c #549619",
"j. c #5A941B",
"k. c #428425",
"l. c #428C23",
"z. c #498C23",
"x. c #43832B",
"c. c #49822E",
"v. c #458D2B",
"b. c #498E2C",
"n. c #439123",
"m. c #4B9325",
"M. c #44922B",
"N. c #49932C",
"B. c #4C8334",
"V. c #4C8B34",
"C. c #498B37",
"Z. c #5B8F3D",
"A. c #558237",
"S. c #489534",
"D. c #578B27",
"F. c #699829",
"G. c #668B34",
"H. c #62943A",
"J. c #639738",
"K. c #729B3D",
"L. c #75A72B",
"P. c #62A531",
"I. c #78AC37",
"U. c #7BBA39",
"Y. c #69A22D",
"T. c #5E9142",
"R. c #5F8752",
"E. c #6A9B4D",
"W. c #6B9845",
"Q. c #6E8C58",
"!. c #688545",
"~. c #6FAF4E",
"^. c #71A042",
"/. c #6FB147",
"(. c #79B45C",
"). c #78B748",
"_. c #709D62",
"`. c #7EC042",
"'. c #84B03F",
"]. c #8CCB3E",
"[. c #88C63F",
"{. c #99D23E",
"}. c #A5DC3B",
"|. c #86B946",
" X c #91BD4E",
".X c #80B658",
"XX c #8BC64E",
"oX c #99C84A",
"OX c #9CD948",
"+X c #8CCC57",
"@X c #9CD353",
"#X c #93CA53",
"$X c #A3DC4C",
"%X c #A8DC4C",
"&X c #A4DA47",
"*X c #A2D656",
"=X c #ABE344",
"-X c #A5E14B",
";X c #ADE44B",
":X c #A9E749",
">X c #B1E74C",
",X c #B3EA4B",
"<X c #B5E94A",
"1X c #BEF44C",
"2X c #AAE557",
"3X c #B4EC52",
"4X c #B7EA5A",
"5X c #B5F254",
"6X c #BCF353",
"7X c #BCF45C",
"8X c #B9F659",
"9X c #9AD463",
"0X c #B2E56F",
"qX c #BCF463",
"wX c #B8E973",
"eX c #C1F24C",
"rX c #C4F84D",
"tX c #C4F554",
"yX c #C5FA54",
"uX c #C8F857",
"iX c #C5FB5A",
"pX c #C5F45B",
/* pixels */
"B J l.J 7.1.8.1.3.c :.1.D l.n 2.J ( C.( J b >.3.:.:.3.:.:.n.B K ",
"2.2.1.2.2.1.1.4.4.V 2.V l.D p.2.7.7.( k.J 2.:.2.1.8.1.3.:.:.7.7.",
"7.7.:.4.4.l.2.8.J v.7.2.>.m.y.m a.p.z.>.p.>.l.J 9./ M.n.>.2.7.9.",
"J 2.>.:.2.4.2.1.9.9.G b.M a.+XU.`.h.t.u.h.=.F 7.9./ N.3.:.>.7.9.",
"1.4.<.*.2.2.>.F 7.G ( x.H ).2X:X8XOX2X].[.t.y.F / x.J b :.b 7.J ",
"8.4.*.<.2.2.F k.G V.^ { x 9X3X:X=X7X8X8X;X$XU.y.2.v.2.:.f.p.8.7.",
"1.:.n >.2.K K c.k 9 E.D.s.*X8X6X1XyX6XyXiX5X2XXXu.>.D D :.4.V Z ",
"7.2.l.>.b.k.c...q q W.a L.%X3XiXrXrX1XtXuX6X7X$XU.P.>.n.4.:.l.7.",
"V 2.1.K K V.} k # $ H.L.%X>X3XtXrXeXtXtXtXiX7XqXXXm >.z.2.2.V 1.",
"1.8.B ( } N Q t & d 8  X%X}.=X,XtXyXuXtXtXtX7X2XF.M z.l.>.l.D 8.",
"V 8.S.C...9 . $ # %.u ) oX;X=X=X=X<XeXuXuXpX2X|.9 x.K L 2.4.J J ",
"1.1./ ~ ^ q $ W * d Q.) I.%X>X=X>X3X,XtXtX7X*XF.0 (.x.K n l.B 6.",
"V M.( C.} 8 # P + 4 W A.'.&X-X=X{.&X=XtXiX7X@Xd.0 Z.(.k.m.4.7.9.",
"1.7.G } c.h * < 4 + = p K.@XqX,X=X&X}.=X}.;X2X|.r J.~.k.n 2.l.v.",
":.D v.( ^ i * < W d @ I Q |.3X6X5X=X=X=X}.=X3X$Xj.+X/.z.p.D 1.B ",
"8.2.7.k.| w P O Q.R E & R H.$X;X-X{.OX$X&X3X7X4X@X).m.D 4.D 7.K ",
"1.7.L H | i * * d R.Y t . [ G.F.oX_ |.XXY.#XwX0XI.a.n &.e.2.K H ",
"7.2.D K c.a % $ w $._.k y t !.G.G.x .XH.x S ^.H.x i.:.-.:.8.K ) ",
"K b.2.D 7.~ Y s X s o R P O t h i E.Z.T.A.Q 8 0 H S 4.N.1.1.>.>.",
"D 2.b 1.8.C.B.O.h p +.U 4 @.%.= > $.z i w e w j B.( l.l.1.1.3.c ",
"4.l.3.3.3.3.7.} X.u X % + 1 #.5 5 ; U o X h } c.K v.7.K b.7.D 4.",
"v 1.e.-.3.-.4.2.( | X.z > 4   ; 3 ; ; > T B.G b.1.v.L 2.4.7.v 8.",
"K J 7.8.3.&.&.<.J G H  .z > ; 2 2 7 > T | L *.,.3.l.J 2.v l.J J ",
"F p.2.v.:.f.<.f.l.1.k.( A.' - : 7 : g O.k.:.5.,.,.3.2.N.N.7.K N.",
"a.i.( G l.p.<.M l.2.l.b.G | ' - , - o.x.q.-.3.:.>.D N.8.J 8.:.>.",
"m i.K 7.p.2.m y.J J B 7.k.{ O.s , g X.( A ;.4.:.>.2.2.J 6.V >.c ",
"m.4.2.l.K K i.z.b.0.0.0.V.{ [ - , ] o.C.9.w.2.>.F 2.4.1.M.8.4.>.",
"&.:.V V v.K L 2.J Z ! 6.( N l , 7 , l N ~ J F >.F >.D -.-.1.D J ",
",.-.3.8.9.9.l.2.1.w.C r.k.a f , 6 6 g 8 j K z.i.i.m.:.n.,.:.b.9.",
"-.5.-.V / 9.2.p.:.V C 6.v.N l ` f ` T h j K K n b n :.4.:.D 7.G ",
"n D D 2.7.v.p.>.g.n :.b 2.k.^ B.B.B.c.( / Z 6.1.8.:.m.l.4.l.L D ",
"i.z.m.4.0.J >.y.y.y.:.n.f.S.9.9.7.J 8.1.r.6.S.r.8.l.n >.2.l.1.8."
};
